(Generated by PartKam Version 0.05)

G21 G90 G40

(drill 1)
G0 Z1
T0 M6
G17
M3
G0 X1.0444162436548223 Y-0.38604060913705585
G1 Z-0.1 F200
G1 Z0 F200
G1 Z-0.2 F200
G1 Z0 F200
G1 Z-0.3 F200
G1 Z0 F200
G1 Z-0.4 F200
G1 Z0 F200
G1 Z-0.5 F200
G1 Z0 F200
G1 Z-0.6 F200
G1 Z0 F200
G1 Z-0.7 F200
G1 Z0 F200
G1 Z-0.8 F200
G1 Z0 F200
G1 Z-0.9 F200
G1 Z0 F200
G1 Z-1 F200
G1 Z0 F200
G1 Z-1.1 F200
G1 Z0 F200
G1 Z-1.2 F200
G1 Z0 F200
G1 Z-1.3 F200
G1 Z0 F200
G1 Z-1.4 F200
G1 Z0 F200
G1 Z-1.5 F200
G1 Z0 F200
G1 Z-1.6 F200
G1 Z0 F200
G1 Z-1.7 F200
G1 Z0 F200
G1 Z-1.8 F200
G1 Z0 F200
G1 Z-1.9 F200
G1 Z0 F200
G1 Z-2 F200
G1 Z0 F200
G1 Z-2.1 F200
G1 Z0 F200
G1 Z-2.2 F200
G1 Z0 F200
G1 Z-2.3 F200
G1 Z0 F200
G1 Z-2.4 F200
G1 Z0 F200
G1 Z-2.5 F200
G1 Z0 F200
G1 Z-2.6 F200
G1 Z0 F200
G1 Z-2.7 F200
G1 Z0 F200
G1 Z-2.8 F200
G1 Z0 F200
G1 Z-2.9 F200
G1 Z0 F200
G1 Z-3 F200
G1 Z0 F200
G1 Z-3.1 F200
G1 Z0 F200
G1 Z-3.2 F200
G1 Z0 F200
G1 Z-3.3 F200
G1 Z0 F200
G1 Z-3.4 F200
G1 Z0 F200
G1 Z-3.5 F200
G1 Z0 F200
G1 Z-3.6 F200
G1 Z0 F200
G1 Z-3.7 F200
G1 Z0 F200
G1 Z-3.8 F200
G1 Z0 F200
G1 Z-3.9 F200
G1 Z0 F200
G1 Z-4 F200
G1 Z0 F200
G1 Z-4.1 F200
G1 Z0 F200
G1 Z-4.2 F200
G1 Z0 F200
G1 Z-4.3 F200
G1 Z0 F200
G1 Z-4.4 F200
G1 Z0 F200
G1 Z-4.5 F200
G1 Z0 F200
G1 Z-4.6 F200
G1 Z0 F200
G1 Z-4.7 F200
G1 Z0 F200
G1 Z-4.8 F200
G1 Z0 F200
G1 Z-4.9 F200
G1 Z0 F200
G1 Z-5 F200
G1 Z0 F200
G1 Z-5.1 F200
G1 Z0 F200
G1 Z-5.2 F200
G1 Z0 F200
G1 Z-5.3 F200
G1 Z0 F200
G1 Z-5.4 F200
G1 Z0 F200
G1 Z-5.5 F200
G1 Z0 F200
G1 Z-5.6 F200
G1 Z0 F200
G1 Z-5.7 F200
G1 Z0 F200
G1 Z-5.8 F200
G1 Z0 F200
G1 Z-5.9 F200
G1 Z0 F200
G1 Z-6 F200
G1 Z0 F200
G1 Z-6.1 F200
G1 Z0 F200
G1 Z-6.2 F200
G1 Z0 F200
G1 Z-6.3 F200
G1 Z0 F200
G1 Z-6.4 F200
G1 Z0 F200
G1 Z-6.5 F200
G1 Z0 F200
G1 Z-6.6 F200
G1 Z0 F200
G1 Z-6.7 F200
G1 Z0 F200
G1 Z-6.8 F200
G1 Z0 F200
G1 Z-6.9 F200
G1 Z0 F200
G1 Z-7 F200
G1 Z0 F200
G1 Z-7.1 F200
G1 Z0 F200
G1 Z-7.2 F200
G1 Z0 F200
G1 Z-7.3 F200
G1 Z0 F200
G1 Z-7.4 F200
G1 Z0 F200
G1 Z-7.5 F200
G1 Z0 F200
G1 Z-7.6 F200
G1 Z0 F200
G1 Z-7.7 F200
G1 Z0 F200
G1 Z-7.8 F200
G1 Z0 F200
G1 Z-7.9 F200
G1 Z0 F200
G1 Z-8 F200
G1 Z0 F200
G1 Z-8.1 F200
G1 Z0 F200
G1 Z-8.2 F200
G1 Z0 F200
G1 Z-8.3 F200
G1 Z0 F200
G1 Z-8.4 F200
G1 Z0 F200
G1 Z-8.5 F200
G1 Z0 F200
G0 Z1
M5
M30
