(Generated by PartKam Version 0.05)

G21 G90 G40

(inlay)
G0 Z2
T0 M6
G17
M3
G0 X31.4423 Y47.9489
G1 Z-0.1 F200
G1 X14.6167 Y47.9492 F400
G1 X14.6167 Y47.9238
G1 X31.4416 Y47.9238
G1 X31.4416 Y47.9492
G0 Z2
G0 X31.4423 Y47.9489
G1 Z-0.2 F200
G1 X14.6167 Y47.9492 F400
G1 X14.6167 Y47.9238
G1 X31.4416 Y47.9238
G1 X31.4416 Y47.9492
G0 Z2
G0 X31.4423 Y47.9489
G1 Z-0.3 F200
G1 X14.6167 Y47.9492 F400
G1 X14.6167 Y47.9238
G1 X31.4416 Y47.9238
G1 X31.4416 Y47.9492
G0 Z2
G0 X31.4423 Y47.9489
G1 Z-0.4 F200
G1 X14.6167 Y47.9492 F400
G1 X14.6167 Y47.9238
G1 X31.4416 Y47.9238
G1 X31.4416 Y47.9492
G0 Z2
G0 X31.4423 Y47.9489
G1 Z-0.5 F200
G1 X14.6167 Y47.9492 F400
G1 X14.6167 Y47.9238
G1 X31.4416 Y47.9238
G1 X31.4416 Y47.9492
G0 Z2
G0 X31.4423 Y47.9489
G1 Z-0.6 F200
G1 X14.6167 Y47.9492 F400
G1 X14.6167 Y47.9238
G1 X31.4416 Y47.9238
G1 X31.4416 Y47.9492
G0 Z2
G0 X31.4423 Y47.9489
G1 Z-0.7 F200
G1 X14.6167 Y47.9492 F400
G1 X14.6167 Y47.9238
G1 X31.4416 Y47.9238
G1 X31.4416 Y47.9492
G0 Z2
G0 X31.4423 Y47.9489
G1 Z-0.8 F200
G1 X14.6167 Y47.9492 F400
G1 X14.6167 Y47.9238
G1 X31.4416 Y47.9238
G1 X31.4416 Y47.9492

(pocket 2)
G0 Z2
G0 X65.6423 Y47.9489
G1 Z-0.1 F200
G1 X48.8172 Y47.9492 F400
G1 X48.8172 Y47.9238
G1 X65.6421 Y47.9238
G1 X65.6421 Y47.9492
G0 Z2
G0 X65.6423 Y47.9489
G1 Z-0.2 F200
G1 X48.8172 Y47.9492 F400
G1 X48.8172 Y47.9238
G1 X65.6421 Y47.9238
G1 X65.6421 Y47.9492
G0 Z2
G0 X65.6423 Y47.9489
G1 Z-0.3 F200
G1 X48.8172 Y47.9492 F400
G1 X48.8172 Y47.9238
G1 X65.6421 Y47.9238
G1 X65.6421 Y47.9492
G0 Z2
G0 X65.6423 Y47.9489
G1 Z-0.4 F200
G1 X48.8172 Y47.9492 F400
G1 X48.8172 Y47.9238
G1 X65.6421 Y47.9238
G1 X65.6421 Y47.9492
G0 Z2
G0 X65.6423 Y47.9489
G1 Z-0.5 F200
G1 X48.8172 Y47.9492 F400
G1 X48.8172 Y47.9238
G1 X65.6421 Y47.9238
G1 X65.6421 Y47.9492
G0 Z2
G0 X65.6423 Y47.9489
G1 Z-0.6 F200
G1 X48.8172 Y47.9492 F400
G1 X48.8172 Y47.9238
G1 X65.6421 Y47.9238
G1 X65.6421 Y47.9492
G0 Z2
G0 X65.6423 Y47.9489
G1 Z-0.7 F200
G1 X48.8172 Y47.9492 F400
G1 X48.8172 Y47.9238
G1 X65.6421 Y47.9238
G1 X65.6421 Y47.9492
G0 Z2
G0 X65.6423 Y47.9489
G1 Z-0.8 F200
G1 X48.8172 Y47.9492 F400
G1 X48.8172 Y47.9238
G1 X65.6421 Y47.9238
G1 X65.6421 Y47.9492

(pocket 3)
G0 Z2
G0 X14.6175 Y131.9238
G1 Z-0.1 F200
G1 X31.4416 Y131.9238 F400
G1 X31.4416 Y131.9492
G1 X14.6167 Y131.9492
G1 X14.6167 Y131.9238
G0 Z2
G0 X14.6175 Y131.9238
G1 Z-0.2 F200
G1 X31.4416 Y131.9238 F400
G1 X31.4416 Y131.9492
G1 X14.6167 Y131.9492
G1 X14.6167 Y131.9238
G0 Z2
G0 X14.6175 Y131.9238
G1 Z-0.3 F200
G1 X31.4416 Y131.9238 F400
G1 X31.4416 Y131.9492
G1 X14.6167 Y131.9492
G1 X14.6167 Y131.9238
G0 Z2
G0 X14.6175 Y131.9238
G1 Z-0.4 F200
G1 X31.4416 Y131.9238 F400
G1 X31.4416 Y131.9492
G1 X14.6167 Y131.9492
G1 X14.6167 Y131.9238
G0 Z2
G0 X14.6175 Y131.9238
G1 Z-0.5 F200
G1 X31.4416 Y131.9238 F400
G1 X31.4416 Y131.9492
G1 X14.6167 Y131.9492
G1 X14.6167 Y131.9238
G0 Z2
G0 X14.6175 Y131.9238
G1 Z-0.6 F200
G1 X31.4416 Y131.9238 F400
G1 X31.4416 Y131.9492
G1 X14.6167 Y131.9492
G1 X14.6167 Y131.9238
G0 Z2
G0 X14.6175 Y131.9238
G1 Z-0.7 F200
G1 X31.4416 Y131.9238 F400
G1 X31.4416 Y131.9492
G1 X14.6167 Y131.9492
G1 X14.6167 Y131.9238
G0 Z2
G0 X14.6175 Y131.9238
G1 Z-0.8 F200
G1 X31.4416 Y131.9238 F400
G1 X31.4416 Y131.9492
G1 X14.6167 Y131.9492
G1 X14.6167 Y131.9238

(pocket 4)
G0 Z2
G0 X48.8175 Y131.9238
G1 Z-0.1 F200
G1 X65.6421 Y131.9238 F400
G1 X65.6421 Y131.9492
G1 X48.8172 Y131.9492
G1 X48.8172 Y131.9238
G0 Z2
G0 X48.8175 Y131.9238
G1 Z-0.2 F200
G1 X65.6421 Y131.9238 F400
G1 X65.6421 Y131.9492
G1 X48.8172 Y131.9492
G1 X48.8172 Y131.9238
G0 Z2
G0 X48.8175 Y131.9238
G1 Z-0.3 F200
G1 X65.6421 Y131.9238 F400
G1 X65.6421 Y131.9492
G1 X48.8172 Y131.9492
G1 X48.8172 Y131.9238
G0 Z2
G0 X48.8175 Y131.9238
G1 Z-0.4 F200
G1 X65.6421 Y131.9238 F400
G1 X65.6421 Y131.9492
G1 X48.8172 Y131.9492
G1 X48.8172 Y131.9238
G0 Z2
G0 X48.8175 Y131.9238
G1 Z-0.5 F200
G1 X65.6421 Y131.9238 F400
G1 X65.6421 Y131.9492
G1 X48.8172 Y131.9492
G1 X48.8172 Y131.9238
G0 Z2
G0 X48.8175 Y131.9238
G1 Z-0.6 F200
G1 X65.6421 Y131.9238 F400
G1 X65.6421 Y131.9492
G1 X48.8172 Y131.9492
G1 X48.8172 Y131.9238
G0 Z2
G0 X48.8175 Y131.9238
G1 Z-0.7 F200
G1 X65.6421 Y131.9238 F400
G1 X65.6421 Y131.9492
G1 X48.8172 Y131.9492
G1 X48.8172 Y131.9238
G0 Z2
G0 X48.8175 Y131.9238
G1 Z-0.8 F200
G1 X65.6421 Y131.9238 F400
G1 X65.6421 Y131.9492
G1 X48.8172 Y131.9492
G1 X48.8172 Y131.9238

(m5)
G0 Z2
G0 X23.0299 Y39.5238
G1 Z-0.1 F200
G3 X23.3781 Y39.5939 I0 J0.9137 F400
G3 X23.6751 Y39.7918 I-0.3502 J0.8426
G3 X23.8730 Y40.0862 I-0.6446 J0.6446
G3 X23.9416 Y40.4365 I-0.8426 J0.3502
G3 X23.8730 Y40.7868 I-0.9137 J0
G3 X23.6751 Y41.0812 I-0.8426 J-0.3502
G3 X23.3781 Y41.2791 I-0.6446 J-0.6446
G3 X23.0304 Y41.3477 I-0.3502 J-0.8426
G3 X22.6802 Y41.2791 I0 J-0.9137
G3 X22.3857 Y41.0812 I0.3502 J-0.8426
G3 X22.1878 Y40.7868 I0.6446 J-0.6446
G3 X22.1167 Y40.4365 I0.8426 J-0.3502
G3 X22.1878 Y40.0862 I0.9137 J0
G3 X22.3857 Y39.7918 I0.8426 J0.3502
G3 X22.6802 Y39.5939 I0.6446 J0.6446
G3 X23.0304 Y39.5228 I0.3502 J0.8426
G0 Z2
G0 X23.0299 Y39.5238
G1 Z-0.2 F200
G3 X23.3781 Y39.5939 I0 J0.9137 F400
G3 X23.6751 Y39.7918 I-0.3502 J0.8426
G3 X23.8730 Y40.0862 I-0.6446 J0.6446
G3 X23.9416 Y40.4365 I-0.8426 J0.3502
G3 X23.8730 Y40.7868 I-0.9137 J0
G3 X23.6751 Y41.0812 I-0.8426 J-0.3502
G3 X23.3781 Y41.2791 I-0.6446 J-0.6446
G3 X23.0304 Y41.3477 I-0.3502 J-0.8426
G3 X22.6802 Y41.2791 I0 J-0.9137
G3 X22.3857 Y41.0812 I0.3502 J-0.8426
G3 X22.1878 Y40.7868 I0.6446 J-0.6446
G3 X22.1167 Y40.4365 I0.8426 J-0.3502
G3 X22.1878 Y40.0862 I0.9137 J0
G3 X22.3857 Y39.7918 I0.8426 J0.3502
G3 X22.6802 Y39.5939 I0.6446 J0.6446
G3 X23.0304 Y39.5228 I0.3502 J0.8426
G0 Z2
G0 X23.0299 Y39.5238
G1 Z-0.3 F200
G3 X23.3781 Y39.5939 I0 J0.9137 F400
G3 X23.6751 Y39.7918 I-0.3502 J0.8426
G3 X23.8730 Y40.0862 I-0.6446 J0.6446
G3 X23.9416 Y40.4365 I-0.8426 J0.3502
G3 X23.8730 Y40.7868 I-0.9137 J0
G3 X23.6751 Y41.0812 I-0.8426 J-0.3502
G3 X23.3781 Y41.2791 I-0.6446 J-0.6446
G3 X23.0304 Y41.3477 I-0.3502 J-0.8426
G3 X22.6802 Y41.2791 I0 J-0.9137
G3 X22.3857 Y41.0812 I0.3502 J-0.8426
G3 X22.1878 Y40.7868 I0.6446 J-0.6446
G3 X22.1167 Y40.4365 I0.8426 J-0.3502
G3 X22.1878 Y40.0862 I0.9137 J0
G3 X22.3857 Y39.7918 I0.8426 J0.3502
G3 X22.6802 Y39.5939 I0.6446 J0.6446
G3 X23.0304 Y39.5228 I0.3502 J0.8426
G0 Z2
G0 X23.0299 Y39.5238
G1 Z-0.4 F200
G3 X23.3781 Y39.5939 I0 J0.9137 F400
G3 X23.6751 Y39.7918 I-0.3502 J0.8426
G3 X23.8730 Y40.0862 I-0.6446 J0.6446
G3 X23.9416 Y40.4365 I-0.8426 J0.3502
G3 X23.8730 Y40.7868 I-0.9137 J0
G3 X23.6751 Y41.0812 I-0.8426 J-0.3502
G3 X23.3781 Y41.2791 I-0.6446 J-0.6446
G3 X23.0304 Y41.3477 I-0.3502 J-0.8426
G3 X22.6802 Y41.2791 I0 J-0.9137
G3 X22.3857 Y41.0812 I0.3502 J-0.8426
G3 X22.1878 Y40.7868 I0.6446 J-0.6446
G3 X22.1167 Y40.4365 I0.8426 J-0.3502
G3 X22.1878 Y40.0862 I0.9137 J0
G3 X22.3857 Y39.7918 I0.8426 J0.3502
G3 X22.6802 Y39.5939 I0.6446 J0.6446
G3 X23.0304 Y39.5228 I0.3502 J0.8426
G0 Z2
G0 X23.0299 Y39.5238
G1 Z-0.5 F200
G3 X23.3781 Y39.5939 I0 J0.9137 F400
G3 X23.6751 Y39.7918 I-0.3502 J0.8426
G3 X23.8730 Y40.0862 I-0.6446 J0.6446
G3 X23.9416 Y40.4365 I-0.8426 J0.3502
G3 X23.8730 Y40.7868 I-0.9137 J0
G3 X23.6751 Y41.0812 I-0.8426 J-0.3502
G3 X23.3781 Y41.2791 I-0.6446 J-0.6446
G3 X23.0304 Y41.3477 I-0.3502 J-0.8426
G3 X22.6802 Y41.2791 I0 J-0.9137
G3 X22.3857 Y41.0812 I0.3502 J-0.8426
G3 X22.1878 Y40.7868 I0.6446 J-0.6446
G3 X22.1167 Y40.4365 I0.8426 J-0.3502
G3 X22.1878 Y40.0862 I0.9137 J0
G3 X22.3857 Y39.7918 I0.8426 J0.3502
G3 X22.6802 Y39.5939 I0.6446 J0.6446
G3 X23.0304 Y39.5228 I0.3502 J0.8426
G0 Z2
G0 X23.0299 Y39.5238
G1 Z-0.6 F200
G3 X23.3781 Y39.5939 I0 J0.9137 F400
G3 X23.6751 Y39.7918 I-0.3502 J0.8426
G3 X23.8730 Y40.0862 I-0.6446 J0.6446
G3 X23.9416 Y40.4365 I-0.8426 J0.3502
G3 X23.8730 Y40.7868 I-0.9137 J0
G3 X23.6751 Y41.0812 I-0.8426 J-0.3502
G3 X23.3781 Y41.2791 I-0.6446 J-0.6446
G3 X23.0304 Y41.3477 I-0.3502 J-0.8426
G3 X22.6802 Y41.2791 I0 J-0.9137
G3 X22.3857 Y41.0812 I0.3502 J-0.8426
G3 X22.1878 Y40.7868 I0.6446 J-0.6446
G3 X22.1167 Y40.4365 I0.8426 J-0.3502
G3 X22.1878 Y40.0862 I0.9137 J0
G3 X22.3857 Y39.7918 I0.8426 J0.3502
G3 X22.6802 Y39.5939 I0.6446 J0.6446
G3 X23.0304 Y39.5228 I0.3502 J0.8426
G0 Z2
G0 X23.0299 Y39.5238
G1 Z-0.7 F200
G3 X23.3781 Y39.5939 I0 J0.9137 F400
G3 X23.6751 Y39.7918 I-0.3502 J0.8426
G3 X23.8730 Y40.0862 I-0.6446 J0.6446
G3 X23.9416 Y40.4365 I-0.8426 J0.3502
G3 X23.8730 Y40.7868 I-0.9137 J0
G3 X23.6751 Y41.0812 I-0.8426 J-0.3502
G3 X23.3781 Y41.2791 I-0.6446 J-0.6446
G3 X23.0304 Y41.3477 I-0.3502 J-0.8426
G3 X22.6802 Y41.2791 I0 J-0.9137
G3 X22.3857 Y41.0812 I0.3502 J-0.8426
G3 X22.1878 Y40.7868 I0.6446 J-0.6446
G3 X22.1167 Y40.4365 I0.8426 J-0.3502
G3 X22.1878 Y40.0862 I0.9137 J0
G3 X22.3857 Y39.7918 I0.8426 J0.3502
G3 X22.6802 Y39.5939 I0.6446 J0.6446
G3 X23.0304 Y39.5228 I0.3502 J0.8426
G0 Z2
G0 X23.0299 Y39.5238
G1 Z-0.8 F200
G3 X23.3781 Y39.5939 I0 J0.9137 F400
G3 X23.6751 Y39.7918 I-0.3502 J0.8426
G3 X23.8730 Y40.0862 I-0.6446 J0.6446
G3 X23.9416 Y40.4365 I-0.8426 J0.3502
G3 X23.8730 Y40.7868 I-0.9137 J0
G3 X23.6751 Y41.0812 I-0.8426 J-0.3502
G3 X23.3781 Y41.2791 I-0.6446 J-0.6446
G3 X23.0304 Y41.3477 I-0.3502 J-0.8426
G3 X22.6802 Y41.2791 I0 J-0.9137
G3 X22.3857 Y41.0812 I0.3502 J-0.8426
G3 X22.1878 Y40.7868 I0.6446 J-0.6446
G3 X22.1167 Y40.4365 I0.8426 J-0.3502
G3 X22.1878 Y40.0862 I0.9137 J0
G3 X22.3857 Y39.7918 I0.8426 J0.3502
G3 X22.6802 Y39.5939 I0.6446 J0.6446
G3 X23.0304 Y39.5228 I0.3502 J0.8426
G0 Z2
G0 X23.0299 Y39.5238
G1 Z-0.9 F200
G3 X23.3781 Y39.5939 I0 J0.9137 F400
G3 X23.6751 Y39.7918 I-0.3502 J0.8426
G3 X23.8730 Y40.0862 I-0.6446 J0.6446
G3 X23.9416 Y40.4365 I-0.8426 J0.3502
G3 X23.8730 Y40.7868 I-0.9137 J0
G3 X23.6751 Y41.0812 I-0.8426 J-0.3502
G3 X23.3781 Y41.2791 I-0.6446 J-0.6446
G3 X23.0304 Y41.3477 I-0.3502 J-0.8426
G3 X22.6802 Y41.2791 I0 J-0.9137
G3 X22.3857 Y41.0812 I0.3502 J-0.8426
G3 X22.1878 Y40.7868 I0.6446 J-0.6446
G3 X22.1167 Y40.4365 I0.8426 J-0.3502
G3 X22.1878 Y40.0862 I0.9137 J0
G3 X22.3857 Y39.7918 I0.8426 J0.3502
G3 X22.6802 Y39.5939 I0.6446 J0.6446
G3 X23.0304 Y39.5228 I0.3502 J0.8426
G0 Z2
G0 X23.0299 Y39.5238
G1 Z-1 F200
G3 X23.3781 Y39.5939 I0 J0.9137 F400
G3 X23.6751 Y39.7918 I-0.3502 J0.8426
G3 X23.8730 Y40.0862 I-0.6446 J0.6446
G3 X23.9416 Y40.4365 I-0.8426 J0.3502
G3 X23.8730 Y40.7868 I-0.9137 J0
G3 X23.6751 Y41.0812 I-0.8426 J-0.3502
G3 X23.3781 Y41.2791 I-0.6446 J-0.6446
G3 X23.0304 Y41.3477 I-0.3502 J-0.8426
G3 X22.6802 Y41.2791 I0 J-0.9137
G3 X22.3857 Y41.0812 I0.3502 J-0.8426
G3 X22.1878 Y40.7868 I0.6446 J-0.6446
G3 X22.1167 Y40.4365 I0.8426 J-0.3502
G3 X22.1878 Y40.0862 I0.9137 J0
G3 X22.3857 Y39.7918 I0.8426 J0.3502
G3 X22.6802 Y39.5939 I0.6446 J0.6446
G3 X23.0304 Y39.5228 I0.3502 J0.8426
G0 Z2
G0 X23.0299 Y39.5238
G1 Z-1.1 F200
G3 X23.3781 Y39.5939 I0 J0.9137 F400
G3 X23.6751 Y39.7918 I-0.3502 J0.8426
G3 X23.8730 Y40.0862 I-0.6446 J0.6446
G3 X23.9416 Y40.4365 I-0.8426 J0.3502
G3 X23.8730 Y40.7868 I-0.9137 J0
G3 X23.6751 Y41.0812 I-0.8426 J-0.3502
G3 X23.3781 Y41.2791 I-0.6446 J-0.6446
G3 X23.0304 Y41.3477 I-0.3502 J-0.8426
G3 X22.6802 Y41.2791 I0 J-0.9137
G3 X22.3857 Y41.0812 I0.3502 J-0.8426
G3 X22.1878 Y40.7868 I0.6446 J-0.6446
G3 X22.1167 Y40.4365 I0.8426 J-0.3502
G3 X22.1878 Y40.0862 I0.9137 J0
G3 X22.3857 Y39.7918 I0.8426 J0.3502
G3 X22.6802 Y39.5939 I0.6446 J0.6446
G3 X23.0304 Y39.5228 I0.3502 J0.8426
G0 Z2
G0 X23.0299 Y39.5238
G1 Z-1.2 F200
G3 X23.3781 Y39.5939 I0 J0.9137 F400
G3 X23.6751 Y39.7918 I-0.3502 J0.8426
G3 X23.8730 Y40.0862 I-0.6446 J0.6446
G3 X23.9416 Y40.4365 I-0.8426 J0.3502
G3 X23.8730 Y40.7868 I-0.9137 J0
G3 X23.6751 Y41.0812 I-0.8426 J-0.3502
G3 X23.3781 Y41.2791 I-0.6446 J-0.6446
G3 X23.0304 Y41.3477 I-0.3502 J-0.8426
G3 X22.6802 Y41.2791 I0 J-0.9137
G3 X22.3857 Y41.0812 I0.3502 J-0.8426
G3 X22.1878 Y40.7868 I0.6446 J-0.6446
G3 X22.1167 Y40.4365 I0.8426 J-0.3502
G3 X22.1878 Y40.0862 I0.9137 J0
G3 X22.3857 Y39.7918 I0.8426 J0.3502
G3 X22.6802 Y39.5939 I0.6446 J0.6446
G3 X23.0304 Y39.5228 I0.3502 J0.8426
G0 Z2
G0 X23.0299 Y39.5238
G1 Z-1.3 F200
G3 X23.3781 Y39.5939 I0 J0.9137 F400
G3 X23.6751 Y39.7918 I-0.3502 J0.8426
G3 X23.8730 Y40.0862 I-0.6446 J0.6446
G3 X23.9416 Y40.4365 I-0.8426 J0.3502
G3 X23.8730 Y40.7868 I-0.9137 J0
G3 X23.6751 Y41.0812 I-0.8426 J-0.3502
G3 X23.3781 Y41.2791 I-0.6446 J-0.6446
G3 X23.0304 Y41.3477 I-0.3502 J-0.8426
G3 X22.6802 Y41.2791 I0 J-0.9137
G3 X22.3857 Y41.0812 I0.3502 J-0.8426
G3 X22.1878 Y40.7868 I0.6446 J-0.6446
G3 X22.1167 Y40.4365 I0.8426 J-0.3502
G3 X22.1878 Y40.0862 I0.9137 J0
G3 X22.3857 Y39.7918 I0.8426 J0.3502
G3 X22.6802 Y39.5939 I0.6446 J0.6446
G3 X23.0304 Y39.5228 I0.3502 J0.8426
G0 Z2
G0 X23.0299 Y39.5238
G1 Z-1.4 F200
G3 X23.3781 Y39.5939 I0 J0.9137 F400
G3 X23.6751 Y39.7918 I-0.3502 J0.8426
G3 X23.8730 Y40.0862 I-0.6446 J0.6446
G3 X23.9416 Y40.4365 I-0.8426 J0.3502
G3 X23.8730 Y40.7868 I-0.9137 J0
G3 X23.6751 Y41.0812 I-0.8426 J-0.3502
G3 X23.3781 Y41.2791 I-0.6446 J-0.6446
G3 X23.0304 Y41.3477 I-0.3502 J-0.8426
G3 X22.6802 Y41.2791 I0 J-0.9137
G3 X22.3857 Y41.0812 I0.3502 J-0.8426
G3 X22.1878 Y40.7868 I0.6446 J-0.6446
G3 X22.1167 Y40.4365 I0.8426 J-0.3502
G3 X22.1878 Y40.0862 I0.9137 J0
G3 X22.3857 Y39.7918 I0.8426 J0.3502
G3 X22.6802 Y39.5939 I0.6446 J0.6446
G3 X23.0304 Y39.5228 I0.3502 J0.8426
G0 Z2
G0 X23.0299 Y39.5238
G1 Z-1.5 F200
G3 X23.3781 Y39.5939 I0 J0.9137 F400
G3 X23.6751 Y39.7918 I-0.3502 J0.8426
G3 X23.8730 Y40.0862 I-0.6446 J0.6446
G3 X23.9416 Y40.4365 I-0.8426 J0.3502
G3 X23.8730 Y40.7868 I-0.9137 J0
G3 X23.6751 Y41.0812 I-0.8426 J-0.3502
G3 X23.3781 Y41.2791 I-0.6446 J-0.6446
G3 X23.0304 Y41.3477 I-0.3502 J-0.8426
G3 X22.6802 Y41.2791 I0 J-0.9137
G3 X22.3857 Y41.0812 I0.3502 J-0.8426
G3 X22.1878 Y40.7868 I0.6446 J-0.6446
G3 X22.1167 Y40.4365 I0.8426 J-0.3502
G3 X22.1878 Y40.0862 I0.9137 J0
G3 X22.3857 Y39.7918 I0.8426 J0.3502
G3 X22.6802 Y39.5939 I0.6446 J0.6446
G3 X23.0304 Y39.5228 I0.3502 J0.8426
G0 Z2
G0 X23.0299 Y39.5238
G1 Z-1.6 F200
G3 X23.3781 Y39.5939 I0 J0.9137 F400
G3 X23.6751 Y39.7918 I-0.3502 J0.8426
G3 X23.8730 Y40.0862 I-0.6446 J0.6446
G3 X23.9416 Y40.4365 I-0.8426 J0.3502
G3 X23.8730 Y40.7868 I-0.9137 J0
G3 X23.6751 Y41.0812 I-0.8426 J-0.3502
G3 X23.3781 Y41.2791 I-0.6446 J-0.6446
G3 X23.0304 Y41.3477 I-0.3502 J-0.8426
G3 X22.6802 Y41.2791 I0 J-0.9137
G3 X22.3857 Y41.0812 I0.3502 J-0.8426
G3 X22.1878 Y40.7868 I0.6446 J-0.6446
G3 X22.1167 Y40.4365 I0.8426 J-0.3502
G3 X22.1878 Y40.0862 I0.9137 J0
G3 X22.3857 Y39.7918 I0.8426 J0.3502
G3 X22.6802 Y39.5939 I0.6446 J0.6446
G3 X23.0304 Y39.5228 I0.3502 J0.8426
G0 Z2
G0 X23.0299 Y39.5238
G1 Z-1.7 F200
G3 X23.3781 Y39.5939 I0 J0.9137 F400
G3 X23.6751 Y39.7918 I-0.3502 J0.8426
G3 X23.8730 Y40.0862 I-0.6446 J0.6446
G3 X23.9416 Y40.4365 I-0.8426 J0.3502
G3 X23.8730 Y40.7868 I-0.9137 J0
G3 X23.6751 Y41.0812 I-0.8426 J-0.3502
G3 X23.3781 Y41.2791 I-0.6446 J-0.6446
G3 X23.0304 Y41.3477 I-0.3502 J-0.8426
G3 X22.6802 Y41.2791 I0 J-0.9137
G3 X22.3857 Y41.0812 I0.3502 J-0.8426
G3 X22.1878 Y40.7868 I0.6446 J-0.6446
G3 X22.1167 Y40.4365 I0.8426 J-0.3502
G3 X22.1878 Y40.0862 I0.9137 J0
G3 X22.3857 Y39.7918 I0.8426 J0.3502
G3 X22.6802 Y39.5939 I0.6446 J0.6446
G3 X23.0304 Y39.5228 I0.3502 J0.8426
G0 Z2
G0 X23.0299 Y39.5238
G1 Z-1.8 F200
G3 X23.3781 Y39.5939 I0 J0.9137 F400
G3 X23.6751 Y39.7918 I-0.3502 J0.8426
G3 X23.8730 Y40.0862 I-0.6446 J0.6446
G3 X23.9416 Y40.4365 I-0.8426 J0.3502
G3 X23.8730 Y40.7868 I-0.9137 J0
G3 X23.6751 Y41.0812 I-0.8426 J-0.3502
G3 X23.3781 Y41.2791 I-0.6446 J-0.6446
G3 X23.0304 Y41.3477 I-0.3502 J-0.8426
G3 X22.6802 Y41.2791 I0 J-0.9137
G3 X22.3857 Y41.0812 I0.3502 J-0.8426
G3 X22.1878 Y40.7868 I0.6446 J-0.6446
G3 X22.1167 Y40.4365 I0.8426 J-0.3502
G3 X22.1878 Y40.0862 I0.9137 J0
G3 X22.3857 Y39.7918 I0.8426 J0.3502
G3 X22.6802 Y39.5939 I0.6446 J0.6446
G3 X23.0304 Y39.5228 I0.3502 J0.8426
G0 Z2
G0 X23.0299 Y39.5238
G1 Z-1.9 F200
G3 X23.3781 Y39.5939 I0 J0.9137 F400
G3 X23.6751 Y39.7918 I-0.3502 J0.8426
G3 X23.8730 Y40.0862 I-0.6446 J0.6446
G3 X23.9416 Y40.4365 I-0.8426 J0.3502
G3 X23.8730 Y40.7868 I-0.9137 J0
G3 X23.6751 Y41.0812 I-0.8426 J-0.3502
G3 X23.3781 Y41.2791 I-0.6446 J-0.6446
G3 X23.0304 Y41.3477 I-0.3502 J-0.8426
G3 X22.6802 Y41.2791 I0 J-0.9137
G3 X22.3857 Y41.0812 I0.3502 J-0.8426
G3 X22.1878 Y40.7868 I0.6446 J-0.6446
G3 X22.1167 Y40.4365 I0.8426 J-0.3502
G3 X22.1878 Y40.0862 I0.9137 J0
G3 X22.3857 Y39.7918 I0.8426 J0.3502
G3 X22.6802 Y39.5939 I0.6446 J0.6446
G3 X23.0304 Y39.5228 I0.3502 J0.8426
G0 Z2
G0 X23.0299 Y39.5238
G1 Z-2 F200
G3 X23.3781 Y39.5939 I0 J0.9137 F400
G3 X23.6751 Y39.7918 I-0.3502 J0.8426
G3 X23.8730 Y40.0862 I-0.6446 J0.6446
G3 X23.9416 Y40.4365 I-0.8426 J0.3502
G3 X23.8730 Y40.7868 I-0.9137 J0
G3 X23.6751 Y41.0812 I-0.8426 J-0.3502
G3 X23.3781 Y41.2791 I-0.6446 J-0.6446
G3 X23.0304 Y41.3477 I-0.3502 J-0.8426
G3 X22.6802 Y41.2791 I0 J-0.9137
G3 X22.3857 Y41.0812 I0.3502 J-0.8426
G3 X22.1878 Y40.7868 I0.6446 J-0.6446
G3 X22.1167 Y40.4365 I0.8426 J-0.3502
G3 X22.1878 Y40.0862 I0.9137 J0
G3 X22.3857 Y39.7918 I0.8426 J0.3502
G3 X22.6802 Y39.5939 I0.6446 J0.6446
G3 X23.0304 Y39.5228 I0.3502 J0.8426
G0 Z2
G0 X23.0299 Y39.5238
G1 Z-2.1 F200
G3 X23.3781 Y39.5939 I0 J0.9137 F400
G3 X23.6751 Y39.7918 I-0.3502 J0.8426
G3 X23.8730 Y40.0862 I-0.6446 J0.6446
G3 X23.9416 Y40.4365 I-0.8426 J0.3502
G3 X23.8730 Y40.7868 I-0.9137 J0
G3 X23.6751 Y41.0812 I-0.8426 J-0.3502
G3 X23.3781 Y41.2791 I-0.6446 J-0.6446
G3 X23.0304 Y41.3477 I-0.3502 J-0.8426
G3 X22.6802 Y41.2791 I0 J-0.9137
G3 X22.3857 Y41.0812 I0.3502 J-0.8426
G3 X22.1878 Y40.7868 I0.6446 J-0.6446
G3 X22.1167 Y40.4365 I0.8426 J-0.3502
G3 X22.1878 Y40.0862 I0.9137 J0
G3 X22.3857 Y39.7918 I0.8426 J0.3502
G3 X22.6802 Y39.5939 I0.6446 J0.6446
G3 X23.0304 Y39.5228 I0.3502 J0.8426
G0 Z2
G0 X23.0299 Y39.5238
G1 Z-2.2 F200
G3 X23.3781 Y39.5939 I0 J0.9137 F400
G3 X23.6751 Y39.7918 I-0.3502 J0.8426
G3 X23.8730 Y40.0862 I-0.6446 J0.6446
G3 X23.9416 Y40.4365 I-0.8426 J0.3502
G3 X23.8730 Y40.7868 I-0.9137 J0
G3 X23.6751 Y41.0812 I-0.8426 J-0.3502
G3 X23.3781 Y41.2791 I-0.6446 J-0.6446
G3 X23.0304 Y41.3477 I-0.3502 J-0.8426
G3 X22.6802 Y41.2791 I0 J-0.9137
G3 X22.3857 Y41.0812 I0.3502 J-0.8426
G3 X22.1878 Y40.7868 I0.6446 J-0.6446
G3 X22.1167 Y40.4365 I0.8426 J-0.3502
G3 X22.1878 Y40.0862 I0.9137 J0
G3 X22.3857 Y39.7918 I0.8426 J0.3502
G3 X22.6802 Y39.5939 I0.6446 J0.6446
G3 X23.0304 Y39.5228 I0.3502 J0.8426
G0 Z2
G0 X23.0299 Y39.5238
G1 Z-2.3 F200
G3 X23.3781 Y39.5939 I0 J0.9137 F400
G3 X23.6751 Y39.7918 I-0.3502 J0.8426
G3 X23.8730 Y40.0862 I-0.6446 J0.6446
G3 X23.9416 Y40.4365 I-0.8426 J0.3502
G3 X23.8730 Y40.7868 I-0.9137 J0
G3 X23.6751 Y41.0812 I-0.8426 J-0.3502
G3 X23.3781 Y41.2791 I-0.6446 J-0.6446
G3 X23.0304 Y41.3477 I-0.3502 J-0.8426
G3 X22.6802 Y41.2791 I0 J-0.9137
G3 X22.3857 Y41.0812 I0.3502 J-0.8426
G3 X22.1878 Y40.7868 I0.6446 J-0.6446
G3 X22.1167 Y40.4365 I0.8426 J-0.3502
G3 X22.1878 Y40.0862 I0.9137 J0
G3 X22.3857 Y39.7918 I0.8426 J0.3502
G3 X22.6802 Y39.5939 I0.6446 J0.6446
G3 X23.0304 Y39.5228 I0.3502 J0.8426
G0 Z2
G0 X23.0299 Y39.5238
G1 Z-2.4 F200
G3 X23.3781 Y39.5939 I0 J0.9137 F400
G3 X23.6751 Y39.7918 I-0.3502 J0.8426
G3 X23.8730 Y40.0862 I-0.6446 J0.6446
G3 X23.9416 Y40.4365 I-0.8426 J0.3502
G3 X23.8730 Y40.7868 I-0.9137 J0
G3 X23.6751 Y41.0812 I-0.8426 J-0.3502
G3 X23.3781 Y41.2791 I-0.6446 J-0.6446
G3 X23.0304 Y41.3477 I-0.3502 J-0.8426
G3 X22.6802 Y41.2791 I0 J-0.9137
G3 X22.3857 Y41.0812 I0.3502 J-0.8426
G3 X22.1878 Y40.7868 I0.6446 J-0.6446
G3 X22.1167 Y40.4365 I0.8426 J-0.3502
G3 X22.1878 Y40.0862 I0.9137 J0
G3 X22.3857 Y39.7918 I0.8426 J0.3502
G3 X22.6802 Y39.5939 I0.6446 J0.6446
G3 X23.0304 Y39.5228 I0.3502 J0.8426
G0 Z2
G0 X23.0299 Y39.5238
G1 Z-2.5 F200
G3 X23.3781 Y39.5939 I0 J0.9137 F400
G3 X23.6751 Y39.7918 I-0.3502 J0.8426
G3 X23.8730 Y40.0862 I-0.6446 J0.6446
G3 X23.9416 Y40.4365 I-0.8426 J0.3502
G3 X23.8730 Y40.7868 I-0.9137 J0
G3 X23.6751 Y41.0812 I-0.8426 J-0.3502
G3 X23.3781 Y41.2791 I-0.6446 J-0.6446
G3 X23.0304 Y41.3477 I-0.3502 J-0.8426
G3 X22.6802 Y41.2791 I0 J-0.9137
G3 X22.3857 Y41.0812 I0.3502 J-0.8426
G3 X22.1878 Y40.7868 I0.6446 J-0.6446
G3 X22.1167 Y40.4365 I0.8426 J-0.3502
G3 X22.1878 Y40.0862 I0.9137 J0
G3 X22.3857 Y39.7918 I0.8426 J0.3502
G3 X22.6802 Y39.5939 I0.6446 J0.6446
G3 X23.0304 Y39.5228 I0.3502 J0.8426
G0 Z2
G0 X23.0299 Y39.5238
G1 Z-2.6 F200
G3 X23.3781 Y39.5939 I0 J0.9137 F400
G3 X23.6751 Y39.7918 I-0.3502 J0.8426
G3 X23.8730 Y40.0862 I-0.6446 J0.6446
G3 X23.9416 Y40.4365 I-0.8426 J0.3502
G3 X23.8730 Y40.7868 I-0.9137 J0
G3 X23.6751 Y41.0812 I-0.8426 J-0.3502
G3 X23.3781 Y41.2791 I-0.6446 J-0.6446
G3 X23.0304 Y41.3477 I-0.3502 J-0.8426
G3 X22.6802 Y41.2791 I0 J-0.9137
G3 X22.3857 Y41.0812 I0.3502 J-0.8426
G3 X22.1878 Y40.7868 I0.6446 J-0.6446
G3 X22.1167 Y40.4365 I0.8426 J-0.3502
G3 X22.1878 Y40.0862 I0.9137 J0
G3 X22.3857 Y39.7918 I0.8426 J0.3502
G3 X22.6802 Y39.5939 I0.6446 J0.6446
G3 X23.0304 Y39.5228 I0.3502 J0.8426
G0 Z2
G0 X23.0299 Y39.5238
G1 Z-2.7 F200
G3 X23.3781 Y39.5939 I0 J0.9137 F400
G3 X23.6751 Y39.7918 I-0.3502 J0.8426
G3 X23.8730 Y40.0862 I-0.6446 J0.6446
G3 X23.9416 Y40.4365 I-0.8426 J0.3502
G3 X23.8730 Y40.7868 I-0.9137 J0
G3 X23.6751 Y41.0812 I-0.8426 J-0.3502
G3 X23.3781 Y41.2791 I-0.6446 J-0.6446
G3 X23.0304 Y41.3477 I-0.3502 J-0.8426
G3 X22.6802 Y41.2791 I0 J-0.9137
G3 X22.3857 Y41.0812 I0.3502 J-0.8426
G3 X22.1878 Y40.7868 I0.6446 J-0.6446
G3 X22.1167 Y40.4365 I0.8426 J-0.3502
G3 X22.1878 Y40.0862 I0.9137 J0
G3 X22.3857 Y39.7918 I0.8426 J0.3502
G3 X22.6802 Y39.5939 I0.6446 J0.6446
G3 X23.0304 Y39.5228 I0.3502 J0.8426
G0 Z2
G0 X23.0299 Y39.5238
G1 Z-2.8 F200
G3 X23.3781 Y39.5939 I0 J0.9137 F400
G3 X23.6751 Y39.7918 I-0.3502 J0.8426
G3 X23.8730 Y40.0862 I-0.6446 J0.6446
G3 X23.9416 Y40.4365 I-0.8426 J0.3502
G3 X23.8730 Y40.7868 I-0.9137 J0
G3 X23.6751 Y41.0812 I-0.8426 J-0.3502
G3 X23.3781 Y41.2791 I-0.6446 J-0.6446
G3 X23.0304 Y41.3477 I-0.3502 J-0.8426
G3 X22.6802 Y41.2791 I0 J-0.9137
G3 X22.3857 Y41.0812 I0.3502 J-0.8426
G3 X22.1878 Y40.7868 I0.6446 J-0.6446
G3 X22.1167 Y40.4365 I0.8426 J-0.3502
G3 X22.1878 Y40.0862 I0.9137 J0
G3 X22.3857 Y39.7918 I0.8426 J0.3502
G3 X22.6802 Y39.5939 I0.6446 J0.6446
G3 X23.0304 Y39.5228 I0.3502 J0.8426
G0 Z2
G0 X23.0299 Y39.5238
G1 Z-2.9 F200
G3 X23.3781 Y39.5939 I0 J0.9137 F400
G3 X23.6751 Y39.7918 I-0.3502 J0.8426
G3 X23.8730 Y40.0862 I-0.6446 J0.6446
G3 X23.9416 Y40.4365 I-0.8426 J0.3502
G3 X23.8730 Y40.7868 I-0.9137 J0
G3 X23.6751 Y41.0812 I-0.8426 J-0.3502
G3 X23.3781 Y41.2791 I-0.6446 J-0.6446
G3 X23.0304 Y41.3477 I-0.3502 J-0.8426
G3 X22.6802 Y41.2791 I0 J-0.9137
G3 X22.3857 Y41.0812 I0.3502 J-0.8426
G3 X22.1878 Y40.7868 I0.6446 J-0.6446
G3 X22.1167 Y40.4365 I0.8426 J-0.3502
G3 X22.1878 Y40.0862 I0.9137 J0
G3 X22.3857 Y39.7918 I0.8426 J0.3502
G3 X22.6802 Y39.5939 I0.6446 J0.6446
G3 X23.0304 Y39.5228 I0.3502 J0.8426
G0 Z2
G0 X23.0299 Y39.5238
G1 Z-3 F200
G3 X23.3781 Y39.5939 I0 J0.9137 F400
G3 X23.6751 Y39.7918 I-0.3502 J0.8426
G3 X23.8730 Y40.0862 I-0.6446 J0.6446
G3 X23.9416 Y40.4365 I-0.8426 J0.3502
G3 X23.8730 Y40.7868 I-0.9137 J0
G3 X23.6751 Y41.0812 I-0.8426 J-0.3502
G3 X23.3781 Y41.2791 I-0.6446 J-0.6446
G3 X23.0304 Y41.3477 I-0.3502 J-0.8426
G3 X22.6802 Y41.2791 I0 J-0.9137
G3 X22.3857 Y41.0812 I0.3502 J-0.8426
G3 X22.1878 Y40.7868 I0.6446 J-0.6446
G3 X22.1167 Y40.4365 I0.8426 J-0.3502
G3 X22.1878 Y40.0862 I0.9137 J0
G3 X22.3857 Y39.7918 I0.8426 J0.3502
G3 X22.6802 Y39.5939 I0.6446 J0.6446
G3 X23.0304 Y39.5228 I0.3502 J0.8426
G0 Z2
G0 X23.0299 Y39.5238
G1 Z-3.1 F200
G3 X23.3781 Y39.5939 I0 J0.9137 F400
G3 X23.6751 Y39.7918 I-0.3502 J0.8426
G3 X23.8730 Y40.0862 I-0.6446 J0.6446
G3 X23.9416 Y40.4365 I-0.8426 J0.3502
G3 X23.8730 Y40.7868 I-0.9137 J0
G3 X23.6751 Y41.0812 I-0.8426 J-0.3502
G3 X23.3781 Y41.2791 I-0.6446 J-0.6446
G3 X23.0304 Y41.3477 I-0.3502 J-0.8426
G3 X22.6802 Y41.2791 I0 J-0.9137
G3 X22.3857 Y41.0812 I0.3502 J-0.8426
G3 X22.1878 Y40.7868 I0.6446 J-0.6446
G3 X22.1167 Y40.4365 I0.8426 J-0.3502
G3 X22.1878 Y40.0862 I0.9137 J0
G3 X22.3857 Y39.7918 I0.8426 J0.3502
G3 X22.6802 Y39.5939 I0.6446 J0.6446
G3 X23.0304 Y39.5228 I0.3502 J0.8426
G0 Z2
G0 X23.0299 Y39.5238
G1 Z-3.2 F200
G3 X23.3781 Y39.5939 I0 J0.9137 F400
G3 X23.6751 Y39.7918 I-0.3502 J0.8426
G3 X23.8730 Y40.0862 I-0.6446 J0.6446
G3 X23.9416 Y40.4365 I-0.8426 J0.3502
G3 X23.8730 Y40.7868 I-0.9137 J0
G3 X23.6751 Y41.0812 I-0.8426 J-0.3502
G3 X23.3781 Y41.2791 I-0.6446 J-0.6446
G3 X23.0304 Y41.3477 I-0.3502 J-0.8426
G3 X22.6802 Y41.2791 I0 J-0.9137
G3 X22.3857 Y41.0812 I0.3502 J-0.8426
G3 X22.1878 Y40.7868 I0.6446 J-0.6446
G3 X22.1167 Y40.4365 I0.8426 J-0.3502
G3 X22.1878 Y40.0862 I0.9137 J0
G3 X22.3857 Y39.7918 I0.8426 J0.3502
G3 X22.6802 Y39.5939 I0.6446 J0.6446
G3 X23.0304 Y39.5228 I0.3502 J0.8426
G0 Z2
G0 X23.0299 Y39.5238
G1 Z-3.3 F200
G3 X23.3781 Y39.5939 I0 J0.9137 F400
G3 X23.6751 Y39.7918 I-0.3502 J0.8426
G3 X23.8730 Y40.0862 I-0.6446 J0.6446
G3 X23.9416 Y40.4365 I-0.8426 J0.3502
G3 X23.8730 Y40.7868 I-0.9137 J0
G3 X23.6751 Y41.0812 I-0.8426 J-0.3502
G3 X23.3781 Y41.2791 I-0.6446 J-0.6446
G3 X23.0304 Y41.3477 I-0.3502 J-0.8426
G3 X22.6802 Y41.2791 I0 J-0.9137
G3 X22.3857 Y41.0812 I0.3502 J-0.8426
G3 X22.1878 Y40.7868 I0.6446 J-0.6446
G3 X22.1167 Y40.4365 I0.8426 J-0.3502
G3 X22.1878 Y40.0862 I0.9137 J0
G3 X22.3857 Y39.7918 I0.8426 J0.3502
G3 X22.6802 Y39.5939 I0.6446 J0.6446
G3 X23.0304 Y39.5228 I0.3502 J0.8426
G0 Z2
G0 X23.0299 Y39.5238
G1 Z-3.4 F200
G3 X23.3781 Y39.5939 I0 J0.9137 F400
G3 X23.6751 Y39.7918 I-0.3502 J0.8426
G3 X23.8730 Y40.0862 I-0.6446 J0.6446
G3 X23.9416 Y40.4365 I-0.8426 J0.3502
G3 X23.8730 Y40.7868 I-0.9137 J0
G3 X23.6751 Y41.0812 I-0.8426 J-0.3502
G3 X23.3781 Y41.2791 I-0.6446 J-0.6446
G3 X23.0304 Y41.3477 I-0.3502 J-0.8426
G3 X22.6802 Y41.2791 I0 J-0.9137
G3 X22.3857 Y41.0812 I0.3502 J-0.8426
G3 X22.1878 Y40.7868 I0.6446 J-0.6446
G3 X22.1167 Y40.4365 I0.8426 J-0.3502
G3 X22.1878 Y40.0862 I0.9137 J0
G3 X22.3857 Y39.7918 I0.8426 J0.3502
G3 X22.6802 Y39.5939 I0.6446 J0.6446
G3 X23.0304 Y39.5228 I0.3502 J0.8426
G0 Z2
G0 X23.0299 Y39.5238
G1 Z-3.5 F200
G3 X23.3781 Y39.5939 I0 J0.9137 F400
G3 X23.6751 Y39.7918 I-0.3502 J0.8426
G3 X23.8730 Y40.0862 I-0.6446 J0.6446
G3 X23.9416 Y40.4365 I-0.8426 J0.3502
G3 X23.8730 Y40.7868 I-0.9137 J0
G3 X23.6751 Y41.0812 I-0.8426 J-0.3502
G3 X23.3781 Y41.2791 I-0.6446 J-0.6446
G3 X23.0304 Y41.3477 I-0.3502 J-0.8426
G3 X22.6802 Y41.2791 I0 J-0.9137
G3 X22.3857 Y41.0812 I0.3502 J-0.8426
G3 X22.1878 Y40.7868 I0.6446 J-0.6446
G3 X22.1167 Y40.4365 I0.8426 J-0.3502
G3 X22.1878 Y40.0862 I0.9137 J0
G3 X22.3857 Y39.7918 I0.8426 J0.3502
G3 X22.6802 Y39.5939 I0.6446 J0.6446
G3 X23.0304 Y39.5228 I0.3502 J0.8426
G0 Z2
G0 X23.0299 Y39.5238
G1 Z-3.6 F200
G3 X23.3781 Y39.5939 I0 J0.9137 F400
G3 X23.6751 Y39.7918 I-0.3502 J0.8426
G3 X23.8730 Y40.0862 I-0.6446 J0.6446
G3 X23.9416 Y40.4365 I-0.8426 J0.3502
G3 X23.8730 Y40.7868 I-0.9137 J0
G3 X23.6751 Y41.0812 I-0.8426 J-0.3502
G3 X23.3781 Y41.2791 I-0.6446 J-0.6446
G3 X23.0304 Y41.3477 I-0.3502 J-0.8426
G3 X22.6802 Y41.2791 I0 J-0.9137
G3 X22.3857 Y41.0812 I0.3502 J-0.8426
G3 X22.1878 Y40.7868 I0.6446 J-0.6446
G3 X22.1167 Y40.4365 I0.8426 J-0.3502
G3 X22.1878 Y40.0862 I0.9137 J0
G3 X22.3857 Y39.7918 I0.8426 J0.3502
G3 X22.6802 Y39.5939 I0.6446 J0.6446
G3 X23.0304 Y39.5228 I0.3502 J0.8426
G0 Z2
G0 X23.0299 Y39.5238
G1 Z-3.7 F200
G3 X23.3781 Y39.5939 I0 J0.9137 F400
G3 X23.6751 Y39.7918 I-0.3502 J0.8426
G3 X23.8730 Y40.0862 I-0.6446 J0.6446
G3 X23.9416 Y40.4365 I-0.8426 J0.3502
G3 X23.8730 Y40.7868 I-0.9137 J0
G3 X23.6751 Y41.0812 I-0.8426 J-0.3502
G3 X23.3781 Y41.2791 I-0.6446 J-0.6446
G3 X23.0304 Y41.3477 I-0.3502 J-0.8426
G3 X22.6802 Y41.2791 I0 J-0.9137
G3 X22.3857 Y41.0812 I0.3502 J-0.8426
G3 X22.1878 Y40.7868 I0.6446 J-0.6446
G3 X22.1167 Y40.4365 I0.8426 J-0.3502
G3 X22.1878 Y40.0862 I0.9137 J0
G3 X22.3857 Y39.7918 I0.8426 J0.3502
G3 X22.6802 Y39.5939 I0.6446 J0.6446
G3 X23.0304 Y39.5228 I0.3502 J0.8426
G0 Z2
G0 X23.0299 Y39.5238
G1 Z-3.8 F200
G3 X23.3781 Y39.5939 I0 J0.9137 F400
G3 X23.6751 Y39.7918 I-0.3502 J0.8426
G3 X23.8730 Y40.0862 I-0.6446 J0.6446
G3 X23.9416 Y40.4365 I-0.8426 J0.3502
G3 X23.8730 Y40.7868 I-0.9137 J0
G3 X23.6751 Y41.0812 I-0.8426 J-0.3502
G3 X23.3781 Y41.2791 I-0.6446 J-0.6446
G3 X23.0304 Y41.3477 I-0.3502 J-0.8426
G3 X22.6802 Y41.2791 I0 J-0.9137
G3 X22.3857 Y41.0812 I0.3502 J-0.8426
G3 X22.1878 Y40.7868 I0.6446 J-0.6446
G3 X22.1167 Y40.4365 I0.8426 J-0.3502
G3 X22.1878 Y40.0862 I0.9137 J0
G3 X22.3857 Y39.7918 I0.8426 J0.3502
G3 X22.6802 Y39.5939 I0.6446 J0.6446
G3 X23.0304 Y39.5228 I0.3502 J0.8426
G0 Z2
G0 X23.0299 Y39.5238
G1 Z-3.9 F200
G3 X23.3781 Y39.5939 I0 J0.9137 F400
G3 X23.6751 Y39.7918 I-0.3502 J0.8426
G3 X23.8730 Y40.0862 I-0.6446 J0.6446
G3 X23.9416 Y40.4365 I-0.8426 J0.3502
G3 X23.8730 Y40.7868 I-0.9137 J0
G3 X23.6751 Y41.0812 I-0.8426 J-0.3502
G3 X23.3781 Y41.2791 I-0.6446 J-0.6446
G3 X23.0304 Y41.3477 I-0.3502 J-0.8426
G3 X22.6802 Y41.2791 I0 J-0.9137
G3 X22.3857 Y41.0812 I0.3502 J-0.8426
G3 X22.1878 Y40.7868 I0.6446 J-0.6446
G3 X22.1167 Y40.4365 I0.8426 J-0.3502
G3 X22.1878 Y40.0862 I0.9137 J0
G3 X22.3857 Y39.7918 I0.8426 J0.3502
G3 X22.6802 Y39.5939 I0.6446 J0.6446
G3 X23.0304 Y39.5228 I0.3502 J0.8426
G0 Z2
G0 X23.0299 Y39.5238
G1 Z-4 F200
G3 X23.3781 Y39.5939 I0 J0.9137 F400
G3 X23.6751 Y39.7918 I-0.3502 J0.8426
G3 X23.8730 Y40.0862 I-0.6446 J0.6446
G3 X23.9416 Y40.4365 I-0.8426 J0.3502
G3 X23.8730 Y40.7868 I-0.9137 J0
G3 X23.6751 Y41.0812 I-0.8426 J-0.3502
G3 X23.3781 Y41.2791 I-0.6446 J-0.6446
G3 X23.0304 Y41.3477 I-0.3502 J-0.8426
G3 X22.6802 Y41.2791 I0 J-0.9137
G3 X22.3857 Y41.0812 I0.3502 J-0.8426
G3 X22.1878 Y40.7868 I0.6446 J-0.6446
G3 X22.1167 Y40.4365 I0.8426 J-0.3502
G3 X22.1878 Y40.0862 I0.9137 J0
G3 X22.3857 Y39.7918 I0.8426 J0.3502
G3 X22.6802 Y39.5939 I0.6446 J0.6446
G3 X23.0304 Y39.5228 I0.3502 J0.8426
G0 Z2
G0 X23.0299 Y39.5238
G1 Z-4.1 F200
G3 X23.3781 Y39.5939 I0 J0.9137 F400
G3 X23.6751 Y39.7918 I-0.3502 J0.8426
G3 X23.8730 Y40.0862 I-0.6446 J0.6446
G3 X23.9416 Y40.4365 I-0.8426 J0.3502
G3 X23.8730 Y40.7868 I-0.9137 J0
G3 X23.6751 Y41.0812 I-0.8426 J-0.3502
G3 X23.3781 Y41.2791 I-0.6446 J-0.6446
G3 X23.0304 Y41.3477 I-0.3502 J-0.8426
G3 X22.6802 Y41.2791 I0 J-0.9137
G3 X22.3857 Y41.0812 I0.3502 J-0.8426
G3 X22.1878 Y40.7868 I0.6446 J-0.6446
G3 X22.1167 Y40.4365 I0.8426 J-0.3502
G3 X22.1878 Y40.0862 I0.9137 J0
G3 X22.3857 Y39.7918 I0.8426 J0.3502
G3 X22.6802 Y39.5939 I0.6446 J0.6446
G3 X23.0304 Y39.5228 I0.3502 J0.8426
G0 Z2
G0 X23.0299 Y39.5238
G1 Z-4.2 F200
G3 X23.3781 Y39.5939 I0 J0.9137 F400
G3 X23.6751 Y39.7918 I-0.3502 J0.8426
G3 X23.8730 Y40.0862 I-0.6446 J0.6446
G3 X23.9416 Y40.4365 I-0.8426 J0.3502
G3 X23.8730 Y40.7868 I-0.9137 J0
G3 X23.6751 Y41.0812 I-0.8426 J-0.3502
G3 X23.3781 Y41.2791 I-0.6446 J-0.6446
G3 X23.0304 Y41.3477 I-0.3502 J-0.8426
G3 X22.6802 Y41.2791 I0 J-0.9137
G3 X22.3857 Y41.0812 I0.3502 J-0.8426
G3 X22.1878 Y40.7868 I0.6446 J-0.6446
G3 X22.1167 Y40.4365 I0.8426 J-0.3502
G3 X22.1878 Y40.0862 I0.9137 J0
G3 X22.3857 Y39.7918 I0.8426 J0.3502
G3 X22.6802 Y39.5939 I0.6446 J0.6446
G3 X23.0304 Y39.5228 I0.3502 J0.8426
G0 Z2
G0 X23.0299 Y39.5238
G1 Z-4.3 F200
G3 X23.3781 Y39.5939 I0 J0.9137 F400
G3 X23.6751 Y39.7918 I-0.3502 J0.8426
G3 X23.8730 Y40.0862 I-0.6446 J0.6446
G3 X23.9416 Y40.4365 I-0.8426 J0.3502
G3 X23.8730 Y40.7868 I-0.9137 J0
G3 X23.6751 Y41.0812 I-0.8426 J-0.3502
G3 X23.3781 Y41.2791 I-0.6446 J-0.6446
G3 X23.0304 Y41.3477 I-0.3502 J-0.8426
G3 X22.6802 Y41.2791 I0 J-0.9137
G3 X22.3857 Y41.0812 I0.3502 J-0.8426
G3 X22.1878 Y40.7868 I0.6446 J-0.6446
G3 X22.1167 Y40.4365 I0.8426 J-0.3502
G3 X22.1878 Y40.0862 I0.9137 J0
G3 X22.3857 Y39.7918 I0.8426 J0.3502
G3 X22.6802 Y39.5939 I0.6446 J0.6446
G3 X23.0304 Y39.5228 I0.3502 J0.8426
G0 Z2
G0 X23.0299 Y39.5238
G1 Z-4.4 F200
G3 X23.3781 Y39.5939 I0 J0.9137 F400
G3 X23.6751 Y39.7918 I-0.3502 J0.8426
G3 X23.8730 Y40.0862 I-0.6446 J0.6446
G3 X23.9416 Y40.4365 I-0.8426 J0.3502
G3 X23.8730 Y40.7868 I-0.9137 J0
G3 X23.6751 Y41.0812 I-0.8426 J-0.3502
G3 X23.3781 Y41.2791 I-0.6446 J-0.6446
G3 X23.0304 Y41.3477 I-0.3502 J-0.8426
G3 X22.6802 Y41.2791 I0 J-0.9137
G3 X22.3857 Y41.0812 I0.3502 J-0.8426
G3 X22.1878 Y40.7868 I0.6446 J-0.6446
G3 X22.1167 Y40.4365 I0.8426 J-0.3502
G3 X22.1878 Y40.0862 I0.9137 J0
G3 X22.3857 Y39.7918 I0.8426 J0.3502
G3 X22.6802 Y39.5939 I0.6446 J0.6446
G3 X23.0304 Y39.5228 I0.3502 J0.8426
G0 Z2
G0 X23.0299 Y39.5238
G1 Z-4.5 F200
G3 X23.3781 Y39.5939 I0 J0.9137 F400
G3 X23.6751 Y39.7918 I-0.3502 J0.8426
G3 X23.8730 Y40.0862 I-0.6446 J0.6446
G3 X23.9416 Y40.4365 I-0.8426 J0.3502
G3 X23.8730 Y40.7868 I-0.9137 J0
G3 X23.6751 Y41.0812 I-0.8426 J-0.3502
G3 X23.3781 Y41.2791 I-0.6446 J-0.6446
G3 X23.0304 Y41.3477 I-0.3502 J-0.8426
G3 X22.6802 Y41.2791 I0 J-0.9137
G3 X22.3857 Y41.0812 I0.3502 J-0.8426
G3 X22.1878 Y40.7868 I0.6446 J-0.6446
G3 X22.1167 Y40.4365 I0.8426 J-0.3502
G3 X22.1878 Y40.0862 I0.9137 J0
G3 X22.3857 Y39.7918 I0.8426 J0.3502
G3 X22.6802 Y39.5939 I0.6446 J0.6446
G3 X23.0304 Y39.5228 I0.3502 J0.8426
G0 Z2
G0 X23.0299 Y39.5238
G1 Z-4.6 F200
G3 X23.3781 Y39.5939 I0 J0.9137 F400
G3 X23.6751 Y39.7918 I-0.3502 J0.8426
G3 X23.8730 Y40.0862 I-0.6446 J0.6446
G3 X23.9416 Y40.4365 I-0.8426 J0.3502
G3 X23.8730 Y40.7868 I-0.9137 J0
G3 X23.6751 Y41.0812 I-0.8426 J-0.3502
G3 X23.3781 Y41.2791 I-0.6446 J-0.6446
G3 X23.0304 Y41.3477 I-0.3502 J-0.8426
G3 X22.6802 Y41.2791 I0 J-0.9137
G3 X22.3857 Y41.0812 I0.3502 J-0.8426
G3 X22.1878 Y40.7868 I0.6446 J-0.6446
G3 X22.1167 Y40.4365 I0.8426 J-0.3502
G3 X22.1878 Y40.0862 I0.9137 J0
G3 X22.3857 Y39.7918 I0.8426 J0.3502
G3 X22.6802 Y39.5939 I0.6446 J0.6446
G3 X23.0304 Y39.5228 I0.3502 J0.8426
G0 Z2
G0 X23.0299 Y39.5238
G1 Z-4.7 F200
G3 X23.3781 Y39.5939 I0 J0.9137 F400
G3 X23.6751 Y39.7918 I-0.3502 J0.8426
G3 X23.8730 Y40.0862 I-0.6446 J0.6446
G3 X23.9416 Y40.4365 I-0.8426 J0.3502
G3 X23.8730 Y40.7868 I-0.9137 J0
G3 X23.6751 Y41.0812 I-0.8426 J-0.3502
G3 X23.3781 Y41.2791 I-0.6446 J-0.6446
G3 X23.0304 Y41.3477 I-0.3502 J-0.8426
G3 X22.6802 Y41.2791 I0 J-0.9137
G3 X22.3857 Y41.0812 I0.3502 J-0.8426
G3 X22.1878 Y40.7868 I0.6446 J-0.6446
G3 X22.1167 Y40.4365 I0.8426 J-0.3502
G3 X22.1878 Y40.0862 I0.9137 J0
G3 X22.3857 Y39.7918 I0.8426 J0.3502
G3 X22.6802 Y39.5939 I0.6446 J0.6446
G3 X23.0304 Y39.5228 I0.3502 J0.8426
G0 Z2
G0 X23.0299 Y39.5238
G1 Z-4.8 F200
G3 X23.3781 Y39.5939 I0 J0.9137 F400
G3 X23.6751 Y39.7918 I-0.3502 J0.8426
G3 X23.8730 Y40.0862 I-0.6446 J0.6446
G3 X23.9416 Y40.4365 I-0.8426 J0.3502
G3 X23.8730 Y40.7868 I-0.9137 J0
G3 X23.6751 Y41.0812 I-0.8426 J-0.3502
G3 X23.3781 Y41.2791 I-0.6446 J-0.6446
G3 X23.0304 Y41.3477 I-0.3502 J-0.8426
G3 X22.6802 Y41.2791 I0 J-0.9137
G3 X22.3857 Y41.0812 I0.3502 J-0.8426
G3 X22.1878 Y40.7868 I0.6446 J-0.6446
G3 X22.1167 Y40.4365 I0.8426 J-0.3502
G3 X22.1878 Y40.0862 I0.9137 J0
G3 X22.3857 Y39.7918 I0.8426 J0.3502
G3 X22.6802 Y39.5939 I0.6446 J0.6446
G3 X23.0304 Y39.5228 I0.3502 J0.8426
G0 Z2
G0 X23.0299 Y39.5238
G1 Z-4.9 F200
G3 X23.3781 Y39.5939 I0 J0.9137 F400
G3 X23.6751 Y39.7918 I-0.3502 J0.8426
G3 X23.8730 Y40.0862 I-0.6446 J0.6446
G3 X23.9416 Y40.4365 I-0.8426 J0.3502
G3 X23.8730 Y40.7868 I-0.9137 J0
G3 X23.6751 Y41.0812 I-0.8426 J-0.3502
G3 X23.3781 Y41.2791 I-0.6446 J-0.6446
G3 X23.0304 Y41.3477 I-0.3502 J-0.8426
G3 X22.6802 Y41.2791 I0 J-0.9137
G3 X22.3857 Y41.0812 I0.3502 J-0.8426
G3 X22.1878 Y40.7868 I0.6446 J-0.6446
G3 X22.1167 Y40.4365 I0.8426 J-0.3502
G3 X22.1878 Y40.0862 I0.9137 J0
G3 X22.3857 Y39.7918 I0.8426 J0.3502
G3 X22.6802 Y39.5939 I0.6446 J0.6446
G3 X23.0304 Y39.5228 I0.3502 J0.8426
G0 Z2
G0 X23.0299 Y39.5238
G1 Z-5 F200
G3 X23.3781 Y39.5939 I0 J0.9137 F400
G3 X23.6751 Y39.7918 I-0.3502 J0.8426
G3 X23.8730 Y40.0862 I-0.6446 J0.6446
G3 X23.9416 Y40.4365 I-0.8426 J0.3502
G3 X23.8730 Y40.7868 I-0.9137 J0
G3 X23.6751 Y41.0812 I-0.8426 J-0.3502
G3 X23.3781 Y41.2791 I-0.6446 J-0.6446
G3 X23.0304 Y41.3477 I-0.3502 J-0.8426
G3 X22.6802 Y41.2791 I0 J-0.9137
G3 X22.3857 Y41.0812 I0.3502 J-0.8426
G3 X22.1878 Y40.7868 I0.6446 J-0.6446
G3 X22.1167 Y40.4365 I0.8426 J-0.3502
G3 X22.1878 Y40.0862 I0.9137 J0
G3 X22.3857 Y39.7918 I0.8426 J0.3502
G3 X22.6802 Y39.5939 I0.6446 J0.6446
G3 X23.0304 Y39.5228 I0.3502 J0.8426
G0 Z2
G0 X23.0299 Y39.5238
G1 Z-5.1 F200
G3 X23.3781 Y39.5939 I0 J0.9137 F400
G3 X23.6751 Y39.7918 I-0.3502 J0.8426
G3 X23.8730 Y40.0862 I-0.6446 J0.6446
G3 X23.9416 Y40.4365 I-0.8426 J0.3502
G3 X23.8730 Y40.7868 I-0.9137 J0
G3 X23.6751 Y41.0812 I-0.8426 J-0.3502
G3 X23.3781 Y41.2791 I-0.6446 J-0.6446
G3 X23.0304 Y41.3477 I-0.3502 J-0.8426
G3 X22.6802 Y41.2791 I0 J-0.9137
G3 X22.3857 Y41.0812 I0.3502 J-0.8426
G3 X22.1878 Y40.7868 I0.6446 J-0.6446
G3 X22.1167 Y40.4365 I0.8426 J-0.3502
G3 X22.1878 Y40.0862 I0.9137 J0
G3 X22.3857 Y39.7918 I0.8426 J0.3502
G3 X22.6802 Y39.5939 I0.6446 J0.6446
G3 X23.0304 Y39.5228 I0.3502 J0.8426
G0 Z2
G0 X23.0299 Y39.5238
G1 Z-5.2 F200
G3 X23.3781 Y39.5939 I0 J0.9137 F400
G3 X23.6751 Y39.7918 I-0.3502 J0.8426
G3 X23.8730 Y40.0862 I-0.6446 J0.6446
G3 X23.9416 Y40.4365 I-0.8426 J0.3502
G3 X23.8730 Y40.7868 I-0.9137 J0
G3 X23.6751 Y41.0812 I-0.8426 J-0.3502
G3 X23.3781 Y41.2791 I-0.6446 J-0.6446
G3 X23.0304 Y41.3477 I-0.3502 J-0.8426
G3 X22.6802 Y41.2791 I0 J-0.9137
G3 X22.3857 Y41.0812 I0.3502 J-0.8426
G3 X22.1878 Y40.7868 I0.6446 J-0.6446
G3 X22.1167 Y40.4365 I0.8426 J-0.3502
G3 X22.1878 Y40.0862 I0.9137 J0
G3 X22.3857 Y39.7918 I0.8426 J0.3502
G3 X22.6802 Y39.5939 I0.6446 J0.6446
G3 X23.0304 Y39.5228 I0.3502 J0.8426
G0 Z2
G0 X23.0299 Y39.5238
G1 Z-5.3 F200
G3 X23.3781 Y39.5939 I0 J0.9137 F400
G3 X23.6751 Y39.7918 I-0.3502 J0.8426
G3 X23.8730 Y40.0862 I-0.6446 J0.6446
G3 X23.9416 Y40.4365 I-0.8426 J0.3502
G3 X23.8730 Y40.7868 I-0.9137 J0
G3 X23.6751 Y41.0812 I-0.8426 J-0.3502
G3 X23.3781 Y41.2791 I-0.6446 J-0.6446
G3 X23.0304 Y41.3477 I-0.3502 J-0.8426
G3 X22.6802 Y41.2791 I0 J-0.9137
G3 X22.3857 Y41.0812 I0.3502 J-0.8426
G3 X22.1878 Y40.7868 I0.6446 J-0.6446
G3 X22.1167 Y40.4365 I0.8426 J-0.3502
G3 X22.1878 Y40.0862 I0.9137 J0
G3 X22.3857 Y39.7918 I0.8426 J0.3502
G3 X22.6802 Y39.5939 I0.6446 J0.6446
G3 X23.0304 Y39.5228 I0.3502 J0.8426
G0 Z2
G0 X23.0299 Y39.5238
G1 Z-5.4 F200
G3 X23.3781 Y39.5939 I0 J0.9137 F400
G3 X23.6751 Y39.7918 I-0.3502 J0.8426
G3 X23.8730 Y40.0862 I-0.6446 J0.6446
G3 X23.9416 Y40.4365 I-0.8426 J0.3502
G3 X23.8730 Y40.7868 I-0.9137 J0
G3 X23.6751 Y41.0812 I-0.8426 J-0.3502
G3 X23.3781 Y41.2791 I-0.6446 J-0.6446
G3 X23.0304 Y41.3477 I-0.3502 J-0.8426
G3 X22.6802 Y41.2791 I0 J-0.9137
G3 X22.3857 Y41.0812 I0.3502 J-0.8426
G3 X22.1878 Y40.7868 I0.6446 J-0.6446
G3 X22.1167 Y40.4365 I0.8426 J-0.3502
G3 X22.1878 Y40.0862 I0.9137 J0
G3 X22.3857 Y39.7918 I0.8426 J0.3502
G3 X22.6802 Y39.5939 I0.6446 J0.6446
G3 X23.0304 Y39.5228 I0.3502 J0.8426
G0 Z2
G0 X23.0299 Y39.5238
G1 Z-5.5 F200
G3 X23.3781 Y39.5939 I0 J0.9137 F400
G3 X23.6751 Y39.7918 I-0.3502 J0.8426
G3 X23.8730 Y40.0862 I-0.6446 J0.6446
G3 X23.9416 Y40.4365 I-0.8426 J0.3502
G3 X23.8730 Y40.7868 I-0.9137 J0
G3 X23.6751 Y41.0812 I-0.8426 J-0.3502
G3 X23.3781 Y41.2791 I-0.6446 J-0.6446
G3 X23.0304 Y41.3477 I-0.3502 J-0.8426
G3 X22.6802 Y41.2791 I0 J-0.9137
G3 X22.3857 Y41.0812 I0.3502 J-0.8426
G3 X22.1878 Y40.7868 I0.6446 J-0.6446
G3 X22.1167 Y40.4365 I0.8426 J-0.3502
G3 X22.1878 Y40.0862 I0.9137 J0
G3 X22.3857 Y39.7918 I0.8426 J0.3502
G3 X22.6802 Y39.5939 I0.6446 J0.6446
G3 X23.0304 Y39.5228 I0.3502 J0.8426
G0 Z2
G0 X23.0299 Y39.5238
G1 Z-5.6 F200
G3 X23.3781 Y39.5939 I0 J0.9137 F400
G3 X23.6751 Y39.7918 I-0.3502 J0.8426
G3 X23.8730 Y40.0862 I-0.6446 J0.6446
G3 X23.9416 Y40.4365 I-0.8426 J0.3502
G3 X23.8730 Y40.7868 I-0.9137 J0
G3 X23.6751 Y41.0812 I-0.8426 J-0.3502
G3 X23.3781 Y41.2791 I-0.6446 J-0.6446
G3 X23.0304 Y41.3477 I-0.3502 J-0.8426
G3 X22.6802 Y41.2791 I0 J-0.9137
G3 X22.3857 Y41.0812 I0.3502 J-0.8426
G3 X22.1878 Y40.7868 I0.6446 J-0.6446
G3 X22.1167 Y40.4365 I0.8426 J-0.3502
G3 X22.1878 Y40.0862 I0.9137 J0
G3 X22.3857 Y39.7918 I0.8426 J0.3502
G3 X22.6802 Y39.5939 I0.6446 J0.6446
G3 X23.0304 Y39.5228 I0.3502 J0.8426
G0 Z2
G0 X23.0299 Y39.5238
G1 Z-5.7 F200
G3 X23.3781 Y39.5939 I0 J0.9137 F400
G3 X23.6751 Y39.7918 I-0.3502 J0.8426
G3 X23.8730 Y40.0862 I-0.6446 J0.6446
G3 X23.9416 Y40.4365 I-0.8426 J0.3502
G3 X23.8730 Y40.7868 I-0.9137 J0
G3 X23.6751 Y41.0812 I-0.8426 J-0.3502
G3 X23.3781 Y41.2791 I-0.6446 J-0.6446
G3 X23.0304 Y41.3477 I-0.3502 J-0.8426
G3 X22.6802 Y41.2791 I0 J-0.9137
G3 X22.3857 Y41.0812 I0.3502 J-0.8426
G3 X22.1878 Y40.7868 I0.6446 J-0.6446
G3 X22.1167 Y40.4365 I0.8426 J-0.3502
G3 X22.1878 Y40.0862 I0.9137 J0
G3 X22.3857 Y39.7918 I0.8426 J0.3502
G3 X22.6802 Y39.5939 I0.6446 J0.6446
G3 X23.0304 Y39.5228 I0.3502 J0.8426
G0 Z2
G0 X23.0299 Y39.5238
G1 Z-5.8 F200
G3 X23.3781 Y39.5939 I0 J0.9137 F400
G3 X23.6751 Y39.7918 I-0.3502 J0.8426
G3 X23.8730 Y40.0862 I-0.6446 J0.6446
G3 X23.9416 Y40.4365 I-0.8426 J0.3502
G3 X23.8730 Y40.7868 I-0.9137 J0
G3 X23.6751 Y41.0812 I-0.8426 J-0.3502
G3 X23.3781 Y41.2791 I-0.6446 J-0.6446
G3 X23.0304 Y41.3477 I-0.3502 J-0.8426
G3 X22.6802 Y41.2791 I0 J-0.9137
G3 X22.3857 Y41.0812 I0.3502 J-0.8426
G3 X22.1878 Y40.7868 I0.6446 J-0.6446
G3 X22.1167 Y40.4365 I0.8426 J-0.3502
G3 X22.1878 Y40.0862 I0.9137 J0
G3 X22.3857 Y39.7918 I0.8426 J0.3502
G3 X22.6802 Y39.5939 I0.6446 J0.6446
G3 X23.0304 Y39.5228 I0.3502 J0.8426
G0 Z2
G0 X23.0299 Y39.5238
G1 Z-5.9 F200
G3 X23.3781 Y39.5939 I0 J0.9137 F400
G3 X23.6751 Y39.7918 I-0.3502 J0.8426
G3 X23.8730 Y40.0862 I-0.6446 J0.6446
G3 X23.9416 Y40.4365 I-0.8426 J0.3502
G3 X23.8730 Y40.7868 I-0.9137 J0
G3 X23.6751 Y41.0812 I-0.8426 J-0.3502
G3 X23.3781 Y41.2791 I-0.6446 J-0.6446
G3 X23.0304 Y41.3477 I-0.3502 J-0.8426
G3 X22.6802 Y41.2791 I0 J-0.9137
G3 X22.3857 Y41.0812 I0.3502 J-0.8426
G3 X22.1878 Y40.7868 I0.6446 J-0.6446
G3 X22.1167 Y40.4365 I0.8426 J-0.3502
G3 X22.1878 Y40.0862 I0.9137 J0
G3 X22.3857 Y39.7918 I0.8426 J0.3502
G3 X22.6802 Y39.5939 I0.6446 J0.6446
G3 X23.0304 Y39.5228 I0.3502 J0.8426
G0 Z2
G0 X23.0299 Y39.5238
G1 Z-6 F200
G3 X23.3781 Y39.5939 I0 J0.9137 F400
G3 X23.6751 Y39.7918 I-0.3502 J0.8426
G3 X23.8730 Y40.0862 I-0.6446 J0.6446
G3 X23.9416 Y40.4365 I-0.8426 J0.3502
G3 X23.8730 Y40.7868 I-0.9137 J0
G3 X23.6751 Y41.0812 I-0.8426 J-0.3502
G3 X23.3781 Y41.2791 I-0.6446 J-0.6446
G3 X23.0304 Y41.3477 I-0.3502 J-0.8426
G3 X22.6802 Y41.2791 I0 J-0.9137
G3 X22.3857 Y41.0812 I0.3502 J-0.8426
G3 X22.1878 Y40.7868 I0.6446 J-0.6446
G3 X22.1167 Y40.4365 I0.8426 J-0.3502
G3 X22.1878 Y40.0862 I0.9137 J0
G3 X22.3857 Y39.7918 I0.8426 J0.3502
G3 X22.6802 Y39.5939 I0.6446 J0.6446
G3 X23.0304 Y39.5228 I0.3502 J0.8426
G0 Z2
G0 X23.0299 Y39.5238
G1 Z-6.1 F200
G3 X23.3781 Y39.5939 I0 J0.9137 F400
G3 X23.6751 Y39.7918 I-0.3502 J0.8426
G3 X23.8730 Y40.0862 I-0.6446 J0.6446
G3 X23.9416 Y40.4365 I-0.8426 J0.3502
G3 X23.8730 Y40.7868 I-0.9137 J0
G3 X23.6751 Y41.0812 I-0.8426 J-0.3502
G3 X23.3781 Y41.2791 I-0.6446 J-0.6446
G3 X23.0304 Y41.3477 I-0.3502 J-0.8426
G3 X22.6802 Y41.2791 I0 J-0.9137
G3 X22.3857 Y41.0812 I0.3502 J-0.8426
G3 X22.1878 Y40.7868 I0.6446 J-0.6446
G3 X22.1167 Y40.4365 I0.8426 J-0.3502
G3 X22.1878 Y40.0862 I0.9137 J0
G3 X22.3857 Y39.7918 I0.8426 J0.3502
G3 X22.6802 Y39.5939 I0.6446 J0.6446
G3 X23.0304 Y39.5228 I0.3502 J0.8426
G0 Z2
G0 X23.0299 Y39.5238
G1 Z-6.2 F200
G3 X23.3781 Y39.5939 I0 J0.9137 F400
G3 X23.6751 Y39.7918 I-0.3502 J0.8426
G3 X23.8730 Y40.0862 I-0.6446 J0.6446
G3 X23.9416 Y40.4365 I-0.8426 J0.3502
G3 X23.8730 Y40.7868 I-0.9137 J0
G3 X23.6751 Y41.0812 I-0.8426 J-0.3502
G3 X23.3781 Y41.2791 I-0.6446 J-0.6446
G3 X23.0304 Y41.3477 I-0.3502 J-0.8426
G3 X22.6802 Y41.2791 I0 J-0.9137
G3 X22.3857 Y41.0812 I0.3502 J-0.8426
G3 X22.1878 Y40.7868 I0.6446 J-0.6446
G3 X22.1167 Y40.4365 I0.8426 J-0.3502
G3 X22.1878 Y40.0862 I0.9137 J0
G3 X22.3857 Y39.7918 I0.8426 J0.3502
G3 X22.6802 Y39.5939 I0.6446 J0.6446
G3 X23.0304 Y39.5228 I0.3502 J0.8426
G0 Z2
G0 X23.0299 Y39.5238
G1 Z-6.3 F200
G3 X23.3781 Y39.5939 I0 J0.9137 F400
G3 X23.6751 Y39.7918 I-0.3502 J0.8426
G3 X23.8730 Y40.0862 I-0.6446 J0.6446
G3 X23.9416 Y40.4365 I-0.8426 J0.3502
G3 X23.8730 Y40.7868 I-0.9137 J0
G3 X23.6751 Y41.0812 I-0.8426 J-0.3502
G3 X23.3781 Y41.2791 I-0.6446 J-0.6446
G3 X23.0304 Y41.3477 I-0.3502 J-0.8426
G3 X22.6802 Y41.2791 I0 J-0.9137
G3 X22.3857 Y41.0812 I0.3502 J-0.8426
G3 X22.1878 Y40.7868 I0.6446 J-0.6446
G3 X22.1167 Y40.4365 I0.8426 J-0.3502
G3 X22.1878 Y40.0862 I0.9137 J0
G3 X22.3857 Y39.7918 I0.8426 J0.3502
G3 X22.6802 Y39.5939 I0.6446 J0.6446
G3 X23.0304 Y39.5228 I0.3502 J0.8426
G0 Z2
G0 X23.0299 Y39.5238
G1 Z-6.4 F200
G3 X23.3781 Y39.5939 I0 J0.9137 F400
G3 X23.6751 Y39.7918 I-0.3502 J0.8426
G3 X23.8730 Y40.0862 I-0.6446 J0.6446
G3 X23.9416 Y40.4365 I-0.8426 J0.3502
G3 X23.8730 Y40.7868 I-0.9137 J0
G3 X23.6751 Y41.0812 I-0.8426 J-0.3502
G3 X23.3781 Y41.2791 I-0.6446 J-0.6446
G3 X23.0304 Y41.3477 I-0.3502 J-0.8426
G3 X22.6802 Y41.2791 I0 J-0.9137
G3 X22.3857 Y41.0812 I0.3502 J-0.8426
G3 X22.1878 Y40.7868 I0.6446 J-0.6446
G3 X22.1167 Y40.4365 I0.8426 J-0.3502
G3 X22.1878 Y40.0862 I0.9137 J0
G3 X22.3857 Y39.7918 I0.8426 J0.3502
G3 X22.6802 Y39.5939 I0.6446 J0.6446
G3 X23.0304 Y39.5228 I0.3502 J0.8426
G0 Z2
G0 X23.0299 Y39.5238
G1 Z-6.5 F200
G3 X23.3781 Y39.5939 I0 J0.9137 F400
G3 X23.6751 Y39.7918 I-0.3502 J0.8426
G3 X23.8730 Y40.0862 I-0.6446 J0.6446
G3 X23.9416 Y40.4365 I-0.8426 J0.3502
G3 X23.8730 Y40.7868 I-0.9137 J0
G3 X23.6751 Y41.0812 I-0.8426 J-0.3502
G3 X23.3781 Y41.2791 I-0.6446 J-0.6446
G3 X23.0304 Y41.3477 I-0.3502 J-0.8426
G3 X22.6802 Y41.2791 I0 J-0.9137
G3 X22.3857 Y41.0812 I0.3502 J-0.8426
G3 X22.1878 Y40.7868 I0.6446 J-0.6446
G3 X22.1167 Y40.4365 I0.8426 J-0.3502
G3 X22.1878 Y40.0862 I0.9137 J0
G3 X22.3857 Y39.7918 I0.8426 J0.3502
G3 X22.6802 Y39.5939 I0.6446 J0.6446
G3 X23.0304 Y39.5228 I0.3502 J0.8426
G0 Z2
G0 X23.0299 Y39.5238
G1 Z-6.6 F200
G3 X23.3781 Y39.5939 I0 J0.9137 F400
G3 X23.6751 Y39.7918 I-0.3502 J0.8426
G3 X23.8730 Y40.0862 I-0.6446 J0.6446
G3 X23.9416 Y40.4365 I-0.8426 J0.3502
G3 X23.8730 Y40.7868 I-0.9137 J0
G3 X23.6751 Y41.0812 I-0.8426 J-0.3502
G3 X23.3781 Y41.2791 I-0.6446 J-0.6446
G3 X23.0304 Y41.3477 I-0.3502 J-0.8426
G3 X22.6802 Y41.2791 I0 J-0.9137
G3 X22.3857 Y41.0812 I0.3502 J-0.8426
G3 X22.1878 Y40.7868 I0.6446 J-0.6446
G3 X22.1167 Y40.4365 I0.8426 J-0.3502
G3 X22.1878 Y40.0862 I0.9137 J0
G3 X22.3857 Y39.7918 I0.8426 J0.3502
G3 X22.6802 Y39.5939 I0.6446 J0.6446
G3 X23.0304 Y39.5228 I0.3502 J0.8426
G0 Z2
G0 X23.0299 Y39.5238
G1 Z-6.7 F200
G3 X23.3781 Y39.5939 I0 J0.9137 F400
G3 X23.6751 Y39.7918 I-0.3502 J0.8426
G3 X23.8730 Y40.0862 I-0.6446 J0.6446
G3 X23.9416 Y40.4365 I-0.8426 J0.3502
G3 X23.8730 Y40.7868 I-0.9137 J0
G3 X23.6751 Y41.0812 I-0.8426 J-0.3502
G3 X23.3781 Y41.2791 I-0.6446 J-0.6446
G3 X23.0304 Y41.3477 I-0.3502 J-0.8426
G3 X22.6802 Y41.2791 I0 J-0.9137
G3 X22.3857 Y41.0812 I0.3502 J-0.8426
G3 X22.1878 Y40.7868 I0.6446 J-0.6446
G3 X22.1167 Y40.4365 I0.8426 J-0.3502
G3 X22.1878 Y40.0862 I0.9137 J0
G3 X22.3857 Y39.7918 I0.8426 J0.3502
G3 X22.6802 Y39.5939 I0.6446 J0.6446
G3 X23.0304 Y39.5228 I0.3502 J0.8426
G0 Z2
G0 X23.0299 Y39.5238
G1 Z-6.8 F200
G3 X23.3781 Y39.5939 I0 J0.9137 F400
G3 X23.6751 Y39.7918 I-0.3502 J0.8426
G3 X23.8730 Y40.0862 I-0.6446 J0.6446
G3 X23.9416 Y40.4365 I-0.8426 J0.3502
G3 X23.8730 Y40.7868 I-0.9137 J0
G3 X23.6751 Y41.0812 I-0.8426 J-0.3502
G3 X23.3781 Y41.2791 I-0.6446 J-0.6446
G3 X23.0304 Y41.3477 I-0.3502 J-0.8426
G3 X22.6802 Y41.2791 I0 J-0.9137
G3 X22.3857 Y41.0812 I0.3502 J-0.8426
G3 X22.1878 Y40.7868 I0.6446 J-0.6446
G3 X22.1167 Y40.4365 I0.8426 J-0.3502
G3 X22.1878 Y40.0862 I0.9137 J0
G3 X22.3857 Y39.7918 I0.8426 J0.3502
G3 X22.6802 Y39.5939 I0.6446 J0.6446
G3 X23.0304 Y39.5228 I0.3502 J0.8426
G0 Z2
G0 X23.0299 Y39.5238
G1 Z-6.9 F200
G3 X23.3781 Y39.5939 I0 J0.9137 F400
G3 X23.6751 Y39.7918 I-0.3502 J0.8426
G3 X23.8730 Y40.0862 I-0.6446 J0.6446
G3 X23.9416 Y40.4365 I-0.8426 J0.3502
G3 X23.8730 Y40.7868 I-0.9137 J0
G3 X23.6751 Y41.0812 I-0.8426 J-0.3502
G3 X23.3781 Y41.2791 I-0.6446 J-0.6446
G3 X23.0304 Y41.3477 I-0.3502 J-0.8426
G3 X22.6802 Y41.2791 I0 J-0.9137
G3 X22.3857 Y41.0812 I0.3502 J-0.8426
G3 X22.1878 Y40.7868 I0.6446 J-0.6446
G3 X22.1167 Y40.4365 I0.8426 J-0.3502
G3 X22.1878 Y40.0862 I0.9137 J0
G3 X22.3857 Y39.7918 I0.8426 J0.3502
G3 X22.6802 Y39.5939 I0.6446 J0.6446
G3 X23.0304 Y39.5228 I0.3502 J0.8426
G0 Z2
G0 X23.0299 Y39.5238
G1 Z-7 F200
G3 X23.3781 Y39.5939 I0 J0.9137 F400
G3 X23.6751 Y39.7918 I-0.3502 J0.8426
G3 X23.8730 Y40.0862 I-0.6446 J0.6446
G3 X23.9416 Y40.4365 I-0.8426 J0.3502
G3 X23.8730 Y40.7868 I-0.9137 J0
G3 X23.6751 Y41.0812 I-0.8426 J-0.3502
G3 X23.3781 Y41.2791 I-0.6446 J-0.6446
G3 X23.0304 Y41.3477 I-0.3502 J-0.8426
G3 X22.6802 Y41.2791 I0 J-0.9137
G3 X22.3857 Y41.0812 I0.3502 J-0.8426
G3 X22.1878 Y40.7868 I0.6446 J-0.6446
G3 X22.1167 Y40.4365 I0.8426 J-0.3502
G3 X22.1878 Y40.0862 I0.9137 J0
G3 X22.3857 Y39.7918 I0.8426 J0.3502
G3 X22.6802 Y39.5939 I0.6446 J0.6446
G3 X23.0304 Y39.5228 I0.3502 J0.8426
G0 Z2
G0 X23.0299 Y39.5238
G1 Z-7.1 F200
G3 X23.3781 Y39.5939 I0 J0.9137 F400
G3 X23.6751 Y39.7918 I-0.3502 J0.8426
G3 X23.8730 Y40.0862 I-0.6446 J0.6446
G3 X23.9416 Y40.4365 I-0.8426 J0.3502
G3 X23.8730 Y40.7868 I-0.9137 J0
G3 X23.6751 Y41.0812 I-0.8426 J-0.3502
G3 X23.3781 Y41.2791 I-0.6446 J-0.6446
G3 X23.0304 Y41.3477 I-0.3502 J-0.8426
G3 X22.6802 Y41.2791 I0 J-0.9137
G3 X22.3857 Y41.0812 I0.3502 J-0.8426
G3 X22.1878 Y40.7868 I0.6446 J-0.6446
G3 X22.1167 Y40.4365 I0.8426 J-0.3502
G3 X22.1878 Y40.0862 I0.9137 J0
G3 X22.3857 Y39.7918 I0.8426 J0.3502
G3 X22.6802 Y39.5939 I0.6446 J0.6446
G3 X23.0304 Y39.5228 I0.3502 J0.8426
G0 Z2
G0 X23.0299 Y39.5238
G1 Z-7.2 F200
G3 X23.3781 Y39.5939 I0 J0.9137 F400
G3 X23.6751 Y39.7918 I-0.3502 J0.8426
G3 X23.8730 Y40.0862 I-0.6446 J0.6446
G3 X23.9416 Y40.4365 I-0.8426 J0.3502
G3 X23.8730 Y40.7868 I-0.9137 J0
G3 X23.6751 Y41.0812 I-0.8426 J-0.3502
G3 X23.3781 Y41.2791 I-0.6446 J-0.6446
G3 X23.0304 Y41.3477 I-0.3502 J-0.8426
G3 X22.6802 Y41.2791 I0 J-0.9137
G3 X22.3857 Y41.0812 I0.3502 J-0.8426
G3 X22.1878 Y40.7868 I0.6446 J-0.6446
G3 X22.1167 Y40.4365 I0.8426 J-0.3502
G3 X22.1878 Y40.0862 I0.9137 J0
G3 X22.3857 Y39.7918 I0.8426 J0.3502
G3 X22.6802 Y39.5939 I0.6446 J0.6446
G3 X23.0304 Y39.5228 I0.3502 J0.8426
G0 Z2
G0 X23.0299 Y39.5238
G1 Z-7.3 F200
G3 X23.3781 Y39.5939 I0 J0.9137 F400
G3 X23.6751 Y39.7918 I-0.3502 J0.8426
G3 X23.8730 Y40.0862 I-0.6446 J0.6446
G3 X23.9416 Y40.4365 I-0.8426 J0.3502
G3 X23.8730 Y40.7868 I-0.9137 J0
G3 X23.6751 Y41.0812 I-0.8426 J-0.3502
G3 X23.3781 Y41.2791 I-0.6446 J-0.6446
G3 X23.0304 Y41.3477 I-0.3502 J-0.8426
G3 X22.6802 Y41.2791 I0 J-0.9137
G3 X22.3857 Y41.0812 I0.3502 J-0.8426
G3 X22.1878 Y40.7868 I0.6446 J-0.6446
G3 X22.1167 Y40.4365 I0.8426 J-0.3502
G3 X22.1878 Y40.0862 I0.9137 J0
G3 X22.3857 Y39.7918 I0.8426 J0.3502
G3 X22.6802 Y39.5939 I0.6446 J0.6446
G3 X23.0304 Y39.5228 I0.3502 J0.8426
G0 Z2
G0 X23.0299 Y39.5238
G1 Z-7.4 F200
G3 X23.3781 Y39.5939 I0 J0.9137 F400
G3 X23.6751 Y39.7918 I-0.3502 J0.8426
G3 X23.8730 Y40.0862 I-0.6446 J0.6446
G3 X23.9416 Y40.4365 I-0.8426 J0.3502
G3 X23.8730 Y40.7868 I-0.9137 J0
G3 X23.6751 Y41.0812 I-0.8426 J-0.3502
G3 X23.3781 Y41.2791 I-0.6446 J-0.6446
G3 X23.0304 Y41.3477 I-0.3502 J-0.8426
G3 X22.6802 Y41.2791 I0 J-0.9137
G3 X22.3857 Y41.0812 I0.3502 J-0.8426
G3 X22.1878 Y40.7868 I0.6446 J-0.6446
G3 X22.1167 Y40.4365 I0.8426 J-0.3502
G3 X22.1878 Y40.0862 I0.9137 J0
G3 X22.3857 Y39.7918 I0.8426 J0.3502
G3 X22.6802 Y39.5939 I0.6446 J0.6446
G3 X23.0304 Y39.5228 I0.3502 J0.8426
G0 Z2
G0 X23.0299 Y39.5238
G1 Z-7.5 F200
G3 X23.3781 Y39.5939 I0 J0.9137 F400
G3 X23.6751 Y39.7918 I-0.3502 J0.8426
G3 X23.8730 Y40.0862 I-0.6446 J0.6446
G3 X23.9416 Y40.4365 I-0.8426 J0.3502
G3 X23.8730 Y40.7868 I-0.9137 J0
G3 X23.6751 Y41.0812 I-0.8426 J-0.3502
G3 X23.3781 Y41.2791 I-0.6446 J-0.6446
G3 X23.0304 Y41.3477 I-0.3502 J-0.8426
G3 X22.6802 Y41.2791 I0 J-0.9137
G3 X22.3857 Y41.0812 I0.3502 J-0.8426
G3 X22.1878 Y40.7868 I0.6446 J-0.6446
G3 X22.1167 Y40.4365 I0.8426 J-0.3502
G3 X22.1878 Y40.0862 I0.9137 J0
G3 X22.3857 Y39.7918 I0.8426 J0.3502
G3 X22.6802 Y39.5939 I0.6446 J0.6446
G3 X23.0304 Y39.5228 I0.3502 J0.8426
G0 Z2
G0 X23.0299 Y39.5238
G1 Z-7.6 F200
G3 X23.3781 Y39.5939 I0 J0.9137 F400
G3 X23.6751 Y39.7918 I-0.3502 J0.8426
G3 X23.8730 Y40.0862 I-0.6446 J0.6446
G3 X23.9416 Y40.4365 I-0.8426 J0.3502
G3 X23.8730 Y40.7868 I-0.9137 J0
G3 X23.6751 Y41.0812 I-0.8426 J-0.3502
G3 X23.3781 Y41.2791 I-0.6446 J-0.6446
G3 X23.0304 Y41.3477 I-0.3502 J-0.8426
G3 X22.6802 Y41.2791 I0 J-0.9137
G3 X22.3857 Y41.0812 I0.3502 J-0.8426
G3 X22.1878 Y40.7868 I0.6446 J-0.6446
G3 X22.1167 Y40.4365 I0.8426 J-0.3502
G3 X22.1878 Y40.0862 I0.9137 J0
G3 X22.3857 Y39.7918 I0.8426 J0.3502
G3 X22.6802 Y39.5939 I0.6446 J0.6446
G3 X23.0304 Y39.5228 I0.3502 J0.8426
G0 Z2
G0 X23.0299 Y39.5238
G1 Z-7.7 F200
G3 X23.3781 Y39.5939 I0 J0.9137 F400
G3 X23.6751 Y39.7918 I-0.3502 J0.8426
G3 X23.8730 Y40.0862 I-0.6446 J0.6446
G3 X23.9416 Y40.4365 I-0.8426 J0.3502
G3 X23.8730 Y40.7868 I-0.9137 J0
G3 X23.6751 Y41.0812 I-0.8426 J-0.3502
G3 X23.3781 Y41.2791 I-0.6446 J-0.6446
G3 X23.0304 Y41.3477 I-0.3502 J-0.8426
G3 X22.6802 Y41.2791 I0 J-0.9137
G3 X22.3857 Y41.0812 I0.3502 J-0.8426
G3 X22.1878 Y40.7868 I0.6446 J-0.6446
G3 X22.1167 Y40.4365 I0.8426 J-0.3502
G3 X22.1878 Y40.0862 I0.9137 J0
G3 X22.3857 Y39.7918 I0.8426 J0.3502
G3 X22.6802 Y39.5939 I0.6446 J0.6446
G3 X23.0304 Y39.5228 I0.3502 J0.8426
G0 Z2
G0 X23.0299 Y39.5238
G1 Z-7.8 F200
G3 X23.3781 Y39.5939 I0 J0.9137 F400
G3 X23.6751 Y39.7918 I-0.3502 J0.8426
G3 X23.8730 Y40.0862 I-0.6446 J0.6446
G3 X23.9416 Y40.4365 I-0.8426 J0.3502
G3 X23.8730 Y40.7868 I-0.9137 J0
G3 X23.6751 Y41.0812 I-0.8426 J-0.3502
G3 X23.3781 Y41.2791 I-0.6446 J-0.6446
G3 X23.0304 Y41.3477 I-0.3502 J-0.8426
G3 X22.6802 Y41.2791 I0 J-0.9137
G3 X22.3857 Y41.0812 I0.3502 J-0.8426
G3 X22.1878 Y40.7868 I0.6446 J-0.6446
G3 X22.1167 Y40.4365 I0.8426 J-0.3502
G3 X22.1878 Y40.0862 I0.9137 J0
G3 X22.3857 Y39.7918 I0.8426 J0.3502
G3 X22.6802 Y39.5939 I0.6446 J0.6446
G3 X23.0304 Y39.5228 I0.3502 J0.8426
G0 Z2
G0 X23.0299 Y39.5238
G1 Z-7.9 F200
G3 X23.3781 Y39.5939 I0 J0.9137 F400
G3 X23.6751 Y39.7918 I-0.3502 J0.8426
G3 X23.8730 Y40.0862 I-0.6446 J0.6446
G3 X23.9416 Y40.4365 I-0.8426 J0.3502
G3 X23.8730 Y40.7868 I-0.9137 J0
G3 X23.6751 Y41.0812 I-0.8426 J-0.3502
G3 X23.3781 Y41.2791 I-0.6446 J-0.6446
G3 X23.0304 Y41.3477 I-0.3502 J-0.8426
G3 X22.6802 Y41.2791 I0 J-0.9137
G3 X22.3857 Y41.0812 I0.3502 J-0.8426
G3 X22.1878 Y40.7868 I0.6446 J-0.6446
G3 X22.1167 Y40.4365 I0.8426 J-0.3502
G3 X22.1878 Y40.0862 I0.9137 J0
G3 X22.3857 Y39.7918 I0.8426 J0.3502
G3 X22.6802 Y39.5939 I0.6446 J0.6446
G3 X23.0304 Y39.5228 I0.3502 J0.8426
G0 Z2
G0 X23.0299 Y39.5238
G1 Z-8 F200
G3 X23.3781 Y39.5939 I0 J0.9137 F400
G3 X23.6751 Y39.7918 I-0.3502 J0.8426
G3 X23.8730 Y40.0862 I-0.6446 J0.6446
G3 X23.9416 Y40.4365 I-0.8426 J0.3502
G3 X23.8730 Y40.7868 I-0.9137 J0
G3 X23.6751 Y41.0812 I-0.8426 J-0.3502
G3 X23.3781 Y41.2791 I-0.6446 J-0.6446
G3 X23.0304 Y41.3477 I-0.3502 J-0.8426
G3 X22.6802 Y41.2791 I0 J-0.9137
G3 X22.3857 Y41.0812 I0.3502 J-0.8426
G3 X22.1878 Y40.7868 I0.6446 J-0.6446
G3 X22.1167 Y40.4365 I0.8426 J-0.3502
G3 X22.1878 Y40.0862 I0.9137 J0
G3 X22.3857 Y39.7918 I0.8426 J0.3502
G3 X22.6802 Y39.5939 I0.6446 J0.6446
G3 X23.0304 Y39.5228 I0.3502 J0.8426
G0 Z2
G0 X23.0299 Y39.5238
G1 Z-8.1 F200
G3 X23.3781 Y39.5939 I0 J0.9137 F400
G3 X23.6751 Y39.7918 I-0.3502 J0.8426
G3 X23.8730 Y40.0862 I-0.6446 J0.6446
G3 X23.9416 Y40.4365 I-0.8426 J0.3502
G3 X23.8730 Y40.7868 I-0.9137 J0
G3 X23.6751 Y41.0812 I-0.8426 J-0.3502
G3 X23.3781 Y41.2791 I-0.6446 J-0.6446
G3 X23.0304 Y41.3477 I-0.3502 J-0.8426
G3 X22.6802 Y41.2791 I0 J-0.9137
G3 X22.3857 Y41.0812 I0.3502 J-0.8426
G3 X22.1878 Y40.7868 I0.6446 J-0.6446
G3 X22.1167 Y40.4365 I0.8426 J-0.3502
G3 X22.1878 Y40.0862 I0.9137 J0
G3 X22.3857 Y39.7918 I0.8426 J0.3502
G3 X22.6802 Y39.5939 I0.6446 J0.6446
G3 X23.0304 Y39.5228 I0.3502 J0.8426
G0 Z2
G0 X23.0299 Y39.5238
G1 Z-8.2 F200
G3 X23.3781 Y39.5939 I0 J0.9137 F400
G3 X23.6751 Y39.7918 I-0.3502 J0.8426
G3 X23.8730 Y40.0862 I-0.6446 J0.6446
G3 X23.9416 Y40.4365 I-0.8426 J0.3502
G3 X23.8730 Y40.7868 I-0.9137 J0
G3 X23.6751 Y41.0812 I-0.8426 J-0.3502
G3 X23.3781 Y41.2791 I-0.6446 J-0.6446
G3 X23.0304 Y41.3477 I-0.3502 J-0.8426
G3 X22.6802 Y41.2791 I0 J-0.9137
G3 X22.3857 Y41.0812 I0.3502 J-0.8426
G3 X22.1878 Y40.7868 I0.6446 J-0.6446
G3 X22.1167 Y40.4365 I0.8426 J-0.3502
G3 X22.1878 Y40.0862 I0.9137 J0
G3 X22.3857 Y39.7918 I0.8426 J0.3502
G3 X22.6802 Y39.5939 I0.6446 J0.6446
G3 X23.0304 Y39.5228 I0.3502 J0.8426
G0 Z2
G0 X23.0299 Y39.5238
G1 Z-8.3 F200
G3 X23.3781 Y39.5939 I0 J0.9137 F400
G3 X23.6751 Y39.7918 I-0.3502 J0.8426
G3 X23.8730 Y40.0862 I-0.6446 J0.6446
G3 X23.9416 Y40.4365 I-0.8426 J0.3502
G3 X23.8730 Y40.7868 I-0.9137 J0
G3 X23.6751 Y41.0812 I-0.8426 J-0.3502
G3 X23.3781 Y41.2791 I-0.6446 J-0.6446
G3 X23.0304 Y41.3477 I-0.3502 J-0.8426
G3 X22.6802 Y41.2791 I0 J-0.9137
G3 X22.3857 Y41.0812 I0.3502 J-0.8426
G3 X22.1878 Y40.7868 I0.6446 J-0.6446
G3 X22.1167 Y40.4365 I0.8426 J-0.3502
G3 X22.1878 Y40.0862 I0.9137 J0
G3 X22.3857 Y39.7918 I0.8426 J0.3502
G3 X22.6802 Y39.5939 I0.6446 J0.6446
G3 X23.0304 Y39.5228 I0.3502 J0.8426
G0 Z2
G0 X23.0299 Y39.5238
G1 Z-8.4 F200
G3 X23.3781 Y39.5939 I0 J0.9137 F400
G3 X23.6751 Y39.7918 I-0.3502 J0.8426
G3 X23.8730 Y40.0862 I-0.6446 J0.6446
G3 X23.9416 Y40.4365 I-0.8426 J0.3502
G3 X23.8730 Y40.7868 I-0.9137 J0
G3 X23.6751 Y41.0812 I-0.8426 J-0.3502
G3 X23.3781 Y41.2791 I-0.6446 J-0.6446
G3 X23.0304 Y41.3477 I-0.3502 J-0.8426
G3 X22.6802 Y41.2791 I0 J-0.9137
G3 X22.3857 Y41.0812 I0.3502 J-0.8426
G3 X22.1878 Y40.7868 I0.6446 J-0.6446
G3 X22.1167 Y40.4365 I0.8426 J-0.3502
G3 X22.1878 Y40.0862 I0.9137 J0
G3 X22.3857 Y39.7918 I0.8426 J0.3502
G3 X22.6802 Y39.5939 I0.6446 J0.6446
G3 X23.0304 Y39.5228 I0.3502 J0.8426
G0 Z2
G0 X23.0299 Y39.5238
G1 Z-8.5 F200
G3 X23.3781 Y39.5939 I0 J0.9137 F400
G3 X23.6751 Y39.7918 I-0.3502 J0.8426
G3 X23.8730 Y40.0862 I-0.6446 J0.6446
G3 X23.9416 Y40.4365 I-0.8426 J0.3502
G3 X23.8730 Y40.7868 I-0.9137 J0
G3 X23.6751 Y41.0812 I-0.8426 J-0.3502
G3 X23.3781 Y41.2791 I-0.6446 J-0.6446
G3 X23.0304 Y41.3477 I-0.3502 J-0.8426
G3 X22.6802 Y41.2791 I0 J-0.9137
G3 X22.3857 Y41.0812 I0.3502 J-0.8426
G3 X22.1878 Y40.7868 I0.6446 J-0.6446
G3 X22.1167 Y40.4365 I0.8426 J-0.3502
G3 X22.1878 Y40.0862 I0.9137 J0
G3 X22.3857 Y39.7918 I0.8426 J0.3502
G3 X22.6802 Y39.5939 I0.6446 J0.6446
G3 X23.0304 Y39.5228 I0.3502 J0.8426

(m5)
G0 Z2
G0 X57.8751 Y39.7911
G1 Z-0.1 F200
G3 X58.0736 Y40.0862 I-0.6446 J0.6446 F400
G3 X58.1421 Y40.4365 I-0.8426 J0.3502
G3 X58.0736 Y40.7868 I-0.9137 J0
G3 X57.8756 Y41.0812 I-0.8426 J-0.3502
G3 X57.5786 Y41.2791 I-0.6446 J-0.6446
G3 X57.2309 Y41.3477 I-0.3502 J-0.8426
G3 X56.8807 Y41.2791 I0 J-0.9137
G3 X56.5837 Y41.0812 I0.3502 J-0.8426
G3 X56.3857 Y40.7868 I0.6446 J-0.6446
G3 X56.3172 Y40.4365 I0.8426 J-0.3502
G3 X56.3857 Y40.0862 I0.9137 J0
G3 X56.5837 Y39.7918 I0.8426 J0.3502
G3 X56.8807 Y39.5939 I0.6446 J0.6446
G3 X57.2309 Y39.5228 I0.3502 J0.8426
G3 X57.5786 Y39.5939 I0 J0.9137
G3 X57.8756 Y39.7918 I-0.3502 J0.8426
G0 Z2
G0 X57.8751 Y39.7911
G1 Z-0.2 F200
G3 X58.0736 Y40.0862 I-0.6446 J0.6446 F400
G3 X58.1421 Y40.4365 I-0.8426 J0.3502
G3 X58.0736 Y40.7868 I-0.9137 J0
G3 X57.8756 Y41.0812 I-0.8426 J-0.3502
G3 X57.5786 Y41.2791 I-0.6446 J-0.6446
G3 X57.2309 Y41.3477 I-0.3502 J-0.8426
G3 X56.8807 Y41.2791 I0 J-0.9137
G3 X56.5837 Y41.0812 I0.3502 J-0.8426
G3 X56.3857 Y40.7868 I0.6446 J-0.6446
G3 X56.3172 Y40.4365 I0.8426 J-0.3502
G3 X56.3857 Y40.0862 I0.9137 J0
G3 X56.5837 Y39.7918 I0.8426 J0.3502
G3 X56.8807 Y39.5939 I0.6446 J0.6446
G3 X57.2309 Y39.5228 I0.3502 J0.8426
G3 X57.5786 Y39.5939 I0 J0.9137
G3 X57.8756 Y39.7918 I-0.3502 J0.8426
G0 Z2
G0 X57.8751 Y39.7911
G1 Z-0.3 F200
G3 X58.0736 Y40.0862 I-0.6446 J0.6446 F400
G3 X58.1421 Y40.4365 I-0.8426 J0.3502
G3 X58.0736 Y40.7868 I-0.9137 J0
G3 X57.8756 Y41.0812 I-0.8426 J-0.3502
G3 X57.5786 Y41.2791 I-0.6446 J-0.6446
G3 X57.2309 Y41.3477 I-0.3502 J-0.8426
G3 X56.8807 Y41.2791 I0 J-0.9137
G3 X56.5837 Y41.0812 I0.3502 J-0.8426
G3 X56.3857 Y40.7868 I0.6446 J-0.6446
G3 X56.3172 Y40.4365 I0.8426 J-0.3502
G3 X56.3857 Y40.0862 I0.9137 J0
G3 X56.5837 Y39.7918 I0.8426 J0.3502
G3 X56.8807 Y39.5939 I0.6446 J0.6446
G3 X57.2309 Y39.5228 I0.3502 J0.8426
G3 X57.5786 Y39.5939 I0 J0.9137
G3 X57.8756 Y39.7918 I-0.3502 J0.8426
G0 Z2
G0 X57.8751 Y39.7911
G1 Z-0.4 F200
G3 X58.0736 Y40.0862 I-0.6446 J0.6446 F400
G3 X58.1421 Y40.4365 I-0.8426 J0.3502
G3 X58.0736 Y40.7868 I-0.9137 J0
G3 X57.8756 Y41.0812 I-0.8426 J-0.3502
G3 X57.5786 Y41.2791 I-0.6446 J-0.6446
G3 X57.2309 Y41.3477 I-0.3502 J-0.8426
G3 X56.8807 Y41.2791 I0 J-0.9137
G3 X56.5837 Y41.0812 I0.3502 J-0.8426
G3 X56.3857 Y40.7868 I0.6446 J-0.6446
G3 X56.3172 Y40.4365 I0.8426 J-0.3502
G3 X56.3857 Y40.0862 I0.9137 J0
G3 X56.5837 Y39.7918 I0.8426 J0.3502
G3 X56.8807 Y39.5939 I0.6446 J0.6446
G3 X57.2309 Y39.5228 I0.3502 J0.8426
G3 X57.5786 Y39.5939 I0 J0.9137
G3 X57.8756 Y39.7918 I-0.3502 J0.8426
G0 Z2
G0 X57.8751 Y39.7911
G1 Z-0.5 F200
G3 X58.0736 Y40.0862 I-0.6446 J0.6446 F400
G3 X58.1421 Y40.4365 I-0.8426 J0.3502
G3 X58.0736 Y40.7868 I-0.9137 J0
G3 X57.8756 Y41.0812 I-0.8426 J-0.3502
G3 X57.5786 Y41.2791 I-0.6446 J-0.6446
G3 X57.2309 Y41.3477 I-0.3502 J-0.8426
G3 X56.8807 Y41.2791 I0 J-0.9137
G3 X56.5837 Y41.0812 I0.3502 J-0.8426
G3 X56.3857 Y40.7868 I0.6446 J-0.6446
G3 X56.3172 Y40.4365 I0.8426 J-0.3502
G3 X56.3857 Y40.0862 I0.9137 J0
G3 X56.5837 Y39.7918 I0.8426 J0.3502
G3 X56.8807 Y39.5939 I0.6446 J0.6446
G3 X57.2309 Y39.5228 I0.3502 J0.8426
G3 X57.5786 Y39.5939 I0 J0.9137
G3 X57.8756 Y39.7918 I-0.3502 J0.8426
G0 Z2
G0 X57.8751 Y39.7911
G1 Z-0.6 F200
G3 X58.0736 Y40.0862 I-0.6446 J0.6446 F400
G3 X58.1421 Y40.4365 I-0.8426 J0.3502
G3 X58.0736 Y40.7868 I-0.9137 J0
G3 X57.8756 Y41.0812 I-0.8426 J-0.3502
G3 X57.5786 Y41.2791 I-0.6446 J-0.6446
G3 X57.2309 Y41.3477 I-0.3502 J-0.8426
G3 X56.8807 Y41.2791 I0 J-0.9137
G3 X56.5837 Y41.0812 I0.3502 J-0.8426
G3 X56.3857 Y40.7868 I0.6446 J-0.6446
G3 X56.3172 Y40.4365 I0.8426 J-0.3502
G3 X56.3857 Y40.0862 I0.9137 J0
G3 X56.5837 Y39.7918 I0.8426 J0.3502
G3 X56.8807 Y39.5939 I0.6446 J0.6446
G3 X57.2309 Y39.5228 I0.3502 J0.8426
G3 X57.5786 Y39.5939 I0 J0.9137
G3 X57.8756 Y39.7918 I-0.3502 J0.8426
G0 Z2
G0 X57.8751 Y39.7911
G1 Z-0.7 F200
G3 X58.0736 Y40.0862 I-0.6446 J0.6446 F400
G3 X58.1421 Y40.4365 I-0.8426 J0.3502
G3 X58.0736 Y40.7868 I-0.9137 J0
G3 X57.8756 Y41.0812 I-0.8426 J-0.3502
G3 X57.5786 Y41.2791 I-0.6446 J-0.6446
G3 X57.2309 Y41.3477 I-0.3502 J-0.8426
G3 X56.8807 Y41.2791 I0 J-0.9137
G3 X56.5837 Y41.0812 I0.3502 J-0.8426
G3 X56.3857 Y40.7868 I0.6446 J-0.6446
G3 X56.3172 Y40.4365 I0.8426 J-0.3502
G3 X56.3857 Y40.0862 I0.9137 J0
G3 X56.5837 Y39.7918 I0.8426 J0.3502
G3 X56.8807 Y39.5939 I0.6446 J0.6446
G3 X57.2309 Y39.5228 I0.3502 J0.8426
G3 X57.5786 Y39.5939 I0 J0.9137
G3 X57.8756 Y39.7918 I-0.3502 J0.8426
G0 Z2
G0 X57.8751 Y39.7911
G1 Z-0.8 F200
G3 X58.0736 Y40.0862 I-0.6446 J0.6446 F400
G3 X58.1421 Y40.4365 I-0.8426 J0.3502
G3 X58.0736 Y40.7868 I-0.9137 J0
G3 X57.8756 Y41.0812 I-0.8426 J-0.3502
G3 X57.5786 Y41.2791 I-0.6446 J-0.6446
G3 X57.2309 Y41.3477 I-0.3502 J-0.8426
G3 X56.8807 Y41.2791 I0 J-0.9137
G3 X56.5837 Y41.0812 I0.3502 J-0.8426
G3 X56.3857 Y40.7868 I0.6446 J-0.6446
G3 X56.3172 Y40.4365 I0.8426 J-0.3502
G3 X56.3857 Y40.0862 I0.9137 J0
G3 X56.5837 Y39.7918 I0.8426 J0.3502
G3 X56.8807 Y39.5939 I0.6446 J0.6446
G3 X57.2309 Y39.5228 I0.3502 J0.8426
G3 X57.5786 Y39.5939 I0 J0.9137
G3 X57.8756 Y39.7918 I-0.3502 J0.8426
G0 Z2
G0 X57.8751 Y39.7911
G1 Z-0.9 F200
G3 X58.0736 Y40.0862 I-0.6446 J0.6446 F400
G3 X58.1421 Y40.4365 I-0.8426 J0.3502
G3 X58.0736 Y40.7868 I-0.9137 J0
G3 X57.8756 Y41.0812 I-0.8426 J-0.3502
G3 X57.5786 Y41.2791 I-0.6446 J-0.6446
G3 X57.2309 Y41.3477 I-0.3502 J-0.8426
G3 X56.8807 Y41.2791 I0 J-0.9137
G3 X56.5837 Y41.0812 I0.3502 J-0.8426
G3 X56.3857 Y40.7868 I0.6446 J-0.6446
G3 X56.3172 Y40.4365 I0.8426 J-0.3502
G3 X56.3857 Y40.0862 I0.9137 J0
G3 X56.5837 Y39.7918 I0.8426 J0.3502
G3 X56.8807 Y39.5939 I0.6446 J0.6446
G3 X57.2309 Y39.5228 I0.3502 J0.8426
G3 X57.5786 Y39.5939 I0 J0.9137
G3 X57.8756 Y39.7918 I-0.3502 J0.8426
G0 Z2
G0 X57.8751 Y39.7911
G1 Z-1 F200
G3 X58.0736 Y40.0862 I-0.6446 J0.6446 F400
G3 X58.1421 Y40.4365 I-0.8426 J0.3502
G3 X58.0736 Y40.7868 I-0.9137 J0
G3 X57.8756 Y41.0812 I-0.8426 J-0.3502
G3 X57.5786 Y41.2791 I-0.6446 J-0.6446
G3 X57.2309 Y41.3477 I-0.3502 J-0.8426
G3 X56.8807 Y41.2791 I0 J-0.9137
G3 X56.5837 Y41.0812 I0.3502 J-0.8426
G3 X56.3857 Y40.7868 I0.6446 J-0.6446
G3 X56.3172 Y40.4365 I0.8426 J-0.3502
G3 X56.3857 Y40.0862 I0.9137 J0
G3 X56.5837 Y39.7918 I0.8426 J0.3502
G3 X56.8807 Y39.5939 I0.6446 J0.6446
G3 X57.2309 Y39.5228 I0.3502 J0.8426
G3 X57.5786 Y39.5939 I0 J0.9137
G3 X57.8756 Y39.7918 I-0.3502 J0.8426
G0 Z2
G0 X57.8751 Y39.7911
G1 Z-1.1 F200
G3 X58.0736 Y40.0862 I-0.6446 J0.6446 F400
G3 X58.1421 Y40.4365 I-0.8426 J0.3502
G3 X58.0736 Y40.7868 I-0.9137 J0
G3 X57.8756 Y41.0812 I-0.8426 J-0.3502
G3 X57.5786 Y41.2791 I-0.6446 J-0.6446
G3 X57.2309 Y41.3477 I-0.3502 J-0.8426
G3 X56.8807 Y41.2791 I0 J-0.9137
G3 X56.5837 Y41.0812 I0.3502 J-0.8426
G3 X56.3857 Y40.7868 I0.6446 J-0.6446
G3 X56.3172 Y40.4365 I0.8426 J-0.3502
G3 X56.3857 Y40.0862 I0.9137 J0
G3 X56.5837 Y39.7918 I0.8426 J0.3502
G3 X56.8807 Y39.5939 I0.6446 J0.6446
G3 X57.2309 Y39.5228 I0.3502 J0.8426
G3 X57.5786 Y39.5939 I0 J0.9137
G3 X57.8756 Y39.7918 I-0.3502 J0.8426
G0 Z2
G0 X57.8751 Y39.7911
G1 Z-1.2 F200
G3 X58.0736 Y40.0862 I-0.6446 J0.6446 F400
G3 X58.1421 Y40.4365 I-0.8426 J0.3502
G3 X58.0736 Y40.7868 I-0.9137 J0
G3 X57.8756 Y41.0812 I-0.8426 J-0.3502
G3 X57.5786 Y41.2791 I-0.6446 J-0.6446
G3 X57.2309 Y41.3477 I-0.3502 J-0.8426
G3 X56.8807 Y41.2791 I0 J-0.9137
G3 X56.5837 Y41.0812 I0.3502 J-0.8426
G3 X56.3857 Y40.7868 I0.6446 J-0.6446
G3 X56.3172 Y40.4365 I0.8426 J-0.3502
G3 X56.3857 Y40.0862 I0.9137 J0
G3 X56.5837 Y39.7918 I0.8426 J0.3502
G3 X56.8807 Y39.5939 I0.6446 J0.6446
G3 X57.2309 Y39.5228 I0.3502 J0.8426
G3 X57.5786 Y39.5939 I0 J0.9137
G3 X57.8756 Y39.7918 I-0.3502 J0.8426
G0 Z2
G0 X57.8751 Y39.7911
G1 Z-1.3 F200
G3 X58.0736 Y40.0862 I-0.6446 J0.6446 F400
G3 X58.1421 Y40.4365 I-0.8426 J0.3502
G3 X58.0736 Y40.7868 I-0.9137 J0
G3 X57.8756 Y41.0812 I-0.8426 J-0.3502
G3 X57.5786 Y41.2791 I-0.6446 J-0.6446
G3 X57.2309 Y41.3477 I-0.3502 J-0.8426
G3 X56.8807 Y41.2791 I0 J-0.9137
G3 X56.5837 Y41.0812 I0.3502 J-0.8426
G3 X56.3857 Y40.7868 I0.6446 J-0.6446
G3 X56.3172 Y40.4365 I0.8426 J-0.3502
G3 X56.3857 Y40.0862 I0.9137 J0
G3 X56.5837 Y39.7918 I0.8426 J0.3502
G3 X56.8807 Y39.5939 I0.6446 J0.6446
G3 X57.2309 Y39.5228 I0.3502 J0.8426
G3 X57.5786 Y39.5939 I0 J0.9137
G3 X57.8756 Y39.7918 I-0.3502 J0.8426
G0 Z2
G0 X57.8751 Y39.7911
G1 Z-1.4 F200
G3 X58.0736 Y40.0862 I-0.6446 J0.6446 F400
G3 X58.1421 Y40.4365 I-0.8426 J0.3502
G3 X58.0736 Y40.7868 I-0.9137 J0
G3 X57.8756 Y41.0812 I-0.8426 J-0.3502
G3 X57.5786 Y41.2791 I-0.6446 J-0.6446
G3 X57.2309 Y41.3477 I-0.3502 J-0.8426
G3 X56.8807 Y41.2791 I0 J-0.9137
G3 X56.5837 Y41.0812 I0.3502 J-0.8426
G3 X56.3857 Y40.7868 I0.6446 J-0.6446
G3 X56.3172 Y40.4365 I0.8426 J-0.3502
G3 X56.3857 Y40.0862 I0.9137 J0
G3 X56.5837 Y39.7918 I0.8426 J0.3502
G3 X56.8807 Y39.5939 I0.6446 J0.6446
G3 X57.2309 Y39.5228 I0.3502 J0.8426
G3 X57.5786 Y39.5939 I0 J0.9137
G3 X57.8756 Y39.7918 I-0.3502 J0.8426
G0 Z2
G0 X57.8751 Y39.7911
G1 Z-1.5 F200
G3 X58.0736 Y40.0862 I-0.6446 J0.6446 F400
G3 X58.1421 Y40.4365 I-0.8426 J0.3502
G3 X58.0736 Y40.7868 I-0.9137 J0
G3 X57.8756 Y41.0812 I-0.8426 J-0.3502
G3 X57.5786 Y41.2791 I-0.6446 J-0.6446
G3 X57.2309 Y41.3477 I-0.3502 J-0.8426
G3 X56.8807 Y41.2791 I0 J-0.9137
G3 X56.5837 Y41.0812 I0.3502 J-0.8426
G3 X56.3857 Y40.7868 I0.6446 J-0.6446
G3 X56.3172 Y40.4365 I0.8426 J-0.3502
G3 X56.3857 Y40.0862 I0.9137 J0
G3 X56.5837 Y39.7918 I0.8426 J0.3502
G3 X56.8807 Y39.5939 I0.6446 J0.6446
G3 X57.2309 Y39.5228 I0.3502 J0.8426
G3 X57.5786 Y39.5939 I0 J0.9137
G3 X57.8756 Y39.7918 I-0.3502 J0.8426
G0 Z2
G0 X57.8751 Y39.7911
G1 Z-1.6 F200
G3 X58.0736 Y40.0862 I-0.6446 J0.6446 F400
G3 X58.1421 Y40.4365 I-0.8426 J0.3502
G3 X58.0736 Y40.7868 I-0.9137 J0
G3 X57.8756 Y41.0812 I-0.8426 J-0.3502
G3 X57.5786 Y41.2791 I-0.6446 J-0.6446
G3 X57.2309 Y41.3477 I-0.3502 J-0.8426
G3 X56.8807 Y41.2791 I0 J-0.9137
G3 X56.5837 Y41.0812 I0.3502 J-0.8426
G3 X56.3857 Y40.7868 I0.6446 J-0.6446
G3 X56.3172 Y40.4365 I0.8426 J-0.3502
G3 X56.3857 Y40.0862 I0.9137 J0
G3 X56.5837 Y39.7918 I0.8426 J0.3502
G3 X56.8807 Y39.5939 I0.6446 J0.6446
G3 X57.2309 Y39.5228 I0.3502 J0.8426
G3 X57.5786 Y39.5939 I0 J0.9137
G3 X57.8756 Y39.7918 I-0.3502 J0.8426
G0 Z2
G0 X57.8751 Y39.7911
G1 Z-1.7 F200
G3 X58.0736 Y40.0862 I-0.6446 J0.6446 F400
G3 X58.1421 Y40.4365 I-0.8426 J0.3502
G3 X58.0736 Y40.7868 I-0.9137 J0
G3 X57.8756 Y41.0812 I-0.8426 J-0.3502
G3 X57.5786 Y41.2791 I-0.6446 J-0.6446
G3 X57.2309 Y41.3477 I-0.3502 J-0.8426
G3 X56.8807 Y41.2791 I0 J-0.9137
G3 X56.5837 Y41.0812 I0.3502 J-0.8426
G3 X56.3857 Y40.7868 I0.6446 J-0.6446
G3 X56.3172 Y40.4365 I0.8426 J-0.3502
G3 X56.3857 Y40.0862 I0.9137 J0
G3 X56.5837 Y39.7918 I0.8426 J0.3502
G3 X56.8807 Y39.5939 I0.6446 J0.6446
G3 X57.2309 Y39.5228 I0.3502 J0.8426
G3 X57.5786 Y39.5939 I0 J0.9137
G3 X57.8756 Y39.7918 I-0.3502 J0.8426
G0 Z2
G0 X57.8751 Y39.7911
G1 Z-1.8 F200
G3 X58.0736 Y40.0862 I-0.6446 J0.6446 F400
G3 X58.1421 Y40.4365 I-0.8426 J0.3502
G3 X58.0736 Y40.7868 I-0.9137 J0
G3 X57.8756 Y41.0812 I-0.8426 J-0.3502
G3 X57.5786 Y41.2791 I-0.6446 J-0.6446
G3 X57.2309 Y41.3477 I-0.3502 J-0.8426
G3 X56.8807 Y41.2791 I0 J-0.9137
G3 X56.5837 Y41.0812 I0.3502 J-0.8426
G3 X56.3857 Y40.7868 I0.6446 J-0.6446
G3 X56.3172 Y40.4365 I0.8426 J-0.3502
G3 X56.3857 Y40.0862 I0.9137 J0
G3 X56.5837 Y39.7918 I0.8426 J0.3502
G3 X56.8807 Y39.5939 I0.6446 J0.6446
G3 X57.2309 Y39.5228 I0.3502 J0.8426
G3 X57.5786 Y39.5939 I0 J0.9137
G3 X57.8756 Y39.7918 I-0.3502 J0.8426
G0 Z2
G0 X57.8751 Y39.7911
G1 Z-1.9 F200
G3 X58.0736 Y40.0862 I-0.6446 J0.6446 F400
G3 X58.1421 Y40.4365 I-0.8426 J0.3502
G3 X58.0736 Y40.7868 I-0.9137 J0
G3 X57.8756 Y41.0812 I-0.8426 J-0.3502
G3 X57.5786 Y41.2791 I-0.6446 J-0.6446
G3 X57.2309 Y41.3477 I-0.3502 J-0.8426
G3 X56.8807 Y41.2791 I0 J-0.9137
G3 X56.5837 Y41.0812 I0.3502 J-0.8426
G3 X56.3857 Y40.7868 I0.6446 J-0.6446
G3 X56.3172 Y40.4365 I0.8426 J-0.3502
G3 X56.3857 Y40.0862 I0.9137 J0
G3 X56.5837 Y39.7918 I0.8426 J0.3502
G3 X56.8807 Y39.5939 I0.6446 J0.6446
G3 X57.2309 Y39.5228 I0.3502 J0.8426
G3 X57.5786 Y39.5939 I0 J0.9137
G3 X57.8756 Y39.7918 I-0.3502 J0.8426
G0 Z2
G0 X57.8751 Y39.7911
G1 Z-2 F200
G3 X58.0736 Y40.0862 I-0.6446 J0.6446 F400
G3 X58.1421 Y40.4365 I-0.8426 J0.3502
G3 X58.0736 Y40.7868 I-0.9137 J0
G3 X57.8756 Y41.0812 I-0.8426 J-0.3502
G3 X57.5786 Y41.2791 I-0.6446 J-0.6446
G3 X57.2309 Y41.3477 I-0.3502 J-0.8426
G3 X56.8807 Y41.2791 I0 J-0.9137
G3 X56.5837 Y41.0812 I0.3502 J-0.8426
G3 X56.3857 Y40.7868 I0.6446 J-0.6446
G3 X56.3172 Y40.4365 I0.8426 J-0.3502
G3 X56.3857 Y40.0862 I0.9137 J0
G3 X56.5837 Y39.7918 I0.8426 J0.3502
G3 X56.8807 Y39.5939 I0.6446 J0.6446
G3 X57.2309 Y39.5228 I0.3502 J0.8426
G3 X57.5786 Y39.5939 I0 J0.9137
G3 X57.8756 Y39.7918 I-0.3502 J0.8426
G0 Z2
G0 X57.8751 Y39.7911
G1 Z-2.1 F200
G3 X58.0736 Y40.0862 I-0.6446 J0.6446 F400
G3 X58.1421 Y40.4365 I-0.8426 J0.3502
G3 X58.0736 Y40.7868 I-0.9137 J0
G3 X57.8756 Y41.0812 I-0.8426 J-0.3502
G3 X57.5786 Y41.2791 I-0.6446 J-0.6446
G3 X57.2309 Y41.3477 I-0.3502 J-0.8426
G3 X56.8807 Y41.2791 I0 J-0.9137
G3 X56.5837 Y41.0812 I0.3502 J-0.8426
G3 X56.3857 Y40.7868 I0.6446 J-0.6446
G3 X56.3172 Y40.4365 I0.8426 J-0.3502
G3 X56.3857 Y40.0862 I0.9137 J0
G3 X56.5837 Y39.7918 I0.8426 J0.3502
G3 X56.8807 Y39.5939 I0.6446 J0.6446
G3 X57.2309 Y39.5228 I0.3502 J0.8426
G3 X57.5786 Y39.5939 I0 J0.9137
G3 X57.8756 Y39.7918 I-0.3502 J0.8426
G0 Z2
G0 X57.8751 Y39.7911
G1 Z-2.2 F200
G3 X58.0736 Y40.0862 I-0.6446 J0.6446 F400
G3 X58.1421 Y40.4365 I-0.8426 J0.3502
G3 X58.0736 Y40.7868 I-0.9137 J0
G3 X57.8756 Y41.0812 I-0.8426 J-0.3502
G3 X57.5786 Y41.2791 I-0.6446 J-0.6446
G3 X57.2309 Y41.3477 I-0.3502 J-0.8426
G3 X56.8807 Y41.2791 I0 J-0.9137
G3 X56.5837 Y41.0812 I0.3502 J-0.8426
G3 X56.3857 Y40.7868 I0.6446 J-0.6446
G3 X56.3172 Y40.4365 I0.8426 J-0.3502
G3 X56.3857 Y40.0862 I0.9137 J0
G3 X56.5837 Y39.7918 I0.8426 J0.3502
G3 X56.8807 Y39.5939 I0.6446 J0.6446
G3 X57.2309 Y39.5228 I0.3502 J0.8426
G3 X57.5786 Y39.5939 I0 J0.9137
G3 X57.8756 Y39.7918 I-0.3502 J0.8426
G0 Z2
G0 X57.8751 Y39.7911
G1 Z-2.3 F200
G3 X58.0736 Y40.0862 I-0.6446 J0.6446 F400
G3 X58.1421 Y40.4365 I-0.8426 J0.3502
G3 X58.0736 Y40.7868 I-0.9137 J0
G3 X57.8756 Y41.0812 I-0.8426 J-0.3502
G3 X57.5786 Y41.2791 I-0.6446 J-0.6446
G3 X57.2309 Y41.3477 I-0.3502 J-0.8426
G3 X56.8807 Y41.2791 I0 J-0.9137
G3 X56.5837 Y41.0812 I0.3502 J-0.8426
G3 X56.3857 Y40.7868 I0.6446 J-0.6446
G3 X56.3172 Y40.4365 I0.8426 J-0.3502
G3 X56.3857 Y40.0862 I0.9137 J0
G3 X56.5837 Y39.7918 I0.8426 J0.3502
G3 X56.8807 Y39.5939 I0.6446 J0.6446
G3 X57.2309 Y39.5228 I0.3502 J0.8426
G3 X57.5786 Y39.5939 I0 J0.9137
G3 X57.8756 Y39.7918 I-0.3502 J0.8426
G0 Z2
G0 X57.8751 Y39.7911
G1 Z-2.4 F200
G3 X58.0736 Y40.0862 I-0.6446 J0.6446 F400
G3 X58.1421 Y40.4365 I-0.8426 J0.3502
G3 X58.0736 Y40.7868 I-0.9137 J0
G3 X57.8756 Y41.0812 I-0.8426 J-0.3502
G3 X57.5786 Y41.2791 I-0.6446 J-0.6446
G3 X57.2309 Y41.3477 I-0.3502 J-0.8426
G3 X56.8807 Y41.2791 I0 J-0.9137
G3 X56.5837 Y41.0812 I0.3502 J-0.8426
G3 X56.3857 Y40.7868 I0.6446 J-0.6446
G3 X56.3172 Y40.4365 I0.8426 J-0.3502
G3 X56.3857 Y40.0862 I0.9137 J0
G3 X56.5837 Y39.7918 I0.8426 J0.3502
G3 X56.8807 Y39.5939 I0.6446 J0.6446
G3 X57.2309 Y39.5228 I0.3502 J0.8426
G3 X57.5786 Y39.5939 I0 J0.9137
G3 X57.8756 Y39.7918 I-0.3502 J0.8426
G0 Z2
G0 X57.8751 Y39.7911
G1 Z-2.5 F200
G3 X58.0736 Y40.0862 I-0.6446 J0.6446 F400
G3 X58.1421 Y40.4365 I-0.8426 J0.3502
G3 X58.0736 Y40.7868 I-0.9137 J0
G3 X57.8756 Y41.0812 I-0.8426 J-0.3502
G3 X57.5786 Y41.2791 I-0.6446 J-0.6446
G3 X57.2309 Y41.3477 I-0.3502 J-0.8426
G3 X56.8807 Y41.2791 I0 J-0.9137
G3 X56.5837 Y41.0812 I0.3502 J-0.8426
G3 X56.3857 Y40.7868 I0.6446 J-0.6446
G3 X56.3172 Y40.4365 I0.8426 J-0.3502
G3 X56.3857 Y40.0862 I0.9137 J0
G3 X56.5837 Y39.7918 I0.8426 J0.3502
G3 X56.8807 Y39.5939 I0.6446 J0.6446
G3 X57.2309 Y39.5228 I0.3502 J0.8426
G3 X57.5786 Y39.5939 I0 J0.9137
G3 X57.8756 Y39.7918 I-0.3502 J0.8426
G0 Z2
G0 X57.8751 Y39.7911
G1 Z-2.6 F200
G3 X58.0736 Y40.0862 I-0.6446 J0.6446 F400
G3 X58.1421 Y40.4365 I-0.8426 J0.3502
G3 X58.0736 Y40.7868 I-0.9137 J0
G3 X57.8756 Y41.0812 I-0.8426 J-0.3502
G3 X57.5786 Y41.2791 I-0.6446 J-0.6446
G3 X57.2309 Y41.3477 I-0.3502 J-0.8426
G3 X56.8807 Y41.2791 I0 J-0.9137
G3 X56.5837 Y41.0812 I0.3502 J-0.8426
G3 X56.3857 Y40.7868 I0.6446 J-0.6446
G3 X56.3172 Y40.4365 I0.8426 J-0.3502
G3 X56.3857 Y40.0862 I0.9137 J0
G3 X56.5837 Y39.7918 I0.8426 J0.3502
G3 X56.8807 Y39.5939 I0.6446 J0.6446
G3 X57.2309 Y39.5228 I0.3502 J0.8426
G3 X57.5786 Y39.5939 I0 J0.9137
G3 X57.8756 Y39.7918 I-0.3502 J0.8426
G0 Z2
G0 X57.8751 Y39.7911
G1 Z-2.7 F200
G3 X58.0736 Y40.0862 I-0.6446 J0.6446 F400
G3 X58.1421 Y40.4365 I-0.8426 J0.3502
G3 X58.0736 Y40.7868 I-0.9137 J0
G3 X57.8756 Y41.0812 I-0.8426 J-0.3502
G3 X57.5786 Y41.2791 I-0.6446 J-0.6446
G3 X57.2309 Y41.3477 I-0.3502 J-0.8426
G3 X56.8807 Y41.2791 I0 J-0.9137
G3 X56.5837 Y41.0812 I0.3502 J-0.8426
G3 X56.3857 Y40.7868 I0.6446 J-0.6446
G3 X56.3172 Y40.4365 I0.8426 J-0.3502
G3 X56.3857 Y40.0862 I0.9137 J0
G3 X56.5837 Y39.7918 I0.8426 J0.3502
G3 X56.8807 Y39.5939 I0.6446 J0.6446
G3 X57.2309 Y39.5228 I0.3502 J0.8426
G3 X57.5786 Y39.5939 I0 J0.9137
G3 X57.8756 Y39.7918 I-0.3502 J0.8426
G0 Z2
G0 X57.8751 Y39.7911
G1 Z-2.8 F200
G3 X58.0736 Y40.0862 I-0.6446 J0.6446 F400
G3 X58.1421 Y40.4365 I-0.8426 J0.3502
G3 X58.0736 Y40.7868 I-0.9137 J0
G3 X57.8756 Y41.0812 I-0.8426 J-0.3502
G3 X57.5786 Y41.2791 I-0.6446 J-0.6446
G3 X57.2309 Y41.3477 I-0.3502 J-0.8426
G3 X56.8807 Y41.2791 I0 J-0.9137
G3 X56.5837 Y41.0812 I0.3502 J-0.8426
G3 X56.3857 Y40.7868 I0.6446 J-0.6446
G3 X56.3172 Y40.4365 I0.8426 J-0.3502
G3 X56.3857 Y40.0862 I0.9137 J0
G3 X56.5837 Y39.7918 I0.8426 J0.3502
G3 X56.8807 Y39.5939 I0.6446 J0.6446
G3 X57.2309 Y39.5228 I0.3502 J0.8426
G3 X57.5786 Y39.5939 I0 J0.9137
G3 X57.8756 Y39.7918 I-0.3502 J0.8426
G0 Z2
G0 X57.8751 Y39.7911
G1 Z-2.9 F200
G3 X58.0736 Y40.0862 I-0.6446 J0.6446 F400
G3 X58.1421 Y40.4365 I-0.8426 J0.3502
G3 X58.0736 Y40.7868 I-0.9137 J0
G3 X57.8756 Y41.0812 I-0.8426 J-0.3502
G3 X57.5786 Y41.2791 I-0.6446 J-0.6446
G3 X57.2309 Y41.3477 I-0.3502 J-0.8426
G3 X56.8807 Y41.2791 I0 J-0.9137
G3 X56.5837 Y41.0812 I0.3502 J-0.8426
G3 X56.3857 Y40.7868 I0.6446 J-0.6446
G3 X56.3172 Y40.4365 I0.8426 J-0.3502
G3 X56.3857 Y40.0862 I0.9137 J0
G3 X56.5837 Y39.7918 I0.8426 J0.3502
G3 X56.8807 Y39.5939 I0.6446 J0.6446
G3 X57.2309 Y39.5228 I0.3502 J0.8426
G3 X57.5786 Y39.5939 I0 J0.9137
G3 X57.8756 Y39.7918 I-0.3502 J0.8426
G0 Z2
G0 X57.8751 Y39.7911
G1 Z-3 F200
G3 X58.0736 Y40.0862 I-0.6446 J0.6446 F400
G3 X58.1421 Y40.4365 I-0.8426 J0.3502
G3 X58.0736 Y40.7868 I-0.9137 J0
G3 X57.8756 Y41.0812 I-0.8426 J-0.3502
G3 X57.5786 Y41.2791 I-0.6446 J-0.6446
G3 X57.2309 Y41.3477 I-0.3502 J-0.8426
G3 X56.8807 Y41.2791 I0 J-0.9137
G3 X56.5837 Y41.0812 I0.3502 J-0.8426
G3 X56.3857 Y40.7868 I0.6446 J-0.6446
G3 X56.3172 Y40.4365 I0.8426 J-0.3502
G3 X56.3857 Y40.0862 I0.9137 J0
G3 X56.5837 Y39.7918 I0.8426 J0.3502
G3 X56.8807 Y39.5939 I0.6446 J0.6446
G3 X57.2309 Y39.5228 I0.3502 J0.8426
G3 X57.5786 Y39.5939 I0 J0.9137
G3 X57.8756 Y39.7918 I-0.3502 J0.8426
G0 Z2
G0 X57.8751 Y39.7911
G1 Z-3.1 F200
G3 X58.0736 Y40.0862 I-0.6446 J0.6446 F400
G3 X58.1421 Y40.4365 I-0.8426 J0.3502
G3 X58.0736 Y40.7868 I-0.9137 J0
G3 X57.8756 Y41.0812 I-0.8426 J-0.3502
G3 X57.5786 Y41.2791 I-0.6446 J-0.6446
G3 X57.2309 Y41.3477 I-0.3502 J-0.8426
G3 X56.8807 Y41.2791 I0 J-0.9137
G3 X56.5837 Y41.0812 I0.3502 J-0.8426
G3 X56.3857 Y40.7868 I0.6446 J-0.6446
G3 X56.3172 Y40.4365 I0.8426 J-0.3502
G3 X56.3857 Y40.0862 I0.9137 J0
G3 X56.5837 Y39.7918 I0.8426 J0.3502
G3 X56.8807 Y39.5939 I0.6446 J0.6446
G3 X57.2309 Y39.5228 I0.3502 J0.8426
G3 X57.5786 Y39.5939 I0 J0.9137
G3 X57.8756 Y39.7918 I-0.3502 J0.8426
G0 Z2
G0 X57.8751 Y39.7911
G1 Z-3.2 F200
G3 X58.0736 Y40.0862 I-0.6446 J0.6446 F400
G3 X58.1421 Y40.4365 I-0.8426 J0.3502
G3 X58.0736 Y40.7868 I-0.9137 J0
G3 X57.8756 Y41.0812 I-0.8426 J-0.3502
G3 X57.5786 Y41.2791 I-0.6446 J-0.6446
G3 X57.2309 Y41.3477 I-0.3502 J-0.8426
G3 X56.8807 Y41.2791 I0 J-0.9137
G3 X56.5837 Y41.0812 I0.3502 J-0.8426
G3 X56.3857 Y40.7868 I0.6446 J-0.6446
G3 X56.3172 Y40.4365 I0.8426 J-0.3502
G3 X56.3857 Y40.0862 I0.9137 J0
G3 X56.5837 Y39.7918 I0.8426 J0.3502
G3 X56.8807 Y39.5939 I0.6446 J0.6446
G3 X57.2309 Y39.5228 I0.3502 J0.8426
G3 X57.5786 Y39.5939 I0 J0.9137
G3 X57.8756 Y39.7918 I-0.3502 J0.8426
G0 Z2
G0 X57.8751 Y39.7911
G1 Z-3.3 F200
G3 X58.0736 Y40.0862 I-0.6446 J0.6446 F400
G3 X58.1421 Y40.4365 I-0.8426 J0.3502
G3 X58.0736 Y40.7868 I-0.9137 J0
G3 X57.8756 Y41.0812 I-0.8426 J-0.3502
G3 X57.5786 Y41.2791 I-0.6446 J-0.6446
G3 X57.2309 Y41.3477 I-0.3502 J-0.8426
G3 X56.8807 Y41.2791 I0 J-0.9137
G3 X56.5837 Y41.0812 I0.3502 J-0.8426
G3 X56.3857 Y40.7868 I0.6446 J-0.6446
G3 X56.3172 Y40.4365 I0.8426 J-0.3502
G3 X56.3857 Y40.0862 I0.9137 J0
G3 X56.5837 Y39.7918 I0.8426 J0.3502
G3 X56.8807 Y39.5939 I0.6446 J0.6446
G3 X57.2309 Y39.5228 I0.3502 J0.8426
G3 X57.5786 Y39.5939 I0 J0.9137
G3 X57.8756 Y39.7918 I-0.3502 J0.8426
G0 Z2
G0 X57.8751 Y39.7911
G1 Z-3.4 F200
G3 X58.0736 Y40.0862 I-0.6446 J0.6446 F400
G3 X58.1421 Y40.4365 I-0.8426 J0.3502
G3 X58.0736 Y40.7868 I-0.9137 J0
G3 X57.8756 Y41.0812 I-0.8426 J-0.3502
G3 X57.5786 Y41.2791 I-0.6446 J-0.6446
G3 X57.2309 Y41.3477 I-0.3502 J-0.8426
G3 X56.8807 Y41.2791 I0 J-0.9137
G3 X56.5837 Y41.0812 I0.3502 J-0.8426
G3 X56.3857 Y40.7868 I0.6446 J-0.6446
G3 X56.3172 Y40.4365 I0.8426 J-0.3502
G3 X56.3857 Y40.0862 I0.9137 J0
G3 X56.5837 Y39.7918 I0.8426 J0.3502
G3 X56.8807 Y39.5939 I0.6446 J0.6446
G3 X57.2309 Y39.5228 I0.3502 J0.8426
G3 X57.5786 Y39.5939 I0 J0.9137
G3 X57.8756 Y39.7918 I-0.3502 J0.8426
G0 Z2
G0 X57.8751 Y39.7911
G1 Z-3.5 F200
G3 X58.0736 Y40.0862 I-0.6446 J0.6446 F400
G3 X58.1421 Y40.4365 I-0.8426 J0.3502
G3 X58.0736 Y40.7868 I-0.9137 J0
G3 X57.8756 Y41.0812 I-0.8426 J-0.3502
G3 X57.5786 Y41.2791 I-0.6446 J-0.6446
G3 X57.2309 Y41.3477 I-0.3502 J-0.8426
G3 X56.8807 Y41.2791 I0 J-0.9137
G3 X56.5837 Y41.0812 I0.3502 J-0.8426
G3 X56.3857 Y40.7868 I0.6446 J-0.6446
G3 X56.3172 Y40.4365 I0.8426 J-0.3502
G3 X56.3857 Y40.0862 I0.9137 J0
G3 X56.5837 Y39.7918 I0.8426 J0.3502
G3 X56.8807 Y39.5939 I0.6446 J0.6446
G3 X57.2309 Y39.5228 I0.3502 J0.8426
G3 X57.5786 Y39.5939 I0 J0.9137
G3 X57.8756 Y39.7918 I-0.3502 J0.8426
G0 Z2
G0 X57.8751 Y39.7911
G1 Z-3.6 F200
G3 X58.0736 Y40.0862 I-0.6446 J0.6446 F400
G3 X58.1421 Y40.4365 I-0.8426 J0.3502
G3 X58.0736 Y40.7868 I-0.9137 J0
G3 X57.8756 Y41.0812 I-0.8426 J-0.3502
G3 X57.5786 Y41.2791 I-0.6446 J-0.6446
G3 X57.2309 Y41.3477 I-0.3502 J-0.8426
G3 X56.8807 Y41.2791 I0 J-0.9137
G3 X56.5837 Y41.0812 I0.3502 J-0.8426
G3 X56.3857 Y40.7868 I0.6446 J-0.6446
G3 X56.3172 Y40.4365 I0.8426 J-0.3502
G3 X56.3857 Y40.0862 I0.9137 J0
G3 X56.5837 Y39.7918 I0.8426 J0.3502
G3 X56.8807 Y39.5939 I0.6446 J0.6446
G3 X57.2309 Y39.5228 I0.3502 J0.8426
G3 X57.5786 Y39.5939 I0 J0.9137
G3 X57.8756 Y39.7918 I-0.3502 J0.8426
G0 Z2
G0 X57.8751 Y39.7911
G1 Z-3.7 F200
G3 X58.0736 Y40.0862 I-0.6446 J0.6446 F400
G3 X58.1421 Y40.4365 I-0.8426 J0.3502
G3 X58.0736 Y40.7868 I-0.9137 J0
G3 X57.8756 Y41.0812 I-0.8426 J-0.3502
G3 X57.5786 Y41.2791 I-0.6446 J-0.6446
G3 X57.2309 Y41.3477 I-0.3502 J-0.8426
G3 X56.8807 Y41.2791 I0 J-0.9137
G3 X56.5837 Y41.0812 I0.3502 J-0.8426
G3 X56.3857 Y40.7868 I0.6446 J-0.6446
G3 X56.3172 Y40.4365 I0.8426 J-0.3502
G3 X56.3857 Y40.0862 I0.9137 J0
G3 X56.5837 Y39.7918 I0.8426 J0.3502
G3 X56.8807 Y39.5939 I0.6446 J0.6446
G3 X57.2309 Y39.5228 I0.3502 J0.8426
G3 X57.5786 Y39.5939 I0 J0.9137
G3 X57.8756 Y39.7918 I-0.3502 J0.8426
G0 Z2
G0 X57.8751 Y39.7911
G1 Z-3.8 F200
G3 X58.0736 Y40.0862 I-0.6446 J0.6446 F400
G3 X58.1421 Y40.4365 I-0.8426 J0.3502
G3 X58.0736 Y40.7868 I-0.9137 J0
G3 X57.8756 Y41.0812 I-0.8426 J-0.3502
G3 X57.5786 Y41.2791 I-0.6446 J-0.6446
G3 X57.2309 Y41.3477 I-0.3502 J-0.8426
G3 X56.8807 Y41.2791 I0 J-0.9137
G3 X56.5837 Y41.0812 I0.3502 J-0.8426
G3 X56.3857 Y40.7868 I0.6446 J-0.6446
G3 X56.3172 Y40.4365 I0.8426 J-0.3502
G3 X56.3857 Y40.0862 I0.9137 J0
G3 X56.5837 Y39.7918 I0.8426 J0.3502
G3 X56.8807 Y39.5939 I0.6446 J0.6446
G3 X57.2309 Y39.5228 I0.3502 J0.8426
G3 X57.5786 Y39.5939 I0 J0.9137
G3 X57.8756 Y39.7918 I-0.3502 J0.8426
G0 Z2
G0 X57.8751 Y39.7911
G1 Z-3.9 F200
G3 X58.0736 Y40.0862 I-0.6446 J0.6446 F400
G3 X58.1421 Y40.4365 I-0.8426 J0.3502
G3 X58.0736 Y40.7868 I-0.9137 J0
G3 X57.8756 Y41.0812 I-0.8426 J-0.3502
G3 X57.5786 Y41.2791 I-0.6446 J-0.6446
G3 X57.2309 Y41.3477 I-0.3502 J-0.8426
G3 X56.8807 Y41.2791 I0 J-0.9137
G3 X56.5837 Y41.0812 I0.3502 J-0.8426
G3 X56.3857 Y40.7868 I0.6446 J-0.6446
G3 X56.3172 Y40.4365 I0.8426 J-0.3502
G3 X56.3857 Y40.0862 I0.9137 J0
G3 X56.5837 Y39.7918 I0.8426 J0.3502
G3 X56.8807 Y39.5939 I0.6446 J0.6446
G3 X57.2309 Y39.5228 I0.3502 J0.8426
G3 X57.5786 Y39.5939 I0 J0.9137
G3 X57.8756 Y39.7918 I-0.3502 J0.8426
G0 Z2
G0 X57.8751 Y39.7911
G1 Z-4 F200
G3 X58.0736 Y40.0862 I-0.6446 J0.6446 F400
G3 X58.1421 Y40.4365 I-0.8426 J0.3502
G3 X58.0736 Y40.7868 I-0.9137 J0
G3 X57.8756 Y41.0812 I-0.8426 J-0.3502
G3 X57.5786 Y41.2791 I-0.6446 J-0.6446
G3 X57.2309 Y41.3477 I-0.3502 J-0.8426
G3 X56.8807 Y41.2791 I0 J-0.9137
G3 X56.5837 Y41.0812 I0.3502 J-0.8426
G3 X56.3857 Y40.7868 I0.6446 J-0.6446
G3 X56.3172 Y40.4365 I0.8426 J-0.3502
G3 X56.3857 Y40.0862 I0.9137 J0
G3 X56.5837 Y39.7918 I0.8426 J0.3502
G3 X56.8807 Y39.5939 I0.6446 J0.6446
G3 X57.2309 Y39.5228 I0.3502 J0.8426
G3 X57.5786 Y39.5939 I0 J0.9137
G3 X57.8756 Y39.7918 I-0.3502 J0.8426
G0 Z2
G0 X57.8751 Y39.7911
G1 Z-4.1 F200
G3 X58.0736 Y40.0862 I-0.6446 J0.6446 F400
G3 X58.1421 Y40.4365 I-0.8426 J0.3502
G3 X58.0736 Y40.7868 I-0.9137 J0
G3 X57.8756 Y41.0812 I-0.8426 J-0.3502
G3 X57.5786 Y41.2791 I-0.6446 J-0.6446
G3 X57.2309 Y41.3477 I-0.3502 J-0.8426
G3 X56.8807 Y41.2791 I0 J-0.9137
G3 X56.5837 Y41.0812 I0.3502 J-0.8426
G3 X56.3857 Y40.7868 I0.6446 J-0.6446
G3 X56.3172 Y40.4365 I0.8426 J-0.3502
G3 X56.3857 Y40.0862 I0.9137 J0
G3 X56.5837 Y39.7918 I0.8426 J0.3502
G3 X56.8807 Y39.5939 I0.6446 J0.6446
G3 X57.2309 Y39.5228 I0.3502 J0.8426
G3 X57.5786 Y39.5939 I0 J0.9137
G3 X57.8756 Y39.7918 I-0.3502 J0.8426
G0 Z2
G0 X57.8751 Y39.7911
G1 Z-4.2 F200
G3 X58.0736 Y40.0862 I-0.6446 J0.6446 F400
G3 X58.1421 Y40.4365 I-0.8426 J0.3502
G3 X58.0736 Y40.7868 I-0.9137 J0
G3 X57.8756 Y41.0812 I-0.8426 J-0.3502
G3 X57.5786 Y41.2791 I-0.6446 J-0.6446
G3 X57.2309 Y41.3477 I-0.3502 J-0.8426
G3 X56.8807 Y41.2791 I0 J-0.9137
G3 X56.5837 Y41.0812 I0.3502 J-0.8426
G3 X56.3857 Y40.7868 I0.6446 J-0.6446
G3 X56.3172 Y40.4365 I0.8426 J-0.3502
G3 X56.3857 Y40.0862 I0.9137 J0
G3 X56.5837 Y39.7918 I0.8426 J0.3502
G3 X56.8807 Y39.5939 I0.6446 J0.6446
G3 X57.2309 Y39.5228 I0.3502 J0.8426
G3 X57.5786 Y39.5939 I0 J0.9137
G3 X57.8756 Y39.7918 I-0.3502 J0.8426
G0 Z2
G0 X57.8751 Y39.7911
G1 Z-4.3 F200
G3 X58.0736 Y40.0862 I-0.6446 J0.6446 F400
G3 X58.1421 Y40.4365 I-0.8426 J0.3502
G3 X58.0736 Y40.7868 I-0.9137 J0
G3 X57.8756 Y41.0812 I-0.8426 J-0.3502
G3 X57.5786 Y41.2791 I-0.6446 J-0.6446
G3 X57.2309 Y41.3477 I-0.3502 J-0.8426
G3 X56.8807 Y41.2791 I0 J-0.9137
G3 X56.5837 Y41.0812 I0.3502 J-0.8426
G3 X56.3857 Y40.7868 I0.6446 J-0.6446
G3 X56.3172 Y40.4365 I0.8426 J-0.3502
G3 X56.3857 Y40.0862 I0.9137 J0
G3 X56.5837 Y39.7918 I0.8426 J0.3502
G3 X56.8807 Y39.5939 I0.6446 J0.6446
G3 X57.2309 Y39.5228 I0.3502 J0.8426
G3 X57.5786 Y39.5939 I0 J0.9137
G3 X57.8756 Y39.7918 I-0.3502 J0.8426
G0 Z2
G0 X57.8751 Y39.7911
G1 Z-4.4 F200
G3 X58.0736 Y40.0862 I-0.6446 J0.6446 F400
G3 X58.1421 Y40.4365 I-0.8426 J0.3502
G3 X58.0736 Y40.7868 I-0.9137 J0
G3 X57.8756 Y41.0812 I-0.8426 J-0.3502
G3 X57.5786 Y41.2791 I-0.6446 J-0.6446
G3 X57.2309 Y41.3477 I-0.3502 J-0.8426
G3 X56.8807 Y41.2791 I0 J-0.9137
G3 X56.5837 Y41.0812 I0.3502 J-0.8426
G3 X56.3857 Y40.7868 I0.6446 J-0.6446
G3 X56.3172 Y40.4365 I0.8426 J-0.3502
G3 X56.3857 Y40.0862 I0.9137 J0
G3 X56.5837 Y39.7918 I0.8426 J0.3502
G3 X56.8807 Y39.5939 I0.6446 J0.6446
G3 X57.2309 Y39.5228 I0.3502 J0.8426
G3 X57.5786 Y39.5939 I0 J0.9137
G3 X57.8756 Y39.7918 I-0.3502 J0.8426
G0 Z2
G0 X57.8751 Y39.7911
G1 Z-4.5 F200
G3 X58.0736 Y40.0862 I-0.6446 J0.6446 F400
G3 X58.1421 Y40.4365 I-0.8426 J0.3502
G3 X58.0736 Y40.7868 I-0.9137 J0
G3 X57.8756 Y41.0812 I-0.8426 J-0.3502
G3 X57.5786 Y41.2791 I-0.6446 J-0.6446
G3 X57.2309 Y41.3477 I-0.3502 J-0.8426
G3 X56.8807 Y41.2791 I0 J-0.9137
G3 X56.5837 Y41.0812 I0.3502 J-0.8426
G3 X56.3857 Y40.7868 I0.6446 J-0.6446
G3 X56.3172 Y40.4365 I0.8426 J-0.3502
G3 X56.3857 Y40.0862 I0.9137 J0
G3 X56.5837 Y39.7918 I0.8426 J0.3502
G3 X56.8807 Y39.5939 I0.6446 J0.6446
G3 X57.2309 Y39.5228 I0.3502 J0.8426
G3 X57.5786 Y39.5939 I0 J0.9137
G3 X57.8756 Y39.7918 I-0.3502 J0.8426
G0 Z2
G0 X57.8751 Y39.7911
G1 Z-4.6 F200
G3 X58.0736 Y40.0862 I-0.6446 J0.6446 F400
G3 X58.1421 Y40.4365 I-0.8426 J0.3502
G3 X58.0736 Y40.7868 I-0.9137 J0
G3 X57.8756 Y41.0812 I-0.8426 J-0.3502
G3 X57.5786 Y41.2791 I-0.6446 J-0.6446
G3 X57.2309 Y41.3477 I-0.3502 J-0.8426
G3 X56.8807 Y41.2791 I0 J-0.9137
G3 X56.5837 Y41.0812 I0.3502 J-0.8426
G3 X56.3857 Y40.7868 I0.6446 J-0.6446
G3 X56.3172 Y40.4365 I0.8426 J-0.3502
G3 X56.3857 Y40.0862 I0.9137 J0
G3 X56.5837 Y39.7918 I0.8426 J0.3502
G3 X56.8807 Y39.5939 I0.6446 J0.6446
G3 X57.2309 Y39.5228 I0.3502 J0.8426
G3 X57.5786 Y39.5939 I0 J0.9137
G3 X57.8756 Y39.7918 I-0.3502 J0.8426
G0 Z2
G0 X57.8751 Y39.7911
G1 Z-4.7 F200
G3 X58.0736 Y40.0862 I-0.6446 J0.6446 F400
G3 X58.1421 Y40.4365 I-0.8426 J0.3502
G3 X58.0736 Y40.7868 I-0.9137 J0
G3 X57.8756 Y41.0812 I-0.8426 J-0.3502
G3 X57.5786 Y41.2791 I-0.6446 J-0.6446
G3 X57.2309 Y41.3477 I-0.3502 J-0.8426
G3 X56.8807 Y41.2791 I0 J-0.9137
G3 X56.5837 Y41.0812 I0.3502 J-0.8426
G3 X56.3857 Y40.7868 I0.6446 J-0.6446
G3 X56.3172 Y40.4365 I0.8426 J-0.3502
G3 X56.3857 Y40.0862 I0.9137 J0
G3 X56.5837 Y39.7918 I0.8426 J0.3502
G3 X56.8807 Y39.5939 I0.6446 J0.6446
G3 X57.2309 Y39.5228 I0.3502 J0.8426
G3 X57.5786 Y39.5939 I0 J0.9137
G3 X57.8756 Y39.7918 I-0.3502 J0.8426
G0 Z2
G0 X57.8751 Y39.7911
G1 Z-4.8 F200
G3 X58.0736 Y40.0862 I-0.6446 J0.6446 F400
G3 X58.1421 Y40.4365 I-0.8426 J0.3502
G3 X58.0736 Y40.7868 I-0.9137 J0
G3 X57.8756 Y41.0812 I-0.8426 J-0.3502
G3 X57.5786 Y41.2791 I-0.6446 J-0.6446
G3 X57.2309 Y41.3477 I-0.3502 J-0.8426
G3 X56.8807 Y41.2791 I0 J-0.9137
G3 X56.5837 Y41.0812 I0.3502 J-0.8426
G3 X56.3857 Y40.7868 I0.6446 J-0.6446
G3 X56.3172 Y40.4365 I0.8426 J-0.3502
G3 X56.3857 Y40.0862 I0.9137 J0
G3 X56.5837 Y39.7918 I0.8426 J0.3502
G3 X56.8807 Y39.5939 I0.6446 J0.6446
G3 X57.2309 Y39.5228 I0.3502 J0.8426
G3 X57.5786 Y39.5939 I0 J0.9137
G3 X57.8756 Y39.7918 I-0.3502 J0.8426
G0 Z2
G0 X57.8751 Y39.7911
G1 Z-4.9 F200
G3 X58.0736 Y40.0862 I-0.6446 J0.6446 F400
G3 X58.1421 Y40.4365 I-0.8426 J0.3502
G3 X58.0736 Y40.7868 I-0.9137 J0
G3 X57.8756 Y41.0812 I-0.8426 J-0.3502
G3 X57.5786 Y41.2791 I-0.6446 J-0.6446
G3 X57.2309 Y41.3477 I-0.3502 J-0.8426
G3 X56.8807 Y41.2791 I0 J-0.9137
G3 X56.5837 Y41.0812 I0.3502 J-0.8426
G3 X56.3857 Y40.7868 I0.6446 J-0.6446
G3 X56.3172 Y40.4365 I0.8426 J-0.3502
G3 X56.3857 Y40.0862 I0.9137 J0
G3 X56.5837 Y39.7918 I0.8426 J0.3502
G3 X56.8807 Y39.5939 I0.6446 J0.6446
G3 X57.2309 Y39.5228 I0.3502 J0.8426
G3 X57.5786 Y39.5939 I0 J0.9137
G3 X57.8756 Y39.7918 I-0.3502 J0.8426
G0 Z2
G0 X57.8751 Y39.7911
G1 Z-5 F200
G3 X58.0736 Y40.0862 I-0.6446 J0.6446 F400
G3 X58.1421 Y40.4365 I-0.8426 J0.3502
G3 X58.0736 Y40.7868 I-0.9137 J0
G3 X57.8756 Y41.0812 I-0.8426 J-0.3502
G3 X57.5786 Y41.2791 I-0.6446 J-0.6446
G3 X57.2309 Y41.3477 I-0.3502 J-0.8426
G3 X56.8807 Y41.2791 I0 J-0.9137
G3 X56.5837 Y41.0812 I0.3502 J-0.8426
G3 X56.3857 Y40.7868 I0.6446 J-0.6446
G3 X56.3172 Y40.4365 I0.8426 J-0.3502
G3 X56.3857 Y40.0862 I0.9137 J0
G3 X56.5837 Y39.7918 I0.8426 J0.3502
G3 X56.8807 Y39.5939 I0.6446 J0.6446
G3 X57.2309 Y39.5228 I0.3502 J0.8426
G3 X57.5786 Y39.5939 I0 J0.9137
G3 X57.8756 Y39.7918 I-0.3502 J0.8426
G0 Z2
G0 X57.8751 Y39.7911
G1 Z-5.1 F200
G3 X58.0736 Y40.0862 I-0.6446 J0.6446 F400
G3 X58.1421 Y40.4365 I-0.8426 J0.3502
G3 X58.0736 Y40.7868 I-0.9137 J0
G3 X57.8756 Y41.0812 I-0.8426 J-0.3502
G3 X57.5786 Y41.2791 I-0.6446 J-0.6446
G3 X57.2309 Y41.3477 I-0.3502 J-0.8426
G3 X56.8807 Y41.2791 I0 J-0.9137
G3 X56.5837 Y41.0812 I0.3502 J-0.8426
G3 X56.3857 Y40.7868 I0.6446 J-0.6446
G3 X56.3172 Y40.4365 I0.8426 J-0.3502
G3 X56.3857 Y40.0862 I0.9137 J0
G3 X56.5837 Y39.7918 I0.8426 J0.3502
G3 X56.8807 Y39.5939 I0.6446 J0.6446
G3 X57.2309 Y39.5228 I0.3502 J0.8426
G3 X57.5786 Y39.5939 I0 J0.9137
G3 X57.8756 Y39.7918 I-0.3502 J0.8426
G0 Z2
G0 X57.8751 Y39.7911
G1 Z-5.2 F200
G3 X58.0736 Y40.0862 I-0.6446 J0.6446 F400
G3 X58.1421 Y40.4365 I-0.8426 J0.3502
G3 X58.0736 Y40.7868 I-0.9137 J0
G3 X57.8756 Y41.0812 I-0.8426 J-0.3502
G3 X57.5786 Y41.2791 I-0.6446 J-0.6446
G3 X57.2309 Y41.3477 I-0.3502 J-0.8426
G3 X56.8807 Y41.2791 I0 J-0.9137
G3 X56.5837 Y41.0812 I0.3502 J-0.8426
G3 X56.3857 Y40.7868 I0.6446 J-0.6446
G3 X56.3172 Y40.4365 I0.8426 J-0.3502
G3 X56.3857 Y40.0862 I0.9137 J0
G3 X56.5837 Y39.7918 I0.8426 J0.3502
G3 X56.8807 Y39.5939 I0.6446 J0.6446
G3 X57.2309 Y39.5228 I0.3502 J0.8426
G3 X57.5786 Y39.5939 I0 J0.9137
G3 X57.8756 Y39.7918 I-0.3502 J0.8426
G0 Z2
G0 X57.8751 Y39.7911
G1 Z-5.3 F200
G3 X58.0736 Y40.0862 I-0.6446 J0.6446 F400
G3 X58.1421 Y40.4365 I-0.8426 J0.3502
G3 X58.0736 Y40.7868 I-0.9137 J0
G3 X57.8756 Y41.0812 I-0.8426 J-0.3502
G3 X57.5786 Y41.2791 I-0.6446 J-0.6446
G3 X57.2309 Y41.3477 I-0.3502 J-0.8426
G3 X56.8807 Y41.2791 I0 J-0.9137
G3 X56.5837 Y41.0812 I0.3502 J-0.8426
G3 X56.3857 Y40.7868 I0.6446 J-0.6446
G3 X56.3172 Y40.4365 I0.8426 J-0.3502
G3 X56.3857 Y40.0862 I0.9137 J0
G3 X56.5837 Y39.7918 I0.8426 J0.3502
G3 X56.8807 Y39.5939 I0.6446 J0.6446
G3 X57.2309 Y39.5228 I0.3502 J0.8426
G3 X57.5786 Y39.5939 I0 J0.9137
G3 X57.8756 Y39.7918 I-0.3502 J0.8426
G0 Z2
G0 X57.8751 Y39.7911
G1 Z-5.4 F200
G3 X58.0736 Y40.0862 I-0.6446 J0.6446 F400
G3 X58.1421 Y40.4365 I-0.8426 J0.3502
G3 X58.0736 Y40.7868 I-0.9137 J0
G3 X57.8756 Y41.0812 I-0.8426 J-0.3502
G3 X57.5786 Y41.2791 I-0.6446 J-0.6446
G3 X57.2309 Y41.3477 I-0.3502 J-0.8426
G3 X56.8807 Y41.2791 I0 J-0.9137
G3 X56.5837 Y41.0812 I0.3502 J-0.8426
G3 X56.3857 Y40.7868 I0.6446 J-0.6446
G3 X56.3172 Y40.4365 I0.8426 J-0.3502
G3 X56.3857 Y40.0862 I0.9137 J0
G3 X56.5837 Y39.7918 I0.8426 J0.3502
G3 X56.8807 Y39.5939 I0.6446 J0.6446
G3 X57.2309 Y39.5228 I0.3502 J0.8426
G3 X57.5786 Y39.5939 I0 J0.9137
G3 X57.8756 Y39.7918 I-0.3502 J0.8426
G0 Z2
G0 X57.8751 Y39.7911
G1 Z-5.5 F200
G3 X58.0736 Y40.0862 I-0.6446 J0.6446 F400
G3 X58.1421 Y40.4365 I-0.8426 J0.3502
G3 X58.0736 Y40.7868 I-0.9137 J0
G3 X57.8756 Y41.0812 I-0.8426 J-0.3502
G3 X57.5786 Y41.2791 I-0.6446 J-0.6446
G3 X57.2309 Y41.3477 I-0.3502 J-0.8426
G3 X56.8807 Y41.2791 I0 J-0.9137
G3 X56.5837 Y41.0812 I0.3502 J-0.8426
G3 X56.3857 Y40.7868 I0.6446 J-0.6446
G3 X56.3172 Y40.4365 I0.8426 J-0.3502
G3 X56.3857 Y40.0862 I0.9137 J0
G3 X56.5837 Y39.7918 I0.8426 J0.3502
G3 X56.8807 Y39.5939 I0.6446 J0.6446
G3 X57.2309 Y39.5228 I0.3502 J0.8426
G3 X57.5786 Y39.5939 I0 J0.9137
G3 X57.8756 Y39.7918 I-0.3502 J0.8426
G0 Z2
G0 X57.8751 Y39.7911
G1 Z-5.6 F200
G3 X58.0736 Y40.0862 I-0.6446 J0.6446 F400
G3 X58.1421 Y40.4365 I-0.8426 J0.3502
G3 X58.0736 Y40.7868 I-0.9137 J0
G3 X57.8756 Y41.0812 I-0.8426 J-0.3502
G3 X57.5786 Y41.2791 I-0.6446 J-0.6446
G3 X57.2309 Y41.3477 I-0.3502 J-0.8426
G3 X56.8807 Y41.2791 I0 J-0.9137
G3 X56.5837 Y41.0812 I0.3502 J-0.8426
G3 X56.3857 Y40.7868 I0.6446 J-0.6446
G3 X56.3172 Y40.4365 I0.8426 J-0.3502
G3 X56.3857 Y40.0862 I0.9137 J0
G3 X56.5837 Y39.7918 I0.8426 J0.3502
G3 X56.8807 Y39.5939 I0.6446 J0.6446
G3 X57.2309 Y39.5228 I0.3502 J0.8426
G3 X57.5786 Y39.5939 I0 J0.9137
G3 X57.8756 Y39.7918 I-0.3502 J0.8426
G0 Z2
G0 X57.8751 Y39.7911
G1 Z-5.7 F200
G3 X58.0736 Y40.0862 I-0.6446 J0.6446 F400
G3 X58.1421 Y40.4365 I-0.8426 J0.3502
G3 X58.0736 Y40.7868 I-0.9137 J0
G3 X57.8756 Y41.0812 I-0.8426 J-0.3502
G3 X57.5786 Y41.2791 I-0.6446 J-0.6446
G3 X57.2309 Y41.3477 I-0.3502 J-0.8426
G3 X56.8807 Y41.2791 I0 J-0.9137
G3 X56.5837 Y41.0812 I0.3502 J-0.8426
G3 X56.3857 Y40.7868 I0.6446 J-0.6446
G3 X56.3172 Y40.4365 I0.8426 J-0.3502
G3 X56.3857 Y40.0862 I0.9137 J0
G3 X56.5837 Y39.7918 I0.8426 J0.3502
G3 X56.8807 Y39.5939 I0.6446 J0.6446
G3 X57.2309 Y39.5228 I0.3502 J0.8426
G3 X57.5786 Y39.5939 I0 J0.9137
G3 X57.8756 Y39.7918 I-0.3502 J0.8426
G0 Z2
G0 X57.8751 Y39.7911
G1 Z-5.8 F200
G3 X58.0736 Y40.0862 I-0.6446 J0.6446 F400
G3 X58.1421 Y40.4365 I-0.8426 J0.3502
G3 X58.0736 Y40.7868 I-0.9137 J0
G3 X57.8756 Y41.0812 I-0.8426 J-0.3502
G3 X57.5786 Y41.2791 I-0.6446 J-0.6446
G3 X57.2309 Y41.3477 I-0.3502 J-0.8426
G3 X56.8807 Y41.2791 I0 J-0.9137
G3 X56.5837 Y41.0812 I0.3502 J-0.8426
G3 X56.3857 Y40.7868 I0.6446 J-0.6446
G3 X56.3172 Y40.4365 I0.8426 J-0.3502
G3 X56.3857 Y40.0862 I0.9137 J0
G3 X56.5837 Y39.7918 I0.8426 J0.3502
G3 X56.8807 Y39.5939 I0.6446 J0.6446
G3 X57.2309 Y39.5228 I0.3502 J0.8426
G3 X57.5786 Y39.5939 I0 J0.9137
G3 X57.8756 Y39.7918 I-0.3502 J0.8426
G0 Z2
G0 X57.8751 Y39.7911
G1 Z-5.9 F200
G3 X58.0736 Y40.0862 I-0.6446 J0.6446 F400
G3 X58.1421 Y40.4365 I-0.8426 J0.3502
G3 X58.0736 Y40.7868 I-0.9137 J0
G3 X57.8756 Y41.0812 I-0.8426 J-0.3502
G3 X57.5786 Y41.2791 I-0.6446 J-0.6446
G3 X57.2309 Y41.3477 I-0.3502 J-0.8426
G3 X56.8807 Y41.2791 I0 J-0.9137
G3 X56.5837 Y41.0812 I0.3502 J-0.8426
G3 X56.3857 Y40.7868 I0.6446 J-0.6446
G3 X56.3172 Y40.4365 I0.8426 J-0.3502
G3 X56.3857 Y40.0862 I0.9137 J0
G3 X56.5837 Y39.7918 I0.8426 J0.3502
G3 X56.8807 Y39.5939 I0.6446 J0.6446
G3 X57.2309 Y39.5228 I0.3502 J0.8426
G3 X57.5786 Y39.5939 I0 J0.9137
G3 X57.8756 Y39.7918 I-0.3502 J0.8426
G0 Z2
G0 X57.8751 Y39.7911
G1 Z-6 F200
G3 X58.0736 Y40.0862 I-0.6446 J0.6446 F400
G3 X58.1421 Y40.4365 I-0.8426 J0.3502
G3 X58.0736 Y40.7868 I-0.9137 J0
G3 X57.8756 Y41.0812 I-0.8426 J-0.3502
G3 X57.5786 Y41.2791 I-0.6446 J-0.6446
G3 X57.2309 Y41.3477 I-0.3502 J-0.8426
G3 X56.8807 Y41.2791 I0 J-0.9137
G3 X56.5837 Y41.0812 I0.3502 J-0.8426
G3 X56.3857 Y40.7868 I0.6446 J-0.6446
G3 X56.3172 Y40.4365 I0.8426 J-0.3502
G3 X56.3857 Y40.0862 I0.9137 J0
G3 X56.5837 Y39.7918 I0.8426 J0.3502
G3 X56.8807 Y39.5939 I0.6446 J0.6446
G3 X57.2309 Y39.5228 I0.3502 J0.8426
G3 X57.5786 Y39.5939 I0 J0.9137
G3 X57.8756 Y39.7918 I-0.3502 J0.8426
G0 Z2
G0 X57.8751 Y39.7911
G1 Z-6.1 F200
G3 X58.0736 Y40.0862 I-0.6446 J0.6446 F400
G3 X58.1421 Y40.4365 I-0.8426 J0.3502
G3 X58.0736 Y40.7868 I-0.9137 J0
G3 X57.8756 Y41.0812 I-0.8426 J-0.3502
G3 X57.5786 Y41.2791 I-0.6446 J-0.6446
G3 X57.2309 Y41.3477 I-0.3502 J-0.8426
G3 X56.8807 Y41.2791 I0 J-0.9137
G3 X56.5837 Y41.0812 I0.3502 J-0.8426
G3 X56.3857 Y40.7868 I0.6446 J-0.6446
G3 X56.3172 Y40.4365 I0.8426 J-0.3502
G3 X56.3857 Y40.0862 I0.9137 J0
G3 X56.5837 Y39.7918 I0.8426 J0.3502
G3 X56.8807 Y39.5939 I0.6446 J0.6446
G3 X57.2309 Y39.5228 I0.3502 J0.8426
G3 X57.5786 Y39.5939 I0 J0.9137
G3 X57.8756 Y39.7918 I-0.3502 J0.8426
G0 Z2
G0 X57.8751 Y39.7911
G1 Z-6.2 F200
G3 X58.0736 Y40.0862 I-0.6446 J0.6446 F400
G3 X58.1421 Y40.4365 I-0.8426 J0.3502
G3 X58.0736 Y40.7868 I-0.9137 J0
G3 X57.8756 Y41.0812 I-0.8426 J-0.3502
G3 X57.5786 Y41.2791 I-0.6446 J-0.6446
G3 X57.2309 Y41.3477 I-0.3502 J-0.8426
G3 X56.8807 Y41.2791 I0 J-0.9137
G3 X56.5837 Y41.0812 I0.3502 J-0.8426
G3 X56.3857 Y40.7868 I0.6446 J-0.6446
G3 X56.3172 Y40.4365 I0.8426 J-0.3502
G3 X56.3857 Y40.0862 I0.9137 J0
G3 X56.5837 Y39.7918 I0.8426 J0.3502
G3 X56.8807 Y39.5939 I0.6446 J0.6446
G3 X57.2309 Y39.5228 I0.3502 J0.8426
G3 X57.5786 Y39.5939 I0 J0.9137
G3 X57.8756 Y39.7918 I-0.3502 J0.8426
G0 Z2
G0 X57.8751 Y39.7911
G1 Z-6.3 F200
G3 X58.0736 Y40.0862 I-0.6446 J0.6446 F400
G3 X58.1421 Y40.4365 I-0.8426 J0.3502
G3 X58.0736 Y40.7868 I-0.9137 J0
G3 X57.8756 Y41.0812 I-0.8426 J-0.3502
G3 X57.5786 Y41.2791 I-0.6446 J-0.6446
G3 X57.2309 Y41.3477 I-0.3502 J-0.8426
G3 X56.8807 Y41.2791 I0 J-0.9137
G3 X56.5837 Y41.0812 I0.3502 J-0.8426
G3 X56.3857 Y40.7868 I0.6446 J-0.6446
G3 X56.3172 Y40.4365 I0.8426 J-0.3502
G3 X56.3857 Y40.0862 I0.9137 J0
G3 X56.5837 Y39.7918 I0.8426 J0.3502
G3 X56.8807 Y39.5939 I0.6446 J0.6446
G3 X57.2309 Y39.5228 I0.3502 J0.8426
G3 X57.5786 Y39.5939 I0 J0.9137
G3 X57.8756 Y39.7918 I-0.3502 J0.8426
G0 Z2
G0 X57.8751 Y39.7911
G1 Z-6.4 F200
G3 X58.0736 Y40.0862 I-0.6446 J0.6446 F400
G3 X58.1421 Y40.4365 I-0.8426 J0.3502
G3 X58.0736 Y40.7868 I-0.9137 J0
G3 X57.8756 Y41.0812 I-0.8426 J-0.3502
G3 X57.5786 Y41.2791 I-0.6446 J-0.6446
G3 X57.2309 Y41.3477 I-0.3502 J-0.8426
G3 X56.8807 Y41.2791 I0 J-0.9137
G3 X56.5837 Y41.0812 I0.3502 J-0.8426
G3 X56.3857 Y40.7868 I0.6446 J-0.6446
G3 X56.3172 Y40.4365 I0.8426 J-0.3502
G3 X56.3857 Y40.0862 I0.9137 J0
G3 X56.5837 Y39.7918 I0.8426 J0.3502
G3 X56.8807 Y39.5939 I0.6446 J0.6446
G3 X57.2309 Y39.5228 I0.3502 J0.8426
G3 X57.5786 Y39.5939 I0 J0.9137
G3 X57.8756 Y39.7918 I-0.3502 J0.8426
G0 Z2
G0 X57.8751 Y39.7911
G1 Z-6.5 F200
G3 X58.0736 Y40.0862 I-0.6446 J0.6446 F400
G3 X58.1421 Y40.4365 I-0.8426 J0.3502
G3 X58.0736 Y40.7868 I-0.9137 J0
G3 X57.8756 Y41.0812 I-0.8426 J-0.3502
G3 X57.5786 Y41.2791 I-0.6446 J-0.6446
G3 X57.2309 Y41.3477 I-0.3502 J-0.8426
G3 X56.8807 Y41.2791 I0 J-0.9137
G3 X56.5837 Y41.0812 I0.3502 J-0.8426
G3 X56.3857 Y40.7868 I0.6446 J-0.6446
G3 X56.3172 Y40.4365 I0.8426 J-0.3502
G3 X56.3857 Y40.0862 I0.9137 J0
G3 X56.5837 Y39.7918 I0.8426 J0.3502
G3 X56.8807 Y39.5939 I0.6446 J0.6446
G3 X57.2309 Y39.5228 I0.3502 J0.8426
G3 X57.5786 Y39.5939 I0 J0.9137
G3 X57.8756 Y39.7918 I-0.3502 J0.8426
G0 Z2
G0 X57.8751 Y39.7911
G1 Z-6.6 F200
G3 X58.0736 Y40.0862 I-0.6446 J0.6446 F400
G3 X58.1421 Y40.4365 I-0.8426 J0.3502
G3 X58.0736 Y40.7868 I-0.9137 J0
G3 X57.8756 Y41.0812 I-0.8426 J-0.3502
G3 X57.5786 Y41.2791 I-0.6446 J-0.6446
G3 X57.2309 Y41.3477 I-0.3502 J-0.8426
G3 X56.8807 Y41.2791 I0 J-0.9137
G3 X56.5837 Y41.0812 I0.3502 J-0.8426
G3 X56.3857 Y40.7868 I0.6446 J-0.6446
G3 X56.3172 Y40.4365 I0.8426 J-0.3502
G3 X56.3857 Y40.0862 I0.9137 J0
G3 X56.5837 Y39.7918 I0.8426 J0.3502
G3 X56.8807 Y39.5939 I0.6446 J0.6446
G3 X57.2309 Y39.5228 I0.3502 J0.8426
G3 X57.5786 Y39.5939 I0 J0.9137
G3 X57.8756 Y39.7918 I-0.3502 J0.8426
G0 Z2
G0 X57.8751 Y39.7911
G1 Z-6.7 F200
G3 X58.0736 Y40.0862 I-0.6446 J0.6446 F400
G3 X58.1421 Y40.4365 I-0.8426 J0.3502
G3 X58.0736 Y40.7868 I-0.9137 J0
G3 X57.8756 Y41.0812 I-0.8426 J-0.3502
G3 X57.5786 Y41.2791 I-0.6446 J-0.6446
