(Generated by PartKam Version 0.05)

G21 G90 G40

(drill 1)
G0 Z2
T0 M6
G17
M3
G0 X55.8685 Y18.1502
G1 Z-0.1 F200
G1 Z0 F200
G1 Z-0.2 F200
G1 Z0 F200
G1 Z-0.3 F200
G1 Z0 F200
G1 Z-0.4 F200
G1 Z0 F200
G1 Z-0.5 F200
G1 Z0 F200
G1 Z-0.6 F200
G1 Z0 F200
G1 Z-0.7 F200
G1 Z0 F200
G1 Z-0.8 F200
G1 Z0 F200
G1 Z-0.9 F200
G1 Z0 F200
G1 Z-1 F200
G1 Z0 F200
G1 Z-1.1 F200
G1 Z0 F200
G1 Z-1.2 F200
G1 Z0 F200
G1 Z-1.3 F200
G1 Z0 F200
G1 Z-1.4 F200
G1 Z0 F200
G1 Z-1.5 F200
G1 Z0 F200
G1 Z-1.6 F200
G1 Z0 F200
G1 Z-1.7 F200
G1 Z0 F200
G1 Z-1.8 F200
G1 Z0 F200
G1 Z-1.9 F200
G1 Z0 F200
G1 Z-2 F200
G1 Z0 F200
G1 Z-2.1 F200
G1 Z0 F200
G1 Z-2.2 F200
G1 Z0 F200
G1 Z-2.3 F200
G1 Z0 F200
G1 Z-2.4 F200
G1 Z0 F200
G1 Z-2.5 F200
G1 Z0 F200
G1 Z-2.6 F200
G1 Z0 F200
G1 Z-2.7 F200
G1 Z0 F200
G1 Z-2.8 F200
G1 Z0 F200
G1 Z-2.9 F200
G1 Z0 F200
G1 Z-3 F200
G1 Z0 F200
G0 Z2
G0 X55.8685 Y162.1502
G1 Z-0.1 F200
G1 Z0 F200
G1 Z-0.2 F200
G1 Z0 F200
G1 Z-0.3 F200
G1 Z0 F200
G1 Z-0.4 F200
G1 Z0 F200
G1 Z-0.5 F200
G1 Z0 F200
G1 Z-0.6 F200
G1 Z0 F200
G1 Z-0.7 F200
G1 Z0 F200
G1 Z-0.8 F200
G1 Z0 F200
G1 Z-0.9 F200
G1 Z0 F200
G1 Z-1 F200
G1 Z0 F200
G1 Z-1.1 F200
G1 Z0 F200
G1 Z-1.2 F200
G1 Z0 F200
G1 Z-1.3 F200
G1 Z0 F200
G1 Z-1.4 F200
G1 Z0 F200
G1 Z-1.5 F200
G1 Z0 F200
G1 Z-1.6 F200
G1 Z0 F200
G1 Z-1.7 F200
G1 Z0 F200
G1 Z-1.8 F200
G1 Z0 F200
G1 Z-1.9 F200
G1 Z0 F200
G1 Z-2 F200
G1 Z0 F200
G1 Z-2.1 F200
G1 Z0 F200
G1 Z-2.2 F200
G1 Z0 F200
G1 Z-2.3 F200
G1 Z0 F200
G1 Z-2.4 F200
G1 Z0 F200
G1 Z-2.5 F200
G1 Z0 F200
G1 Z-2.6 F200
G1 Z0 F200
G1 Z-2.7 F200
G1 Z0 F200
G1 Z-2.8 F200
G1 Z0 F200
G1 Z-2.9 F200
G1 Z0 F200
G1 Z-3 F200
G1 Z0 F200
G0 Z2
G0 X23.8685 Y162.1502
G1 Z-0.1 F200
G1 Z0 F200
G1 Z-0.2 F200
G1 Z0 F200
G1 Z-0.3 F200
G1 Z0 F200
G1 Z-0.4 F200
G1 Z0 F200
G1 Z-0.5 F200
G1 Z0 F200
G1 Z-0.6 F200
G1 Z0 F200
G1 Z-0.7 F200
G1 Z0 F200
G1 Z-0.8 F200
G1 Z0 F200
G1 Z-0.9 F200
G1 Z0 F200
G1 Z-1 F200
G1 Z0 F200
G1 Z-1.1 F200
G1 Z0 F200
G1 Z-1.2 F200
G1 Z0 F200
G1 Z-1.3 F200
G1 Z0 F200
G1 Z-1.4 F200
G1 Z0 F200
G1 Z-1.5 F200
G1 Z0 F200
G1 Z-1.6 F200
G1 Z0 F200
G1 Z-1.7 F200
G1 Z0 F200
G1 Z-1.8 F200
G1 Z0 F200
G1 Z-1.9 F200
G1 Z0 F200
G1 Z-2 F200
G1 Z0 F200
G1 Z-2.1 F200
G1 Z0 F200
G1 Z-2.2 F200
G1 Z0 F200
G1 Z-2.3 F200
G1 Z0 F200
G1 Z-2.4 F200
G1 Z0 F200
G1 Z-2.5 F200
G1 Z0 F200
G1 Z-2.6 F200
G1 Z0 F200
G1 Z-2.7 F200
G1 Z0 F200
G1 Z-2.8 F200
G1 Z0 F200
G1 Z-2.9 F200
G1 Z0 F200
G1 Z-3 F200
G1 Z0 F200
G0 Z2
G0 X23.8685 Y18.1502
G1 Z-0.1 F200
G1 Z0 F200
G1 Z-0.2 F200
G1 Z0 F200
G1 Z-0.3 F200
G1 Z0 F200
G1 Z-0.4 F200
G1 Z0 F200
G1 Z-0.5 F200
G1 Z0 F200
G1 Z-0.6 F200
G1 Z0 F200
G1 Z-0.7 F200
G1 Z0 F200
G1 Z-0.8 F200
G1 Z0 F200
G1 Z-0.9 F200
G1 Z0 F200
G1 Z-1 F200
G1 Z0 F200
G1 Z-1.1 F200
G1 Z0 F200
G1 Z-1.2 F200
G1 Z0 F200
G1 Z-1.3 F200
G1 Z0 F200
G1 Z-1.4 F200
G1 Z0 F200
G1 Z-1.5 F200
G1 Z0 F200
G1 Z-1.6 F200
G1 Z0 F200
G1 Z-1.7 F200
G1 Z0 F200
G1 Z-1.8 F200
G1 Z0 F200
G1 Z-1.9 F200
G1 Z0 F200
G1 Z-2 F200
G1 Z0 F200
G1 Z-2.1 F200
G1 Z0 F200
G1 Z-2.2 F200
G1 Z0 F200
G1 Z-2.3 F200
G1 Z0 F200
G1 Z-2.4 F200
G1 Z0 F200
G1 Z-2.5 F200
G1 Z0 F200
G1 Z-2.6 F200
G1 Z0 F200
G1 Z-2.7 F200
G1 Z0 F200
G1 Z-2.8 F200
G1 Z0 F200
G1 Z-2.9 F200
G1 Z0 F200
G1 Z-3 F200
G1 Z0 F200
G0 Z2
G0 X22.7685 Y55.6502
G1 Z-0.1 F200
G1 Z0 F200
G1 Z-0.2 F200
G1 Z0 F200
G1 Z-0.3 F200
G1 Z0 F200
G1 Z-0.4 F200
G1 Z0 F200
G1 Z-0.5 F200
G1 Z0 F200
G1 Z-0.6 F200
G1 Z0 F200
G1 Z-0.7 F200
G1 Z0 F200
G1 Z-0.8 F200
G1 Z0 F200
G1 Z-0.9 F200
G1 Z0 F200
G1 Z-1 F200
G1 Z0 F200
G1 Z-1.1 F200
G1 Z0 F200
G1 Z-1.2 F200
G1 Z0 F200
G1 Z-1.3 F200
G1 Z0 F200
G1 Z-1.4 F200
G1 Z0 F200
G1 Z-1.5 F200
G1 Z0 F200
G1 Z-1.6 F200
G1 Z0 F200
G1 Z-1.7 F200
G1 Z0 F200
G1 Z-1.8 F200
G1 Z0 F200
G1 Z-1.9 F200
G1 Z0 F200
G1 Z-2 F200
G1 Z0 F200
G1 Z-2.1 F200
G1 Z0 F200
G1 Z-2.2 F200
G1 Z0 F200
G1 Z-2.3 F200
G1 Z0 F200
G1 Z-2.4 F200
G1 Z0 F200
G1 Z-2.5 F200
G1 Z0 F200
G1 Z-2.6 F200
G1 Z0 F200
G1 Z-2.7 F200
G1 Z0 F200
G1 Z-2.8 F200
G1 Z0 F200
G1 Z-2.9 F200
G1 Z0 F200
G1 Z-3 F200
G1 Z0 F200
G0 Z2
G0 X22.7685 Y40.6502
G1 Z-0.1 F200
G1 Z0 F200
G1 Z-0.2 F200
G1 Z0 F200
G1 Z-0.3 F200
G1 Z0 F200
G1 Z-0.4 F200
G1 Z0 F200
G1 Z-0.5 F200
G1 Z0 F200
G1 Z-0.6 F200
G1 Z0 F200
G1 Z-0.7 F200
G1 Z0 F200
G1 Z-0.8 F200
G1 Z0 F200
G1 Z-0.9 F200
G1 Z0 F200
G1 Z-1 F200
G1 Z0 F200
G1 Z-1.1 F200
G1 Z0 F200
G1 Z-1.2 F200
G1 Z0 F200
G1 Z-1.3 F200
G1 Z0 F200
G1 Z-1.4 F200
G1 Z0 F200
G1 Z-1.5 F200
G1 Z0 F200
G1 Z-1.6 F200
G1 Z0 F200
G1 Z-1.7 F200
G1 Z0 F200
G1 Z-1.8 F200
G1 Z0 F200
G1 Z-1.9 F200
G1 Z0 F200
G1 Z-2 F200
G1 Z0 F200
G1 Z-2.1 F200
G1 Z0 F200
G1 Z-2.2 F200
G1 Z0 F200
G1 Z-2.3 F200
G1 Z0 F200
G1 Z-2.4 F200
G1 Z0 F200
G1 Z-2.5 F200
G1 Z0 F200
G1 Z-2.6 F200
G1 Z0 F200
G1 Z-2.7 F200
G1 Z0 F200
G1 Z-2.8 F200
G1 Z0 F200
G1 Z-2.9 F200
G1 Z0 F200
G1 Z-3 F200
G1 Z0 F200
G0 Z2
G0 X56.9685 Y124.6502
G1 Z-0.1 F200
G1 Z0 F200
G1 Z-0.2 F200
G1 Z0 F200
G1 Z-0.3 F200
G1 Z0 F200
G1 Z-0.4 F200
G1 Z0 F200
G1 Z-0.5 F200
G1 Z0 F200
G1 Z-0.6 F200
G1 Z0 F200
G1 Z-0.7 F200
G1 Z0 F200
G1 Z-0.8 F200
G1 Z0 F200
G1 Z-0.9 F200
G1 Z0 F200
G1 Z-1 F200
G1 Z0 F200
G1 Z-1.1 F200
G1 Z0 F200
G1 Z-1.2 F200
G1 Z0 F200
G1 Z-1.3 F200
G1 Z0 F200
G1 Z-1.4 F200
G1 Z0 F200
G1 Z-1.5 F200
G1 Z0 F200
G1 Z-1.6 F200
G1 Z0 F200
G1 Z-1.7 F200
G1 Z0 F200
G1 Z-1.8 F200
G1 Z0 F200
G1 Z-1.9 F200
G1 Z0 F200
G1 Z-2 F200
G1 Z0 F200
G1 Z-2.1 F200
G1 Z0 F200
G1 Z-2.2 F200
G1 Z0 F200
G1 Z-2.3 F200
G1 Z0 F200
G1 Z-2.4 F200
G1 Z0 F200
G1 Z-2.5 F200
G1 Z0 F200
G1 Z-2.6 F200
G1 Z0 F200
G1 Z-2.7 F200
G1 Z0 F200
G1 Z-2.8 F200
G1 Z0 F200
G1 Z-2.9 F200
G1 Z0 F200
G1 Z-3 F200
G1 Z0 F200
G0 Z2
G0 X56.9685 Y40.6502
G1 Z-0.1 F200
G1 Z0 F200
G1 Z-0.2 F200
G1 Z0 F200
G1 Z-0.3 F200
G1 Z0 F200
G1 Z-0.4 F200
G1 Z0 F200
G1 Z-0.5 F200
G1 Z0 F200
G1 Z-0.6 F200
G1 Z0 F200
G1 Z-0.7 F200
G1 Z0 F200
G1 Z-0.8 F200
G1 Z0 F200
G1 Z-0.9 F200
G1 Z0 F200
G1 Z-1 F200
G1 Z0 F200
G1 Z-1.1 F200
G1 Z0 F200
G1 Z-1.2 F200
G1 Z0 F200
G1 Z-1.3 F200
G1 Z0 F200
G1 Z-1.4 F200
G1 Z0 F200
G1 Z-1.5 F200
G1 Z0 F200
G1 Z-1.6 F200
G1 Z0 F200
G1 Z-1.7 F200
G1 Z0 F200
G1 Z-1.8 F200
G1 Z0 F200
G1 Z-1.9 F200
G1 Z0 F200
G1 Z-2 F200
G1 Z0 F200
G1 Z-2.1 F200
G1 Z0 F200
G1 Z-2.2 F200
G1 Z0 F200
G1 Z-2.3 F200
G1 Z0 F200
G1 Z-2.4 F200
G1 Z0 F200
G1 Z-2.5 F200
G1 Z0 F200
G1 Z-2.6 F200
G1 Z0 F200
G1 Z-2.7 F200
G1 Z0 F200
G1 Z-2.8 F200
G1 Z0 F200
G1 Z-2.9 F200
G1 Z0 F200
G1 Z-3 F200
G1 Z0 F200
G0 Z2
G0 X56.9685 Y55.6502
G1 Z-0.1 F200
G1 Z0 F200
G1 Z-0.2 F200
G1 Z0 F200
G1 Z-0.3 F200
G1 Z0 F200
G1 Z-0.4 F200
G1 Z0 F200
G1 Z-0.5 F200
G1 Z0 F200
G1 Z-0.6 F200
G1 Z0 F200
G1 Z-0.7 F200
G1 Z0 F200
G1 Z-0.8 F200
G1 Z0 F200
G1 Z-0.9 F200
G1 Z0 F200
G1 Z-1 F200
G1 Z0 F200
G1 Z-1.1 F200
G1 Z0 F200
G1 Z-1.2 F200
G1 Z0 F200
G1 Z-1.3 F200
G1 Z0 F200
G1 Z-1.4 F200
G1 Z0 F200
G1 Z-1.5 F200
G1 Z0 F200
G1 Z-1.6 F200
G1 Z0 F200
G1 Z-1.7 F200
G1 Z0 F200
G1 Z-1.8 F200
G1 Z0 F200
G1 Z-1.9 F200
G1 Z0 F200
G1 Z-2 F200
G1 Z0 F200
G1 Z-2.1 F200
G1 Z0 F200
G1 Z-2.2 F200
G1 Z0 F200
G1 Z-2.3 F200
G1 Z0 F200
G1 Z-2.4 F200
G1 Z0 F200
G1 Z-2.5 F200
G1 Z0 F200
G1 Z-2.6 F200
G1 Z0 F200
G1 Z-2.7 F200
G1 Z0 F200
G1 Z-2.8 F200
G1 Z0 F200
G1 Z-2.9 F200
G1 Z0 F200
G1 Z-3 F200
G1 Z0 F200
G0 Z2
G0 X56.9685 Y139.6502
G1 Z-0.1 F200
G1 Z0 F200
G1 Z-0.2 F200
G1 Z0 F200
G1 Z-0.3 F200
G1 Z0 F200
G1 Z-0.4 F200
G1 Z0 F200
G1 Z-0.5 F200
G1 Z0 F200
G1 Z-0.6 F200
G1 Z0 F200
G1 Z-0.7 F200
G1 Z0 F200
G1 Z-0.8 F200
G1 Z0 F200
G1 Z-0.9 F200
G1 Z0 F200
G1 Z-1 F200
G1 Z0 F200
G1 Z-1.1 F200
G1 Z0 F200
G1 Z-1.2 F200
G1 Z0 F200
G1 Z-1.3 F200
G1 Z0 F200
G1 Z-1.4 F200
G1 Z0 F200
G1 Z-1.5 F200
G1 Z0 F200
G1 Z-1.6 F200
G1 Z0 F200
G1 Z-1.7 F200
G1 Z0 F200
G1 Z-1.8 F200
G1 Z0 F200
G1 Z-1.9 F200
G1 Z0 F200
G1 Z-2 F200
G1 Z0 F200
G1 Z-2.1 F200
G1 Z0 F200
G1 Z-2.2 F200
G1 Z0 F200
G1 Z-2.3 F200
G1 Z0 F200
G1 Z-2.4 F200
G1 Z0 F200
G1 Z-2.5 F200
G1 Z0 F200
G1 Z-2.6 F200
G1 Z0 F200
G1 Z-2.7 F200
G1 Z0 F200
G1 Z-2.8 F200
G1 Z0 F200
G1 Z-2.9 F200
G1 Z0 F200
G1 Z-3 F200
G1 Z0 F200
G0 Z2
G0 X22.7685 Y139.6502
G1 Z-0.1 F200
G1 Z0 F200
G1 Z-0.2 F200
G1 Z0 F200
G1 Z-0.3 F200
G1 Z0 F200
G1 Z-0.4 F200
G1 Z0 F200
G1 Z-0.5 F200
G1 Z0 F200
G1 Z-0.6 F200
G1 Z0 F200
G1 Z-0.7 F200
G1 Z0 F200
G1 Z-0.8 F200
G1 Z0 F200
G1 Z-0.9 F200
G1 Z0 F200
G1 Z-1 F200
G1 Z0 F200
G1 Z-1.1 F200
G1 Z0 F200
G1 Z-1.2 F200
G1 Z0 F200
G1 Z-1.3 F200
G1 Z0 F200
G1 Z-1.4 F200
G1 Z0 F200
G1 Z-1.5 F200
G1 Z0 F200
G1 Z-1.6 F200
G1 Z0 F200
G1 Z-1.7 F200
G1 Z0 F200
G1 Z-1.8 F200
G1 Z0 F200
G1 Z-1.9 F200
G1 Z0 F200
G1 Z-2 F200
G1 Z0 F200
G1 Z-2.1 F200
G1 Z0 F200
G1 Z-2.2 F200
G1 Z0 F200
G1 Z-2.3 F200
G1 Z0 F200
G1 Z-2.4 F200
G1 Z0 F200
G1 Z-2.5 F200
G1 Z0 F200
G1 Z-2.6 F200
G1 Z0 F200
G1 Z-2.7 F200
G1 Z0 F200
G1 Z-2.8 F200
G1 Z0 F200
G1 Z-2.9 F200
G1 Z0 F200
G1 Z-3 F200
G1 Z0 F200
G0 Z2
G0 X22.7685 Y124.6502
G1 Z-0.1 F200
G1 Z0 F200
G1 Z-0.2 F200
G1 Z0 F200
G1 Z-0.3 F200
G1 Z0 F200
G1 Z-0.4 F200
G1 Z0 F200
G1 Z-0.5 F200
G1 Z0 F200
G1 Z-0.6 F200
G1 Z0 F200
G1 Z-0.7 F200
G1 Z0 F200
G1 Z-0.8 F200
G1 Z0 F200
G1 Z-0.9 F200
G1 Z0 F200
G1 Z-1 F200
G1 Z0 F200
G1 Z-1.1 F200
G1 Z0 F200
G1 Z-1.2 F200
G1 Z0 F200
G1 Z-1.3 F200
G1 Z0 F200
G1 Z-1.4 F200
G1 Z0 F200
G1 Z-1.5 F200
G1 Z0 F200
G1 Z-1.6 F200
G1 Z0 F200
G1 Z-1.7 F200
G1 Z0 F200
G1 Z-1.8 F200
G1 Z0 F200
G1 Z-1.9 F200
G1 Z0 F200
G1 Z-2 F200
G1 Z0 F200
G1 Z-2.1 F200
G1 Z0 F200
G1 Z-2.2 F200
G1 Z0 F200
G1 Z-2.3 F200
G1 Z0 F200
G1 Z-2.4 F200
G1 Z0 F200
G1 Z-2.5 F200
G1 Z0 F200
G1 Z-2.6 F200
G1 Z0 F200
G1 Z-2.7 F200
G1 Z0 F200
G1 Z-2.8 F200
G1 Z0 F200
G1 Z-2.9 F200
G1 Z0 F200
G1 Z-3 F200
G1 Z0 F200
G0 Z2
M5
M30
