(Generated by PartKam Version 0.05)

G21 G90 G40

(axis_inlay1)
G0 Z2
T0 M6
G17
M3
G0 X14.5824 Y48.0609
G1 Z-0.05 F200
G1 X31.4086 Y48.0609 F400
G1 X31.4086 Y48.0862
G1 X14.5837 Y48.0862
G1 X14.5837 Y48.0609
G0 Z2
G0 X14.5824 Y48.0609
G1 Z-0.1 F200
G1 X31.4086 Y48.0609 F400
G1 X31.4086 Y48.0862
G1 X14.5837 Y48.0862
G1 X14.5837 Y48.0609
G0 Z2
G0 X14.5824 Y48.0609
G1 Z-0.15 F200
G1 X31.4086 Y48.0609 F400
G1 X31.4086 Y48.0862
G1 X14.5837 Y48.0862
G1 X14.5837 Y48.0609
G0 Z2
G0 X14.5824 Y48.0609
G1 Z-0.2 F200
G1 X31.4086 Y48.0609 F400
G1 X31.4086 Y48.0862
G1 X14.5837 Y48.0862
G1 X14.5837 Y48.0609
G0 Z2
G0 X14.5824 Y48.0609
G1 Z-0.25 F200
G1 X31.4086 Y48.0609 F400
G1 X31.4086 Y48.0862
G1 X14.5837 Y48.0862
G1 X14.5837 Y48.0609
G0 Z2
G0 X14.5824 Y48.0609
G1 Z-0.3 F200
G1 X31.4086 Y48.0609 F400
G1 X31.4086 Y48.0862
G1 X14.5837 Y48.0862
G1 X14.5837 Y48.0609
G0 Z2
G0 X14.5824 Y48.0609
G1 Z-0.35 F200
G1 X31.4086 Y48.0609 F400
G1 X31.4086 Y48.0862
G1 X14.5837 Y48.0862
G1 X14.5837 Y48.0609
G0 Z2
G0 X14.5824 Y48.0609
G1 Z-0.4 F200
G1 X31.4086 Y48.0609 F400
G1 X31.4086 Y48.0862
G1 X14.5837 Y48.0862
G1 X14.5837 Y48.0609
G0 Z2
G0 X14.5824 Y48.0609
G1 Z-0.45 F200
G1 X31.4086 Y48.0609 F400
G1 X31.4086 Y48.0862
G1 X14.5837 Y48.0862
G1 X14.5837 Y48.0609
G0 Z2
G0 X14.5824 Y48.0609
G1 Z-0.5 F200
G1 X31.4086 Y48.0609 F400
G1 X31.4086 Y48.0862
G1 X14.5837 Y48.0862
G1 X14.5837 Y48.0609
G0 Z2
G0 X14.5824 Y48.0609
G1 Z-0.55 F200
G1 X31.4086 Y48.0609 F400
G1 X31.4086 Y48.0862
G1 X14.5837 Y48.0862
G1 X14.5837 Y48.0609
G0 Z2
G0 X14.5824 Y48.0609
G1 Z-0.6 F200
G1 X31.4086 Y48.0609 F400
G1 X31.4086 Y48.0862
G1 X14.5837 Y48.0862
G1 X14.5837 Y48.0609
G0 Z2
G0 X14.5824 Y48.0609
G1 Z-0.65 F200
G1 X31.4086 Y48.0609 F400
G1 X31.4086 Y48.0862
G1 X14.5837 Y48.0862
G1 X14.5837 Y48.0609
G0 Z2
G0 X14.5824 Y48.0609
G1 Z-0.7 F200
G1 X31.4086 Y48.0609 F400
G1 X31.4086 Y48.0862
G1 X14.5837 Y48.0862
G1 X14.5837 Y48.0609
G0 Z2
G0 X14.5824 Y48.0609
G1 Z-0.75 F200
G1 X31.4086 Y48.0609 F400
G1 X31.4086 Y48.0862
G1 X14.5837 Y48.0862
G1 X14.5837 Y48.0609
G0 Z2
G0 X14.5824 Y48.0609
G1 Z-0.8 F200
G1 X31.4086 Y48.0609 F400
G1 X31.4086 Y48.0862
G1 X14.5837 Y48.0862
G1 X14.5837 Y48.0609

(pocket 2)
G0 Z2
G0 X65.6076 Y48.0860
G1 Z-0.05 F200
G1 X48.7817 Y48.0862 F400
G1 X48.7817 Y48.0609
G1 X65.6065 Y48.0609
G1 X65.6065 Y48.0862
G0 Z2
G0 X65.6076 Y48.0860
G1 Z-0.1 F200
G1 X48.7817 Y48.0862 F400
G1 X48.7817 Y48.0609
G1 X65.6065 Y48.0609
G1 X65.6065 Y48.0862
G0 Z2
G0 X65.6076 Y48.0860
G1 Z-0.15 F200
G1 X48.7817 Y48.0862 F400
G1 X48.7817 Y48.0609
G1 X65.6065 Y48.0609
G1 X65.6065 Y48.0862
G0 Z2
G0 X65.6076 Y48.0860
G1 Z-0.2 F200
G1 X48.7817 Y48.0862 F400
G1 X48.7817 Y48.0609
G1 X65.6065 Y48.0609
G1 X65.6065 Y48.0862
G0 Z2
G0 X65.6076 Y48.0860
G1 Z-0.25 F200
G1 X48.7817 Y48.0862 F400
G1 X48.7817 Y48.0609
G1 X65.6065 Y48.0609
G1 X65.6065 Y48.0862
G0 Z2
G0 X65.6076 Y48.0860
G1 Z-0.3 F200
G1 X48.7817 Y48.0862 F400
G1 X48.7817 Y48.0609
G1 X65.6065 Y48.0609
G1 X65.6065 Y48.0862
G0 Z2
G0 X65.6076 Y48.0860
G1 Z-0.35 F200
G1 X48.7817 Y48.0862 F400
G1 X48.7817 Y48.0609
G1 X65.6065 Y48.0609
G1 X65.6065 Y48.0862
G0 Z2
G0 X65.6076 Y48.0860
G1 Z-0.4 F200
G1 X48.7817 Y48.0862 F400
G1 X48.7817 Y48.0609
G1 X65.6065 Y48.0609
G1 X65.6065 Y48.0862
G0 Z2
G0 X65.6076 Y48.0860
G1 Z-0.45 F200
G1 X48.7817 Y48.0862 F400
G1 X48.7817 Y48.0609
G1 X65.6065 Y48.0609
G1 X65.6065 Y48.0862
G0 Z2
G0 X65.6076 Y48.0860
G1 Z-0.5 F200
G1 X48.7817 Y48.0862 F400
G1 X48.7817 Y48.0609
G1 X65.6065 Y48.0609
G1 X65.6065 Y48.0862
G0 Z2
G0 X65.6076 Y48.0860
G1 Z-0.55 F200
G1 X48.7817 Y48.0862 F400
G1 X48.7817 Y48.0609
G1 X65.6065 Y48.0609
G1 X65.6065 Y48.0862
G0 Z2
G0 X65.6076 Y48.0860
G1 Z-0.6 F200
G1 X48.7817 Y48.0862 F400
G1 X48.7817 Y48.0609
G1 X65.6065 Y48.0609
G1 X65.6065 Y48.0862
G0 Z2
G0 X65.6076 Y48.0860
G1 Z-0.65 F200
G1 X48.7817 Y48.0862 F400
G1 X48.7817 Y48.0609
G1 X65.6065 Y48.0609
G1 X65.6065 Y48.0862
G0 Z2
G0 X65.6076 Y48.0860
G1 Z-0.7 F200
G1 X48.7817 Y48.0862 F400
G1 X48.7817 Y48.0609
G1 X65.6065 Y48.0609
G1 X65.6065 Y48.0862
G0 Z2
G0 X65.6076 Y48.0860
G1 Z-0.75 F200
G1 X48.7817 Y48.0862 F400
G1 X48.7817 Y48.0609
G1 X65.6065 Y48.0609
G1 X65.6065 Y48.0862
G0 Z2
G0 X65.6076 Y48.0860
G1 Z-0.8 F200
G1 X48.7817 Y48.0862 F400
G1 X48.7817 Y48.0609
G1 X65.6065 Y48.0609
G1 X65.6065 Y48.0862

(pocket 3)
G0 Z2
G0 X31.4076 Y132.0860
G1 Z-0.05 F200
G1 X14.5837 Y132.0862 F400
G1 X14.5837 Y132.0609
G1 X31.4086 Y132.0609
G1 X31.4086 Y132.0862
G0 Z2
G0 X31.4076 Y132.0860
G1 Z-0.1 F200
G1 X14.5837 Y132.0862 F400
G1 X14.5837 Y132.0609
G1 X31.4086 Y132.0609
G1 X31.4086 Y132.0862
G0 Z2
G0 X31.4076 Y132.0860
G1 Z-0.15 F200
G1 X14.5837 Y132.0862 F400
G1 X14.5837 Y132.0609
G1 X31.4086 Y132.0609
G1 X31.4086 Y132.0862
G0 Z2
G0 X31.4076 Y132.0860
G1 Z-0.2 F200
G1 X14.5837 Y132.0862 F400
G1 X14.5837 Y132.0609
G1 X31.4086 Y132.0609
G1 X31.4086 Y132.0862
G0 Z2
G0 X31.4076 Y132.0860
G1 Z-0.25 F200
G1 X14.5837 Y132.0862 F400
G1 X14.5837 Y132.0609
G1 X31.4086 Y132.0609
G1 X31.4086 Y132.0862
G0 Z2
G0 X31.4076 Y132.0860
G1 Z-0.3 F200
G1 X14.5837 Y132.0862 F400
G1 X14.5837 Y132.0609
G1 X31.4086 Y132.0609
G1 X31.4086 Y132.0862
G0 Z2
G0 X31.4076 Y132.0860
G1 Z-0.35 F200
G1 X14.5837 Y132.0862 F400
G1 X14.5837 Y132.0609
G1 X31.4086 Y132.0609
G1 X31.4086 Y132.0862
G0 Z2
G0 X31.4076 Y132.0860
G1 Z-0.4 F200
G1 X14.5837 Y132.0862 F400
G1 X14.5837 Y132.0609
G1 X31.4086 Y132.0609
G1 X31.4086 Y132.0862
G0 Z2
G0 X31.4076 Y132.0860
G1 Z-0.45 F200
G1 X14.5837 Y132.0862 F400
G1 X14.5837 Y132.0609
G1 X31.4086 Y132.0609
G1 X31.4086 Y132.0862
G0 Z2
G0 X31.4076 Y132.0860
G1 Z-0.5 F200
G1 X14.5837 Y132.0862 F400
G1 X14.5837 Y132.0609
G1 X31.4086 Y132.0609
G1 X31.4086 Y132.0862
G0 Z2
G0 X31.4076 Y132.0860
G1 Z-0.55 F200
G1 X14.5837 Y132.0862 F400
G1 X14.5837 Y132.0609
G1 X31.4086 Y132.0609
G1 X31.4086 Y132.0862
G0 Z2
G0 X31.4076 Y132.0860
G1 Z-0.6 F200
G1 X14.5837 Y132.0862 F400
G1 X14.5837 Y132.0609
G1 X31.4086 Y132.0609
G1 X31.4086 Y132.0862
G0 Z2
G0 X31.4076 Y132.0860
G1 Z-0.65 F200
G1 X14.5837 Y132.0862 F400
G1 X14.5837 Y132.0609
G1 X31.4086 Y132.0609
G1 X31.4086 Y132.0862
G0 Z2
G0 X31.4076 Y132.0860
G1 Z-0.7 F200
G1 X14.5837 Y132.0862 F400
G1 X14.5837 Y132.0609
G1 X31.4086 Y132.0609
G1 X31.4086 Y132.0862
G0 Z2
G0 X31.4076 Y132.0860
G1 Z-0.75 F200
G1 X14.5837 Y132.0862 F400
G1 X14.5837 Y132.0609
G1 X31.4086 Y132.0609
G1 X31.4086 Y132.0862
G0 Z2
G0 X31.4076 Y132.0860
G1 Z-0.8 F200
G1 X14.5837 Y132.0862 F400
G1 X14.5837 Y132.0609
G1 X31.4086 Y132.0609
G1 X31.4086 Y132.0862

(pocket 4)
G0 Z2
G0 X48.7824 Y132.0609
G1 Z-0.05 F200
G1 X65.6065 Y132.0609 F400
G1 X65.6065 Y132.0862
G1 X48.7817 Y132.0862
G1 X48.7817 Y132.0609
G0 Z2
G0 X48.7824 Y132.0609
G1 Z-0.1 F200
G1 X65.6065 Y132.0609 F400
G1 X65.6065 Y132.0862
G1 X48.7817 Y132.0862
G1 X48.7817 Y132.0609
G0 Z2
G0 X48.7824 Y132.0609
G1 Z-0.15 F200
G1 X65.6065 Y132.0609 F400
G1 X65.6065 Y132.0862
G1 X48.7817 Y132.0862
G1 X48.7817 Y132.0609
G0 Z2
G0 X48.7824 Y132.0609
G1 Z-0.2 F200
G1 X65.6065 Y132.0609 F400
G1 X65.6065 Y132.0862
G1 X48.7817 Y132.0862
G1 X48.7817 Y132.0609
G0 Z2
G0 X48.7824 Y132.0609
G1 Z-0.25 F200
G1 X65.6065 Y132.0609 F400
G1 X65.6065 Y132.0862
G1 X48.7817 Y132.0862
G1 X48.7817 Y132.0609
G0 Z2
G0 X48.7824 Y132.0609
G1 Z-0.3 F200
G1 X65.6065 Y132.0609 F400
G1 X65.6065 Y132.0862
G1 X48.7817 Y132.0862
G1 X48.7817 Y132.0609
G0 Z2
G0 X48.7824 Y132.0609
G1 Z-0.35 F200
G1 X65.6065 Y132.0609 F400
G1 X65.6065 Y132.0862
G1 X48.7817 Y132.0862
G1 X48.7817 Y132.0609
G0 Z2
G0 X48.7824 Y132.0609
G1 Z-0.4 F200
G1 X65.6065 Y132.0609 F400
G1 X65.6065 Y132.0862
G1 X48.7817 Y132.0862
G1 X48.7817 Y132.0609
G0 Z2
G0 X48.7824 Y132.0609
G1 Z-0.45 F200
G1 X65.6065 Y132.0609 F400
G1 X65.6065 Y132.0862
G1 X48.7817 Y132.0862
G1 X48.7817 Y132.0609
G0 Z2
G0 X48.7824 Y132.0609
G1 Z-0.5 F200
G1 X65.6065 Y132.0609 F400
G1 X65.6065 Y132.0862
G1 X48.7817 Y132.0862
G1 X48.7817 Y132.0609
G0 Z2
G0 X48.7824 Y132.0609
G1 Z-0.55 F200
G1 X65.6065 Y132.0609 F400
G1 X65.6065 Y132.0862
G1 X48.7817 Y132.0862
G1 X48.7817 Y132.0609
G0 Z2
G0 X48.7824 Y132.0609
G1 Z-0.6 F200
G1 X65.6065 Y132.0609 F400
G1 X65.6065 Y132.0862
G1 X48.7817 Y132.0862
G1 X48.7817 Y132.0609
G0 Z2
G0 X48.7824 Y132.0609
G1 Z-0.65 F200
G1 X65.6065 Y132.0609 F400
G1 X65.6065 Y132.0862
G1 X48.7817 Y132.0862
G1 X48.7817 Y132.0609
G0 Z2
G0 X48.7824 Y132.0609
G1 Z-0.7 F200
G1 X65.6065 Y132.0609 F400
G1 X65.6065 Y132.0862
G1 X48.7817 Y132.0862
G1 X48.7817 Y132.0609
G0 Z2
G0 X48.7824 Y132.0609
G1 Z-0.75 F200
G1 X65.6065 Y132.0609 F400
G1 X65.6065 Y132.0862
G1 X48.7817 Y132.0862
G1 X48.7817 Y132.0609
G0 Z2
G0 X48.7824 Y132.0609
G1 Z-0.8 F200
G1 X65.6065 Y132.0609 F400
G1 X65.6065 Y132.0862
G1 X48.7817 Y132.0862
G1 X48.7817 Y132.0609

(m5)
G0 Z1
G0 X22.9951 Y40.5733
G1 Z-0.1 F200
G1 Z0 F200
G1 Z-0.2 F200
G1 Z0 F200
G1 Z-0.3 F200
G1 Z0 F200
G1 Z-0.4 F200
G1 Z0 F200
G1 Z-0.5 F200
G1 Z0 F200
G1 Z-0.6 F200
G1 Z0 F200
G1 Z-0.7 F200
G1 Z0 F200
G1 Z-0.8 F200
G1 Z0 F200
G1 Z-0.9 F200
G1 Z0 F200
G1 Z-1 F200
G1 Z0 F200
G1 Z-1.1 F200
G1 Z0 F200
G1 Z-1.2 F200
G1 Z0 F200
G1 Z-1.3 F200
G1 Z0 F200
G1 Z-1.4 F200
G1 Z0 F200
G1 Z-1.5 F200
G1 Z0 F200
G1 Z-1.6 F200
G1 Z0 F200
G1 Z-1.7 F200
G1 Z0 F200
G1 Z-1.8 F200
G1 Z0 F200
G1 Z-1.9 F200
G1 Z0 F200
G1 Z-2 F200
G1 Z0 F200
G1 Z-2.1 F200
G1 Z0 F200
G1 Z-2.2 F200
G1 Z0 F200
G1 Z-2.3 F200
G1 Z0 F200
G1 Z-2.4 F200
G1 Z0 F200
G1 Z-2.5 F200
G1 Z0 F200
G1 Z-2.6 F200
G1 Z0 F200
G1 Z-2.7 F200
G1 Z0 F200
G1 Z-2.8 F200
G1 Z0 F200
G1 Z-2.9 F200
G1 Z0 F200
G1 Z-3 F200
G1 Z0 F200
G1 Z-3.1 F200
G1 Z0 F200
G1 Z-3.2 F200
G1 Z0 F200
G1 Z-3.3 F200
G1 Z0 F200
G1 Z-3.4 F200
G1 Z0 F200
G1 Z-3.5 F200
G1 Z0 F200
G1 Z-3.6 F200
G1 Z0 F200
G1 Z-3.7 F200
G1 Z0 F200
G1 Z-3.8 F200
G1 Z0 F200
G1 Z-3.9 F200
G1 Z0 F200
G1 Z-4 F200
G1 Z0 F200

(m5)
G0 Z1
G0 X22.9951 Y55.5733
G1 Z-0.1 F200
G1 Z0 F200
G1 Z-0.2 F200
G1 Z0 F200
G1 Z-0.3 F200
G1 Z0 F200
G1 Z-0.4 F200
G1 Z0 F200
G1 Z-0.5 F200
G1 Z0 F200
G1 Z-0.6 F200
G1 Z0 F200
G1 Z-0.7 F200
G1 Z0 F200
G1 Z-0.8 F200
G1 Z0 F200
G1 Z-0.9 F200
G1 Z0 F200
G1 Z-1 F200
G1 Z0 F200
G1 Z-1.1 F200
G1 Z0 F200
G1 Z-1.2 F200
G1 Z0 F200
G1 Z-1.3 F200
G1 Z0 F200
G1 Z-1.4 F200
G1 Z0 F200
G1 Z-1.5 F200
G1 Z0 F200
G1 Z-1.6 F200
G1 Z0 F200
G1 Z-1.7 F200
G1 Z0 F200
G1 Z-1.8 F200
G1 Z0 F200
G1 Z-1.9 F200
G1 Z0 F200
G1 Z-2 F200
G1 Z0 F200
G1 Z-2.1 F200
G1 Z0 F200
G1 Z-2.2 F200
G1 Z0 F200
G1 Z-2.3 F200
G1 Z0 F200
G1 Z-2.4 F200
G1 Z0 F200
G1 Z-2.5 F200
G1 Z0 F200
G1 Z-2.6 F200
G1 Z0 F200
G1 Z-2.7 F200
G1 Z0 F200
G1 Z-2.8 F200
G1 Z0 F200
G1 Z-2.9 F200
G1 Z0 F200
G1 Z-3 F200
G1 Z0 F200
G1 Z-3.1 F200
G1 Z0 F200
G1 Z-3.2 F200
G1 Z0 F200
G1 Z-3.3 F200
G1 Z0 F200
G1 Z-3.4 F200
G1 Z0 F200
G1 Z-3.5 F200
G1 Z0 F200
G1 Z-3.6 F200
G1 Z0 F200
G1 Z-3.7 F200
G1 Z0 F200
G1 Z-3.8 F200
G1 Z0 F200
G1 Z-3.9 F200
G1 Z0 F200
G1 Z-4 F200
G1 Z0 F200

(m5)
G0 Z1
G0 X57.1951 Y55.5733
G1 Z-0.1 F200
G1 Z0 F200
G1 Z-0.2 F200
G1 Z0 F200
G1 Z-0.3 F200
G1 Z0 F200
G1 Z-0.4 F200
G1 Z0 F200
G1 Z-0.5 F200
G1 Z0 F200
G1 Z-0.6 F200
G1 Z0 F200
G1 Z-0.7 F200
G1 Z0 F200
G1 Z-0.8 F200
G1 Z0 F200
G1 Z-0.9 F200
G1 Z0 F200
G1 Z-1 F200
G1 Z0 F200
G1 Z-1.1 F200
G1 Z0 F200
G1 Z-1.2 F200
G1 Z0 F200
G1 Z-1.3 F200
G1 Z0 F200
G1 Z-1.4 F200
G1 Z0 F200
G1 Z-1.5 F200
G1 Z0 F200
G1 Z-1.6 F200
G1 Z0 F200
G1 Z-1.7 F200
G1 Z0 F200
G1 Z-1.8 F200
G1 Z0 F200
G1 Z-1.9 F200
G1 Z0 F200
G1 Z-2 F200
G1 Z0 F200
G1 Z-2.1 F200
G1 Z0 F200
G1 Z-2.2 F200
G1 Z0 F200
G1 Z-2.3 F200
G1 Z0 F200
G1 Z-2.4 F200
G1 Z0 F200
G1 Z-2.5 F200
G1 Z0 F200
G1 Z-2.6 F200
G1 Z0 F200
G1 Z-2.7 F200
G1 Z0 F200
G1 Z-2.8 F200
G1 Z0 F200
G1 Z-2.9 F200
G1 Z0 F200
G1 Z-3 F200
G1 Z0 F200
G1 Z-3.1 F200
G1 Z0 F200
G1 Z-3.2 F200
G1 Z0 F200
G1 Z-3.3 F200
G1 Z0 F200
G1 Z-3.4 F200
G1 Z0 F200
G1 Z-3.5 F200
G1 Z0 F200
G1 Z-3.6 F200
G1 Z0 F200
G1 Z-3.7 F200
G1 Z0 F200
G1 Z-3.8 F200
G1 Z0 F200
G1 Z-3.9 F200
G1 Z0 F200
G1 Z-4 F200
G1 Z0 F200

(m5)
G0 Z1
G0 X57.1951 Y40.5733
G1 Z-0.1 F200
G1 Z0 F200
G1 Z-0.2 F200
G1 Z0 F200
G1 Z-0.3 F200
G1 Z0 F200
G1 Z-0.4 F200
G1 Z0 F200
G1 Z-0.5 F200
G1 Z0 F200
G1 Z-0.6 F200
G1 Z0 F200
G1 Z-0.7 F200
G1 Z0 F200
G1 Z-0.8 F200
G1 Z0 F200
G1 Z-0.9 F200
G1 Z0 F200
G1 Z-1 F200
G1 Z0 F200
G1 Z-1.1 F200
G1 Z0 F200
G1 Z-1.2 F200
G1 Z0 F200
G1 Z-1.3 F200
G1 Z0 F200
G1 Z-1.4 F200
G1 Z0 F200
G1 Z-1.5 F200
G1 Z0 F200
G1 Z-1.6 F200
G1 Z0 F200
G1 Z-1.7 F200
G1 Z0 F200
G1 Z-1.8 F200
G1 Z0 F200
G1 Z-1.9 F200
G1 Z0 F200
G1 Z-2 F200
G1 Z0 F200
G1 Z-2.1 F200
G1 Z0 F200
G1 Z-2.2 F200
G1 Z0 F200
G1 Z-2.3 F200
G1 Z0 F200
G1 Z-2.4 F200
G1 Z0 F200
G1 Z-2.5 F200
G1 Z0 F200
G1 Z-2.6 F200
G1 Z0 F200
G1 Z-2.7 F200
G1 Z0 F200
G1 Z-2.8 F200
G1 Z0 F200
G1 Z-2.9 F200
G1 Z0 F200
G1 Z-3 F200
G1 Z0 F200
G1 Z-3.1 F200
G1 Z0 F200
G1 Z-3.2 F200
G1 Z0 F200
G1 Z-3.3 F200
G1 Z0 F200
G1 Z-3.4 F200
G1 Z0 F200
G1 Z-3.5 F200
G1 Z0 F200
G1 Z-3.6 F200
G1 Z0 F200
G1 Z-3.7 F200
G1 Z0 F200
G1 Z-3.8 F200
G1 Z0 F200
G1 Z-3.9 F200
G1 Z0 F200
G1 Z-4 F200
G1 Z0 F200

(m5)
G0 Z1
G0 X22.9951 Y139.5733
G1 Z-0.1 F200
G1 Z0 F200
G1 Z-0.2 F200
G1 Z0 F200
G1 Z-0.3 F200
G1 Z0 F200
G1 Z-0.4 F200
G1 Z0 F200
G1 Z-0.5 F200
G1 Z0 F200
G1 Z-0.6 F200
G1 Z0 F200
G1 Z-0.7 F200
G1 Z0 F200
G1 Z-0.8 F200
G1 Z0 F200
G1 Z-0.9 F200
G1 Z0 F200
G1 Z-1 F200
G1 Z0 F200
G1 Z-1.1 F200
G1 Z0 F200
G1 Z-1.2 F200
G1 Z0 F200
G1 Z-1.3 F200
G1 Z0 F200
G1 Z-1.4 F200
G1 Z0 F200
G1 Z-1.5 F200
G1 Z0 F200
G1 Z-1.6 F200
G1 Z0 F200
G1 Z-1.7 F200
G1 Z0 F200
G1 Z-1.8 F200
G1 Z0 F200
G1 Z-1.9 F200
G1 Z0 F200
G1 Z-2 F200
G1 Z0 F200
G1 Z-2.1 F200
G1 Z0 F200
G1 Z-2.2 F200
G1 Z0 F200
G1 Z-2.3 F200
G1 Z0 F200
G1 Z-2.4 F200
G1 Z0 F200
G1 Z-2.5 F200
G1 Z0 F200
G1 Z-2.6 F200
G1 Z0 F200
G1 Z-2.7 F200
G1 Z0 F200
G1 Z-2.8 F200
G1 Z0 F200
G1 Z-2.9 F200
G1 Z0 F200
G1 Z-3 F200
G1 Z0 F200
G1 Z-3.1 F200
G1 Z0 F200
G1 Z-3.2 F200
G1 Z0 F200
G1 Z-3.3 F200
G1 Z0 F200
G1 Z-3.4 F200
G1 Z0 F200
G1 Z-3.5 F200
G1 Z0 F200
G1 Z-3.6 F200
G1 Z0 F200
G1 Z-3.7 F200
G1 Z0 F200
G1 Z-3.8 F200
G1 Z0 F200
G1 Z-3.9 F200
G1 Z0 F200
G1 Z-4 F200
G1 Z0 F200

(m5)
G0 Z1
G0 X22.9951 Y124.5733
G1 Z-0.1 F200
G1 Z0 F200
G1 Z-0.2 F200
G1 Z0 F200
G1 Z-0.3 F200
G1 Z0 F200
G1 Z-0.4 F200
G1 Z0 F200
G1 Z-0.5 F200
G1 Z0 F200
G1 Z-0.6 F200
G1 Z0 F200
G1 Z-0.7 F200
G1 Z0 F200
G1 Z-0.8 F200
G1 Z0 F200
G1 Z-0.9 F200
G1 Z0 F200
G1 Z-1 F200
G1 Z0 F200
G1 Z-1.1 F200
G1 Z0 F200
G1 Z-1.2 F200
G1 Z0 F200
G1 Z-1.3 F200
G1 Z0 F200
G1 Z-1.4 F200
G1 Z0 F200
G1 Z-1.5 F200
G1 Z0 F200
G1 Z-1.6 F200
G1 Z0 F200
G1 Z-1.7 F200
G1 Z0 F200
G1 Z-1.8 F200
G1 Z0 F200
G1 Z-1.9 F200
G1 Z0 F200
G1 Z-2 F200
G1 Z0 F200
G1 Z-2.1 F200
G1 Z0 F200
G1 Z-2.2 F200
G1 Z0 F200
G1 Z-2.3 F200
G1 Z0 F200
G1 Z-2.4 F200
G1 Z0 F200
G1 Z-2.5 F200
G1 Z0 F200
G1 Z-2.6 F200
G1 Z0 F200
G1 Z-2.7 F200
G1 Z0 F200
G1 Z-2.8 F200
G1 Z0 F200
G1 Z-2.9 F200
G1 Z0 F200
G1 Z-3 F200
G1 Z0 F200
G1 Z-3.1 F200
G1 Z0 F200
G1 Z-3.2 F200
G1 Z0 F200
G1 Z-3.3 F200
G1 Z0 F200
G1 Z-3.4 F200
G1 Z0 F200
G1 Z-3.5 F200
G1 Z0 F200
G1 Z-3.6 F200
G1 Z0 F200
G1 Z-3.7 F200
G1 Z0 F200
G1 Z-3.8 F200
G1 Z0 F200
G1 Z-3.9 F200
G1 Z0 F200
G1 Z-4 F200
G1 Z0 F200

(m5)
G0 Z1
G0 X57.1951 Y124.5733
G1 Z-0.1 F200
G1 Z0 F200
G1 Z-0.2 F200
G1 Z0 F200
G1 Z-0.3 F200
G1 Z0 F200
G1 Z-0.4 F200
G1 Z0 F200
G1 Z-0.5 F200
G1 Z0 F200
G1 Z-0.6 F200
G1 Z0 F200
G1 Z-0.7 F200
G1 Z0 F200
G1 Z-0.8 F200
G1 Z0 F200
G1 Z-0.9 F200
G1 Z0 F200
G1 Z-1 F200
G1 Z0 F200
G1 Z-1.1 F200
G1 Z0 F200
G1 Z-1.2 F200
G1 Z0 F200
G1 Z-1.3 F200
G1 Z0 F200
G1 Z-1.4 F200
G1 Z0 F200
G1 Z-1.5 F200
G1 Z0 F200
G1 Z-1.6 F200
G1 Z0 F200
G1 Z-1.7 F200
G1 Z0 F200
G1 Z-1.8 F200
G1 Z0 F200
G1 Z-1.9 F200
G1 Z0 F200
G1 Z-2 F200
G1 Z0 F200
G1 Z-2.1 F200
G1 Z0 F200
G1 Z-2.2 F200
G1 Z0 F200
G1 Z-2.3 F200
G1 Z0 F200
G1 Z-2.4 F200
G1 Z0 F200
G1 Z-2.5 F200
G1 Z0 F200
G1 Z-2.6 F200
G1 Z0 F200
G1 Z-2.7 F200
G1 Z0 F200
G1 Z-2.8 F200
G1 Z0 F200
G1 Z-2.9 F200
G1 Z0 F200
G1 Z-3 F200
G1 Z0 F200
G1 Z-3.1 F200
G1 Z0 F200
G1 Z-3.2 F200
G1 Z0 F200
G1 Z-3.3 F200
G1 Z0 F200
G1 Z-3.4 F200
G1 Z0 F200
G1 Z-3.5 F200
G1 Z0 F200
G1 Z-3.6 F200
G1 Z0 F200
G1 Z-3.7 F200
G1 Z0 F200
G1 Z-3.8 F200
G1 Z0 F200
G1 Z-3.9 F200
G1 Z0 F200
G1 Z-4 F200
G1 Z0 F200

(m5)
G0 Z1
G0 X57.1951 Y139.5733
G1 Z-0.1 F200
G1 Z0 F200
G1 Z-0.2 F200
G1 Z0 F200
G1 Z-0.3 F200
G1 Z0 F200
G1 Z-0.4 F200
G1 Z0 F200
G1 Z-0.5 F200
G1 Z0 F200
G1 Z-0.6 F200
G1 Z0 F200
G1 Z-0.7 F200
G1 Z0 F200
G1 Z-0.8 F200
G1 Z0 F200
G1 Z-0.9 F200
G1 Z0 F200
G1 Z-1 F200
G1 Z0 F200
G1 Z-1.1 F200
G1 Z0 F200
G1 Z-1.2 F200
G1 Z0 F200
G1 Z-1.3 F200
G1 Z0 F200
G1 Z-1.4 F200
G1 Z0 F200
G1 Z-1.5 F200
G1 Z0 F200
G1 Z-1.6 F200
G1 Z0 F200
G1 Z-1.7 F200
G1 Z0 F200
G1 Z-1.8 F200
G1 Z0 F200
G1 Z-1.9 F200
G1 Z0 F200
G1 Z-2 F200
G1 Z0 F200
G1 Z-2.1 F200
G1 Z0 F200
G1 Z-2.2 F200
G1 Z0 F200
G1 Z-2.3 F200
G1 Z0 F200
G1 Z-2.4 F200
G1 Z0 F200
G1 Z-2.5 F200
G1 Z0 F200
G1 Z-2.6 F200
G1 Z0 F200
G1 Z-2.7 F200
G1 Z0 F200
G1 Z-2.8 F200
G1 Z0 F200
G1 Z-2.9 F200
G1 Z0 F200
G1 Z-3 F200
G1 Z0 F200
G1 Z-3.1 F200
G1 Z0 F200
G1 Z-3.2 F200
G1 Z0 F200
G1 Z-3.3 F200
G1 Z0 F200
G1 Z-3.4 F200
G1 Z0 F200
G1 Z-3.5 F200
G1 Z0 F200
G1 Z-3.6 F200
G1 Z0 F200
G1 Z-3.7 F200
G1 Z0 F200
G1 Z-3.8 F200
G1 Z0 F200
G1 Z-3.9 F200
G1 Z0 F200
G1 Z-4 F200
G1 Z0 F200

(m14)
G0 Z1
G0 X24.0951 Y18.0733
G1 Z-0.1 F200
G1 Z0 F200
G1 Z-0.2 F200
G1 Z0 F200
G1 Z-0.3 F200
G1 Z0 F200
G1 Z-0.4 F200
G1 Z0 F200
G1 Z-0.5 F200
G1 Z0 F200
G1 Z-0.6 F200
G1 Z0 F200
G1 Z-0.7 F200
G1 Z0 F200
G1 Z-0.8 F200
G1 Z0 F200
G1 Z-0.9 F200
G1 Z0 F200
G1 Z-1 F200
G1 Z0 F200
G1 Z-1.1 F200
G1 Z0 F200
G1 Z-1.2 F200
G1 Z0 F200
G1 Z-1.3 F200
G1 Z0 F200
G1 Z-1.4 F200
G1 Z0 F200
G1 Z-1.5 F200
G1 Z0 F200
G1 Z-1.6 F200
G1 Z0 F200
G1 Z-1.7 F200
G1 Z0 F200
G1 Z-1.8 F200
G1 Z0 F200
G1 Z-1.9 F200
G1 Z0 F200
G1 Z-2 F200
G1 Z0 F200
G1 Z-2.1 F200
G1 Z0 F200
G1 Z-2.2 F200
G1 Z0 F200
G1 Z-2.3 F200
G1 Z0 F200
G1 Z-2.4 F200
G1 Z0 F200
G1 Z-2.5 F200
G1 Z0 F200
G1 Z-2.6 F200
G1 Z0 F200
G1 Z-2.7 F200
G1 Z0 F200
G1 Z-2.8 F200
G1 Z0 F200
G1 Z-2.9 F200
G1 Z0 F200
G1 Z-3 F200
G1 Z0 F200
G1 Z-3.1 F200
G1 Z0 F200
G1 Z-3.2 F200
G1 Z0 F200
G1 Z-3.3 F200
G1 Z0 F200
G1 Z-3.4 F200
G1 Z0 F200
G1 Z-3.5 F200
G1 Z0 F200
G1 Z-3.6 F200
G1 Z0 F200
G1 Z-3.7 F200
G1 Z0 F200
G1 Z-3.8 F200
G1 Z0 F200
G1 Z-3.9 F200
G1 Z0 F200
G1 Z-4 F200
G1 Z0 F200

(m14)
G0 Z1
G0 X24.0951 Y162.0733
G1 Z-0.1 F200
G1 Z0 F200
G1 Z-0.2 F200
G1 Z0 F200
G1 Z-0.3 F200
G1 Z0 F200
G1 Z-0.4 F200
G1 Z0 F200
G1 Z-0.5 F200
G1 Z0 F200
G1 Z-0.6 F200
G1 Z0 F200
G1 Z-0.7 F200
G1 Z0 F200
G1 Z-0.8 F200
G1 Z0 F200
G1 Z-0.9 F200
G1 Z0 F200
G1 Z-1 F200
G1 Z0 F200
G1 Z-1.1 F200
G1 Z0 F200
G1 Z-1.2 F200
G1 Z0 F200
G1 Z-1.3 F200
G1 Z0 F200
G1 Z-1.4 F200
G1 Z0 F200
G1 Z-1.5 F200
G1 Z0 F200
G1 Z-1.6 F200
G1 Z0 F200
G1 Z-1.7 F200
G1 Z0 F200
G1 Z-1.8 F200
G1 Z0 F200
G1 Z-1.9 F200
G1 Z0 F200
G1 Z-2 F200
G1 Z0 F200
G1 Z-2.1 F200
G1 Z0 F200
G1 Z-2.2 F200
G1 Z0 F200
G1 Z-2.3 F200
G1 Z0 F200
G1 Z-2.4 F200
G1 Z0 F200
G1 Z-2.5 F200
G1 Z0 F200
G1 Z-2.6 F200
G1 Z0 F200
G1 Z-2.7 F200
G1 Z0 F200
G1 Z-2.8 F200
G1 Z0 F200
G1 Z-2.9 F200
G1 Z0 F200
G1 Z-3 F200
G1 Z0 F200
G1 Z-3.1 F200
G1 Z0 F200
G1 Z-3.2 F200
G1 Z0 F200
G1 Z-3.3 F200
G1 Z0 F200
G1 Z-3.4 F200
G1 Z0 F200
G1 Z-3.5 F200
G1 Z0 F200
G1 Z-3.6 F200
G1 Z0 F200
G1 Z-3.7 F200
G1 Z0 F200
G1 Z-3.8 F200
G1 Z0 F200
G1 Z-3.9 F200
G1 Z0 F200
G1 Z-4 F200
G1 Z0 F200

(m8)
G0 Z1
G0 X56.0951 Y162.0733
G1 Z-0.1 F200
G1 Z0 F200
G1 Z-0.2 F200
G1 Z0 F200
G1 Z-0.3 F200
G1 Z0 F200
G1 Z-0.4 F200
G1 Z0 F200
G1 Z-0.5 F200
G1 Z0 F200
G1 Z-0.6 F200
G1 Z0 F200
G1 Z-0.7 F200
G1 Z0 F200
G1 Z-0.8 F200
G1 Z0 F200
G1 Z-0.9 F200
G1 Z0 F200
G1 Z-1 F200
G1 Z0 F200
G1 Z-1.1 F200
G1 Z0 F200
G1 Z-1.2 F200
G1 Z0 F200
G1 Z-1.3 F200
G1 Z0 F200
G1 Z-1.4 F200
G1 Z0 F200
G1 Z-1.5 F200
G1 Z0 F200
G1 Z-1.6 F200
G1 Z0 F200
G1 Z-1.7 F200
G1 Z0 F200
G1 Z-1.8 F200
G1 Z0 F200
G1 Z-1.9 F200
G1 Z0 F200
G1 Z-2 F200
G1 Z0 F200
G1 Z-2.1 F200
G1 Z0 F200
G1 Z-2.2 F200
G1 Z0 F200
G1 Z-2.3 F200
G1 Z0 F200
G1 Z-2.4 F200
G1 Z0 F200
G1 Z-2.5 F200
G1 Z0 F200
G1 Z-2.6 F200
G1 Z0 F200
G1 Z-2.7 F200
G1 Z0 F200
G1 Z-2.8 F200
G1 Z0 F200
G1 Z-2.9 F200
G1 Z0 F200
G1 Z-3 F200
G1 Z0 F200
G1 Z-3.1 F200
G1 Z0 F200
G1 Z-3.2 F200
G1 Z0 F200
G1 Z-3.3 F200
G1 Z0 F200
G1 Z-3.4 F200
G1 Z0 F200
G1 Z-3.5 F200
G1 Z0 F200
G1 Z-3.6 F200
G1 Z0 F200
G1 Z-3.7 F200
G1 Z0 F200
G1 Z-3.8 F200
G1 Z0 F200
G1 Z-3.9 F200
G1 Z0 F200
G1 Z-4 F200
G1 Z0 F200

(m8)
G0 Z1
G0 X56.0951 Y18.0733
G1 Z-0.1 F200
G1 Z0 F200
G1 Z-0.2 F200
G1 Z0 F200
G1 Z-0.3 F200
G1 Z0 F200
G1 Z-0.4 F200
G1 Z0 F200
G1 Z-0.5 F200
G1 Z0 F200
G1 Z-0.6 F200
G1 Z0 F200
G1 Z-0.7 F200
G1 Z0 F200
G1 Z-0.8 F200
G1 Z0 F200
G1 Z-0.9 F200
G1 Z0 F200
G1 Z-1 F200
G1 Z0 F200
G1 Z-1.1 F200
G1 Z0 F200
G1 Z-1.2 F200
G1 Z0 F200
G1 Z-1.3 F200
G1 Z0 F200
G1 Z-1.4 F200
G1 Z0 F200
G1 Z-1.5 F200
G1 Z0 F200
G1 Z-1.6 F200
G1 Z0 F200
G1 Z-1.7 F200
G1 Z0 F200
G1 Z-1.8 F200
G1 Z0 F200
G1 Z-1.9 F200
G1 Z0 F200
G1 Z-2 F200
G1 Z0 F200
G1 Z-2.1 F200
G1 Z0 F200
G1 Z-2.2 F200
G1 Z0 F200
G1 Z-2.3 F200
G1 Z0 F200
G1 Z-2.4 F200
G1 Z0 F200
G1 Z-2.5 F200
G1 Z0 F200
G1 Z-2.6 F200
G1 Z0 F200
G1 Z-2.7 F200
G1 Z0 F200
G1 Z-2.8 F200
G1 Z0 F200
G1 Z-2.9 F200
G1 Z0 F200
G1 Z-3 F200
G1 Z0 F200
G1 Z-3.1 F200
G1 Z0 F200
G1 Z-3.2 F200
G1 Z0 F200
G1 Z-3.3 F200
G1 Z0 F200
G1 Z-3.4 F200
G1 Z0 F200
G1 Z-3.5 F200
G1 Z0 F200
G1 Z-3.6 F200
G1 Z0 F200
G1 Z-3.7 F200
G1 Z0 F200
G1 Z-3.8 F200
G1 Z0 F200
G1 Z-3.9 F200
G1 Z0 F200
G1 Z-4 F200
G1 Z0 F200

(no_hole)
G0 Z2
G0 X39.7626 Y56.9058
G1 Z-0.05 F200
G1 X39.7614 Y39.2411 F400
G1 X40.4263 Y39.2411
G1 X40.4263 Y56.9060
G1 X39.7614 Y56.9060
G1 X37.2225 Y59.4459 F400
G1 X37.2233 Y36.7005 F400
G1 X42.9670 Y36.7005
G1 X42.9670 Y59.4467
G1 X37.2233 Y59.4467
G1 X34.6824 Y60.3733 F400
G1 X34.6827 Y35.7741 F400
G3 X34.8045 Y35.1573 I1.6116 J0
G3 X35.1548 Y34.6319 I1.4898 J0.6167
G3 X35.6776 Y34.2842 I1.1395 J1.1395
G3 X36.2944 Y34.1598 I0.6167 J1.4898
G1 X43.8959 Y34.1598
G3 X44.5126 Y34.2842 I0 J1.6116
G3 X45.0355 Y34.6319 I-0.6167 J1.4898
G3 X45.3857 Y35.1573 I-1.1395 J1.1395
G3 X45.5076 Y35.7741 I-1.4898 J0.6167
G1 X45.5076 Y60.3730
G3 X45.3857 Y60.9898 I-1.6116 J0
G3 X45.0355 Y61.5126 I-1.4898 J-0.6167
G3 X44.5126 Y61.8629 I-1.1395 J-1.1395
G3 X43.8959 Y61.9847 I-0.6167 J-1.4898
G1 X36.2944 Y61.9847
G3 X35.6776 Y61.8629 I0 J-1.6116
G3 X35.1548 Y61.5126 I0.6167 J-1.4898
G3 X34.8045 Y60.9898 I1.1395 J-1.1395
G3 X34.6827 Y60.3730 I1.4898 J-0.6167
G0 Z2
G0 X39.7626 Y56.9058
G1 Z-0.1 F200
G1 X39.7614 Y39.2411 F400
G1 X40.4263 Y39.2411
G1 X40.4263 Y56.9060
G1 X39.7614 Y56.9060
G1 X37.2225 Y59.4459 F400
G1 X37.2233 Y36.7005 F400
G1 X42.9670 Y36.7005
G1 X42.9670 Y59.4467
G1 X37.2233 Y59.4467
G1 X34.6824 Y60.3733 F400
G1 X34.6827 Y35.7741 F400
G3 X34.8045 Y35.1573 I1.6116 J0
G3 X35.1548 Y34.6319 I1.4898 J0.6167
G3 X35.6776 Y34.2842 I1.1395 J1.1395
G3 X36.2944 Y34.1598 I0.6167 J1.4898
G1 X43.8959 Y34.1598
G3 X44.5126 Y34.2842 I0 J1.6116
G3 X45.0355 Y34.6319 I-0.6167 J1.4898
G3 X45.3857 Y35.1573 I-1.1395 J1.1395
G3 X45.5076 Y35.7741 I-1.4898 J0.6167
G1 X45.5076 Y60.3730
G3 X45.3857 Y60.9898 I-1.6116 J0
G3 X45.0355 Y61.5126 I-1.4898 J-0.6167
G3 X44.5126 Y61.8629 I-1.1395 J-1.1395
G3 X43.8959 Y61.9847 I-0.6167 J-1.4898
G1 X36.2944 Y61.9847
G3 X35.6776 Y61.8629 I0 J-1.6116
G3 X35.1548 Y61.5126 I0.6167 J-1.4898
G3 X34.8045 Y60.9898 I1.1395 J-1.1395
G3 X34.6827 Y60.3730 I1.4898 J-0.6167
G0 Z2
G0 X39.7626 Y56.9058
G1 Z-0.15 F200
G1 X39.7614 Y39.2411 F400
G1 X40.4263 Y39.2411
G1 X40.4263 Y56.9060
G1 X39.7614 Y56.9060
G1 X37.2225 Y59.4459 F400
G1 X37.2233 Y36.7005 F400
G1 X42.9670 Y36.7005
G1 X42.9670 Y59.4467
G1 X37.2233 Y59.4467
G1 X34.6824 Y60.3733 F400
G1 X34.6827 Y35.7741 F400
G3 X34.8045 Y35.1573 I1.6116 J0
G3 X35.1548 Y34.6319 I1.4898 J0.6167
G3 X35.6776 Y34.2842 I1.1395 J1.1395
G3 X36.2944 Y34.1598 I0.6167 J1.4898
G1 X43.8959 Y34.1598
G3 X44.5126 Y34.2842 I0 J1.6116
G3 X45.0355 Y34.6319 I-0.6167 J1.4898
G3 X45.3857 Y35.1573 I-1.1395 J1.1395
G3 X45.5076 Y35.7741 I-1.4898 J0.6167
G1 X45.5076 Y60.3730
G3 X45.3857 Y60.9898 I-1.6116 J0
G3 X45.0355 Y61.5126 I-1.4898 J-0.6167
G3 X44.5126 Y61.8629 I-1.1395 J-1.1395
G3 X43.8959 Y61.9847 I-0.6167 J-1.4898
G1 X36.2944 Y61.9847
G3 X35.6776 Y61.8629 I0 J-1.6116
G3 X35.1548 Y61.5126 I0.6167 J-1.4898
G3 X34.8045 Y60.9898 I1.1395 J-1.1395
G3 X34.6827 Y60.3730 I1.4898 J-0.6167
G0 Z2
G0 X39.7626 Y56.9058
G1 Z-0.2 F200
G1 X39.7614 Y39.2411 F400
G1 X40.4263 Y39.2411
G1 X40.4263 Y56.9060
G1 X39.7614 Y56.9060
G1 X37.2225 Y59.4459 F400
G1 X37.2233 Y36.7005 F400
G1 X42.9670 Y36.7005
G1 X42.9670 Y59.4467
G1 X37.2233 Y59.4467
G1 X34.6824 Y60.3733 F400
G1 X34.6827 Y35.7741 F400
G3 X34.8045 Y35.1573 I1.6116 J0
G3 X35.1548 Y34.6319 I1.4898 J0.6167
G3 X35.6776 Y34.2842 I1.1395 J1.1395
G3 X36.2944 Y34.1598 I0.6167 J1.4898
G1 X43.8959 Y34.1598
G3 X44.5126 Y34.2842 I0 J1.6116
G3 X45.0355 Y34.6319 I-0.6167 J1.4898
G3 X45.3857 Y35.1573 I-1.1395 J1.1395
G3 X45.5076 Y35.7741 I-1.4898 J0.6167
G1 X45.5076 Y60.3730
G3 X45.3857 Y60.9898 I-1.6116 J0
G3 X45.0355 Y61.5126 I-1.4898 J-0.6167
G3 X44.5126 Y61.8629 I-1.1395 J-1.1395
G3 X43.8959 Y61.9847 I-0.6167 J-1.4898
G1 X36.2944 Y61.9847
G3 X35.6776 Y61.8629 I0 J-1.6116
G3 X35.1548 Y61.5126 I0.6167 J-1.4898
G3 X34.8045 Y60.9898 I1.1395 J-1.1395
G3 X34.6827 Y60.3730 I1.4898 J-0.6167
G0 Z2
G0 X39.7626 Y56.9058
G1 Z-0.25 F200
G1 X39.7614 Y39.2411 F400
G1 X40.4263 Y39.2411
G1 X40.4263 Y56.9060
G1 X39.7614 Y56.9060
G1 X37.2225 Y59.4459 F400
G1 X37.2233 Y36.7005 F400
G1 X42.9670 Y36.7005
G1 X42.9670 Y59.4467
G1 X37.2233 Y59.4467
G1 X34.6824 Y60.3733 F400
G1 X34.6827 Y35.7741 F400
G3 X34.8045 Y35.1573 I1.6116 J0
G3 X35.1548 Y34.6319 I1.4898 J0.6167
G3 X35.6776 Y34.2842 I1.1395 J1.1395
G3 X36.2944 Y34.1598 I0.6167 J1.4898
G1 X43.8959 Y34.1598
G3 X44.5126 Y34.2842 I0 J1.6116
G3 X45.0355 Y34.6319 I-0.6167 J1.4898
G3 X45.3857 Y35.1573 I-1.1395 J1.1395
G3 X45.5076 Y35.7741 I-1.4898 J0.6167
G1 X45.5076 Y60.3730
G3 X45.3857 Y60.9898 I-1.6116 J0
G3 X45.0355 Y61.5126 I-1.4898 J-0.6167
G3 X44.5126 Y61.8629 I-1.1395 J-1.1395
G3 X43.8959 Y61.9847 I-0.6167 J-1.4898
G1 X36.2944 Y61.9847
G3 X35.6776 Y61.8629 I0 J-1.6116
G3 X35.1548 Y61.5126 I0.6167 J-1.4898
G3 X34.8045 Y60.9898 I1.1395 J-1.1395
G3 X34.6827 Y60.3730 I1.4898 J-0.6167
G0 Z2
G0 X39.7626 Y56.9058
G1 Z-0.3 F200
G1 X39.7614 Y39.2411 F400
G1 X40.4263 Y39.2411
G1 X40.4263 Y56.9060
G1 X39.7614 Y56.9060
G1 X37.2225 Y59.4459 F400
G1 X37.2233 Y36.7005 F400
G1 X42.9670 Y36.7005
G1 X42.9670 Y59.4467
G1 X37.2233 Y59.4467
G1 X34.6824 Y60.3733 F400
G1 X34.6827 Y35.7741 F400
G3 X34.8045 Y35.1573 I1.6116 J0
G3 X35.1548 Y34.6319 I1.4898 J0.6167
G3 X35.6776 Y34.2842 I1.1395 J1.1395
G3 X36.2944 Y34.1598 I0.6167 J1.4898
G1 X43.8959 Y34.1598
G3 X44.5126 Y34.2842 I0 J1.6116
G3 X45.0355 Y34.6319 I-0.6167 J1.4898
G3 X45.3857 Y35.1573 I-1.1395 J1.1395
G3 X45.5076 Y35.7741 I-1.4898 J0.6167
G1 X45.5076 Y60.3730
G3 X45.3857 Y60.9898 I-1.6116 J0
G3 X45.0355 Y61.5126 I-1.4898 J-0.6167
G3 X44.5126 Y61.8629 I-1.1395 J-1.1395
G3 X43.8959 Y61.9847 I-0.6167 J-1.4898
G1 X36.2944 Y61.9847
G3 X35.6776 Y61.8629 I0 J-1.6116
G3 X35.1548 Y61.5126 I0.6167 J-1.4898
G3 X34.8045 Y60.9898 I1.1395 J-1.1395
G3 X34.6827 Y60.3730 I1.4898 J-0.6167
G0 Z2
G0 X39.7626 Y56.9058
G1 Z-0.35 F200
G1 X39.7614 Y39.2411 F400
G1 X40.4263 Y39.2411
G1 X40.4263 Y56.9060
G1 X39.7614 Y56.9060
G1 X37.2225 Y59.4459 F400
G1 X37.2233 Y36.7005 F400
G1 X42.9670 Y36.7005
G1 X42.9670 Y59.4467
G1 X37.2233 Y59.4467
G1 X34.6824 Y60.3733 F400
G1 X34.6827 Y35.7741 F400
G3 X34.8045 Y35.1573 I1.6116 J0
G3 X35.1548 Y34.6319 I1.4898 J0.6167
G3 X35.6776 Y34.2842 I1.1395 J1.1395
G3 X36.2944 Y34.1598 I0.6167 J1.4898
G1 X43.8959 Y34.1598
G3 X44.5126 Y34.2842 I0 J1.6116
G3 X45.0355 Y34.6319 I-0.6167 J1.4898
G3 X45.3857 Y35.1573 I-1.1395 J1.1395
G3 X45.5076 Y35.7741 I-1.4898 J0.6167
G1 X45.5076 Y60.3730
G3 X45.3857 Y60.9898 I-1.6116 J0
G3 X45.0355 Y61.5126 I-1.4898 J-0.6167
G3 X44.5126 Y61.8629 I-1.1395 J-1.1395
G3 X43.8959 Y61.9847 I-0.6167 J-1.4898
G1 X36.2944 Y61.9847
G3 X35.6776 Y61.8629 I0 J-1.6116
G3 X35.1548 Y61.5126 I0.6167 J-1.4898
G3 X34.8045 Y60.9898 I1.1395 J-1.1395
G3 X34.6827 Y60.3730 I1.4898 J-0.6167
G0 Z2
G0 X39.7626 Y56.9058
G1 Z-0.4 F200
G1 X39.7614 Y39.2411 F400
G1 X40.4263 Y39.2411
G1 X40.4263 Y56.9060
G1 X39.7614 Y56.9060
G1 X37.2225 Y59.4459 F400
G1 X37.2233 Y36.7005 F400
G1 X42.9670 Y36.7005
G1 X42.9670 Y59.4467
G1 X37.2233 Y59.4467
G1 X34.6824 Y60.3733 F400
G1 X34.6827 Y35.7741 F400
G3 X34.8045 Y35.1573 I1.6116 J0
G3 X35.1548 Y34.6319 I1.4898 J0.6167
G3 X35.6776 Y34.2842 I1.1395 J1.1395
G3 X36.2944 Y34.1598 I0.6167 J1.4898
G1 X43.8959 Y34.1598
G3 X44.5126 Y34.2842 I0 J1.6116
G3 X45.0355 Y34.6319 I-0.6167 J1.4898
G3 X45.3857 Y35.1573 I-1.1395 J1.1395
G3 X45.5076 Y35.7741 I-1.4898 J0.6167
G1 X45.5076 Y60.3730
G3 X45.3857 Y60.9898 I-1.6116 J0
G3 X45.0355 Y61.5126 I-1.4898 J-0.6167
G3 X44.5126 Y61.8629 I-1.1395 J-1.1395
G3 X43.8959 Y61.9847 I-0.6167 J-1.4898
G1 X36.2944 Y61.9847
G3 X35.6776 Y61.8629 I0 J-1.6116
G3 X35.1548 Y61.5126 I0.6167 J-1.4898
G3 X34.8045 Y60.9898 I1.1395 J-1.1395
G3 X34.6827 Y60.3730 I1.4898 J-0.6167
G0 Z2
G0 X39.7626 Y56.9058
G1 Z-0.45 F200
G1 X39.7614 Y39.2411 F400
G1 X40.4263 Y39.2411
G1 X40.4263 Y56.9060
G1 X39.7614 Y56.9060
G1 X37.2225 Y59.4459 F400
G1 X37.2233 Y36.7005 F400
G1 X42.9670 Y36.7005
G1 X42.9670 Y59.4467
G1 X37.2233 Y59.4467
G1 X34.6824 Y60.3733 F400
G1 X34.6827 Y35.7741 F400
G3 X34.8045 Y35.1573 I1.6116 J0
G3 X35.1548 Y34.6319 I1.4898 J0.6167
G3 X35.6776 Y34.2842 I1.1395 J1.1395
G3 X36.2944 Y34.1598 I0.6167 J1.4898
G1 X43.8959 Y34.1598
G3 X44.5126 Y34.2842 I0 J1.6116
G3 X45.0355 Y34.6319 I-0.6167 J1.4898
G3 X45.3857 Y35.1573 I-1.1395 J1.1395
G3 X45.5076 Y35.7741 I-1.4898 J0.6167
G1 X45.5076 Y60.3730
G3 X45.3857 Y60.9898 I-1.6116 J0
G3 X45.0355 Y61.5126 I-1.4898 J-0.6167
G3 X44.5126 Y61.8629 I-1.1395 J-1.1395
G3 X43.8959 Y61.9847 I-0.6167 J-1.4898
G1 X36.2944 Y61.9847
G3 X35.6776 Y61.8629 I0 J-1.6116
G3 X35.1548 Y61.5126 I0.6167 J-1.4898
G3 X34.8045 Y60.9898 I1.1395 J-1.1395
G3 X34.6827 Y60.3730 I1.4898 J-0.6167
G0 Z2
G0 X39.7626 Y56.9058
G1 Z-0.5 F200
G1 X39.7614 Y39.2411 F400
G1 X40.4263 Y39.2411
G1 X40.4263 Y56.9060
G1 X39.7614 Y56.9060
G1 X37.2225 Y59.4459 F400
G1 X37.2233 Y36.7005 F400
G1 X42.9670 Y36.7005
G1 X42.9670 Y59.4467
G1 X37.2233 Y59.4467
G1 X34.6824 Y60.3733 F400
G1 X34.6827 Y35.7741 F400
G3 X34.8045 Y35.1573 I1.6116 J0
G3 X35.1548 Y34.6319 I1.4898 J0.6167
G3 X35.6776 Y34.2842 I1.1395 J1.1395
G3 X36.2944 Y34.1598 I0.6167 J1.4898
G1 X43.8959 Y34.1598
G3 X44.5126 Y34.2842 I0 J1.6116
G3 X45.0355 Y34.6319 I-0.6167 J1.4898
G3 X45.3857 Y35.1573 I-1.1395 J1.1395
G3 X45.5076 Y35.7741 I-1.4898 J0.6167
G1 X45.5076 Y60.3730
G3 X45.3857 Y60.9898 I-1.6116 J0
G3 X45.0355 Y61.5126 I-1.4898 J-0.6167
G3 X44.5126 Y61.8629 I-1.1395 J-1.1395
G3 X43.8959 Y61.9847 I-0.6167 J-1.4898
G1 X36.2944 Y61.9847
G3 X35.6776 Y61.8629 I0 J-1.6116
G3 X35.1548 Y61.5126 I0.6167 J-1.4898
G3 X34.8045 Y60.9898 I1.1395 J-1.1395
G3 X34.6827 Y60.3730 I1.4898 J-0.6167
G0 Z2
G0 X39.7626 Y56.9058
G1 Z-0.55 F200
G1 X39.7614 Y39.2411 F400
G1 X40.4263 Y39.2411
G1 X40.4263 Y56.9060
G1 X39.7614 Y56.9060
G1 X37.2225 Y59.4459 F400
G1 X37.2233 Y36.7005 F400
G1 X42.9670 Y36.7005
G1 X42.9670 Y59.4467
G1 X37.2233 Y59.4467
G1 X34.6824 Y60.3733 F400
G1 X34.6827 Y35.7741 F400
G3 X34.8045 Y35.1573 I1.6116 J0
G3 X35.1548 Y34.6319 I1.4898 J0.6167
G3 X35.6776 Y34.2842 I1.1395 J1.1395
G3 X36.2944 Y34.1598 I0.6167 J1.4898
G1 X43.8959 Y34.1598
G3 X44.5126 Y34.2842 I0 J1.6116
G3 X45.0355 Y34.6319 I-0.6167 J1.4898
G3 X45.3857 Y35.1573 I-1.1395 J1.1395
G3 X45.5076 Y35.7741 I-1.4898 J0.6167
G1 X45.5076 Y60.3730
G3 X45.3857 Y60.9898 I-1.6116 J0
G3 X45.0355 Y61.5126 I-1.4898 J-0.6167
G3 X44.5126 Y61.8629 I-1.1395 J-1.1395
G3 X43.8959 Y61.9847 I-0.6167 J-1.4898
G1 X36.2944 Y61.9847
G3 X35.6776 Y61.8629 I0 J-1.6116
G3 X35.1548 Y61.5126 I0.6167 J-1.4898
G3 X34.8045 Y60.9898 I1.1395 J-1.1395
G3 X34.6827 Y60.3730 I1.4898 J-0.6167
G0 Z2
G0 X39.7626 Y56.9058
G1 Z-0.6 F200
G1 X39.7614 Y39.2411 F400
G1 X40.4263 Y39.2411
G1 X40.4263 Y56.9060
G1 X39.7614 Y56.9060
G1 X37.2225 Y59.4459 F400
G1 X37.2233 Y36.7005 F400
G1 X42.9670 Y36.7005
G1 X42.9670 Y59.4467
G1 X37.2233 Y59.4467
G1 X34.6824 Y60.3733 F400
G1 X34.6827 Y35.7741 F400
G3 X34.8045 Y35.1573 I1.6116 J0
G3 X35.1548 Y34.6319 I1.4898 J0.6167
G3 X35.6776 Y34.2842 I1.1395 J1.1395
G3 X36.2944 Y34.1598 I0.6167 J1.4898
G1 X43.8959 Y34.1598
G3 X44.5126 Y34.2842 I0 J1.6116
G3 X45.0355 Y34.6319 I-0.6167 J1.4898
G3 X45.3857 Y35.1573 I-1.1395 J1.1395
G3 X45.5076 Y35.7741 I-1.4898 J0.6167
G1 X45.5076 Y60.3730
G3 X45.3857 Y60.9898 I-1.6116 J0
G3 X45.0355 Y61.5126 I-1.4898 J-0.6167
G3 X44.5126 Y61.8629 I-1.1395 J-1.1395
G3 X43.8959 Y61.9847 I-0.6167 J-1.4898
G1 X36.2944 Y61.9847
G3 X35.6776 Y61.8629 I0 J-1.6116
G3 X35.1548 Y61.5126 I0.6167 J-1.4898
G3 X34.8045 Y60.9898 I1.1395 J-1.1395
G3 X34.6827 Y60.3730 I1.4898 J-0.6167
G0 Z2
G0 X39.7626 Y56.9058
G1 Z-0.65 F200
G1 X39.7614 Y39.2411 F400
G1 X40.4263 Y39.2411
G1 X40.4263 Y56.9060
G1 X39.7614 Y56.9060
G1 X37.2225 Y59.4459 F400
G1 X37.2233 Y36.7005 F400
G1 X42.9670 Y36.7005
G1 X42.9670 Y59.4467
G1 X37.2233 Y59.4467
G1 X34.6824 Y60.3733 F400
G1 X34.6827 Y35.7741 F400
G3 X34.8045 Y35.1573 I1.6116 J0
G3 X35.1548 Y34.6319 I1.4898 J0.6167
G3 X35.6776 Y34.2842 I1.1395 J1.1395
G3 X36.2944 Y34.1598 I0.6167 J1.4898
G1 X43.8959 Y34.1598
G3 X44.5126 Y34.2842 I0 J1.6116
G3 X45.0355 Y34.6319 I-0.6167 J1.4898
G3 X45.3857 Y35.1573 I-1.1395 J1.1395
G3 X45.5076 Y35.7741 I-1.4898 J0.6167
G1 X45.5076 Y60.3730
G3 X45.3857 Y60.9898 I-1.6116 J0
G3 X45.0355 Y61.5126 I-1.4898 J-0.6167
G3 X44.5126 Y61.8629 I-1.1395 J-1.1395
G3 X43.8959 Y61.9847 I-0.6167 J-1.4898
G1 X36.2944 Y61.9847
G3 X35.6776 Y61.8629 I0 J-1.6116
G3 X35.1548 Y61.5126 I0.6167 J-1.4898
G3 X34.8045 Y60.9898 I1.1395 J-1.1395
G3 X34.6827 Y60.3730 I1.4898 J-0.6167
G0 Z2
G0 X39.7626 Y56.9058
G1 Z-0.7 F200
G1 X39.7614 Y39.2411 F400
G1 X40.4263 Y39.2411
G1 X40.4263 Y56.9060
G1 X39.7614 Y56.9060
G1 X37.2225 Y59.4459 F400
G1 X37.2233 Y36.7005 F400
G1 X42.9670 Y36.7005
G1 X42.9670 Y59.4467
G1 X37.2233 Y59.4467
G1 X34.6824 Y60.3733 F400
G1 X34.6827 Y35.7741 F400
G3 X34.8045 Y35.1573 I1.6116 J0
G3 X35.1548 Y34.6319 I1.4898 J0.6167
G3 X35.6776 Y34.2842 I1.1395 J1.1395
G3 X36.2944 Y34.1598 I0.6167 J1.4898
G1 X43.8959 Y34.1598
G3 X44.5126 Y34.2842 I0 J1.6116
G3 X45.0355 Y34.6319 I-0.6167 J1.4898
G3 X45.3857 Y35.1573 I-1.1395 J1.1395
G3 X45.5076 Y35.7741 I-1.4898 J0.6167
G1 X45.5076 Y60.3730
G3 X45.3857 Y60.9898 I-1.6116 J0
G3 X45.0355 Y61.5126 I-1.4898 J-0.6167
G3 X44.5126 Y61.8629 I-1.1395 J-1.1395
G3 X43.8959 Y61.9847 I-0.6167 J-1.4898
G1 X36.2944 Y61.9847
G3 X35.6776 Y61.8629 I0 J-1.6116
G3 X35.1548 Y61.5126 I0.6167 J-1.4898
G3 X34.8045 Y60.9898 I1.1395 J-1.1395
G3 X34.6827 Y60.3730 I1.4898 J-0.6167
G0 Z2
G0 X39.7626 Y56.9058
G1 Z-0.75 F200
G1 X39.7614 Y39.2411 F400
G1 X40.4263 Y39.2411
G1 X40.4263 Y56.9060
G1 X39.7614 Y56.9060
G1 X37.2225 Y59.4459 F400
G1 X37.2233 Y36.7005 F400
G1 X42.9670 Y36.7005
G1 X42.9670 Y59.4467
G1 X37.2233 Y59.4467
G1 X34.6824 Y60.3733 F400
G1 X34.6827 Y35.7741 F400
G3 X34.8045 Y35.1573 I1.6116 J0
G3 X35.1548 Y34.6319 I1.4898 J0.6167
G3 X35.6776 Y34.2842 I1.1395 J1.1395
G3 X36.2944 Y34.1598 I0.6167 J1.4898
G1 X43.8959 Y34.1598
G3 X44.5126 Y34.2842 I0 J1.6116
G3 X45.0355 Y34.6319 I-0.6167 J1.4898
G3 X45.3857 Y35.1573 I-1.1395 J1.1395
G3 X45.5076 Y35.7741 I-1.4898 J0.6167
G1 X45.5076 Y60.3730
G3 X45.3857 Y60.9898 I-1.6116 J0
G3 X45.0355 Y61.5126 I-1.4898 J-0.6167
G3 X44.5126 Y61.8629 I-1.1395 J-1.1395
G3 X43.8959 Y61.9847 I-0.6167 J-1.4898
G1 X36.2944 Y61.9847
G3 X35.6776 Y61.8629 I0 J-1.6116
G3 X35.1548 Y61.5126 I0.6167 J-1.4898
G3 X34.8045 Y60.9898 I1.1395 J-1.1395
G3 X34.6827 Y60.3730 I1.4898 J-0.6167
G0 Z2
G0 X39.7626 Y56.9058
G1 Z-0.8 F200
G1 X39.7614 Y39.2411 F400
G1 X40.4263 Y39.2411
G1 X40.4263 Y56.9060
G1 X39.7614 Y56.9060
G1 X37.2225 Y59.4459 F400
G1 X37.2233 Y36.7005 F400
G1 X42.9670 Y36.7005
G1 X42.9670 Y59.4467
G1 X37.2233 Y59.4467
G1 X34.6824 Y60.3733 F400
G1 X34.6827 Y35.7741 F400
G3 X34.8045 Y35.1573 I1.6116 J0
G3 X35.1548 Y34.6319 I1.4898 J0.6167
G3 X35.6776 Y34.2842 I1.1395 J1.1395
G3 X36.2944 Y34.1598 I0.6167 J1.4898
G1 X43.8959 Y34.1598
G3 X44.5126 Y34.2842 I0 J1.6116
G3 X45.0355 Y34.6319 I-0.6167 J1.4898
G3 X45.3857 Y35.1573 I-1.1395 J1.1395
G3 X45.5076 Y35.7741 I-1.4898 J0.6167
G1 X45.5076 Y60.3730
G3 X45.3857 Y60.9898 I-1.6116 J0
G3 X45.0355 Y61.5126 I-1.4898 J-0.6167
G3 X44.5126 Y61.8629 I-1.1395 J-1.1395
G3 X43.8959 Y61.9847 I-0.6167 J-1.4898
G1 X36.2944 Y61.9847
G3 X35.6776 Y61.8629 I0 J-1.6116
G3 X35.1548 Y61.5126 I0.6167 J-1.4898
G3 X34.8045 Y60.9898 I1.1395 J-1.1395
G3 X34.6827 Y60.3730 I1.4898 J-0.6167
G0 Z2
G0 X39.7626 Y56.9058
G1 Z-0.85 F200
G1 X39.7614 Y39.2411 F400
G1 X40.4263 Y39.2411
G1 X40.4263 Y56.9060
G1 X39.7614 Y56.9060
G1 X37.2225 Y59.4459 F400
G1 X37.2233 Y36.7005 F400
G1 X42.9670 Y36.7005
G1 X42.9670 Y59.4467
G1 X37.2233 Y59.4467
G1 X34.6824 Y60.3733 F400
G1 X34.6827 Y35.7741 F400
G3 X34.8045 Y35.1573 I1.6116 J0
G3 X35.1548 Y34.6319 I1.4898 J0.6167
G3 X35.6776 Y34.2842 I1.1395 J1.1395
G3 X36.2944 Y34.1598 I0.6167 J1.4898
G1 X43.8959 Y34.1598
G3 X44.5126 Y34.2842 I0 J1.6116
G3 X45.0355 Y34.6319 I-0.6167 J1.4898
G3 X45.3857 Y35.1573 I-1.1395 J1.1395
G3 X45.5076 Y35.7741 I-1.4898 J0.6167
G1 X45.5076 Y60.3730
G3 X45.3857 Y60.9898 I-1.6116 J0
G3 X45.0355 Y61.5126 I-1.4898 J-0.6167
G3 X44.5126 Y61.8629 I-1.1395 J-1.1395
G3 X43.8959 Y61.9847 I-0.6167 J-1.4898
G1 X36.2944 Y61.9847
G3 X35.6776 Y61.8629 I0 J-1.6116
G3 X35.1548 Y61.5126 I0.6167 J-1.4898
G3 X34.8045 Y60.9898 I1.1395 J-1.1395
G3 X34.6827 Y60.3730 I1.4898 J-0.6167
G0 Z2
G0 X39.7626 Y56.9058
G1 Z-0.9 F200
G1 X39.7614 Y39.2411 F400
G1 X40.4263 Y39.2411
G1 X40.4263 Y56.9060
G1 X39.7614 Y56.9060
G1 X37.2225 Y59.4459 F400
G1 X37.2233 Y36.7005 F400
G1 X42.9670 Y36.7005
G1 X42.9670 Y59.4467
G1 X37.2233 Y59.4467
G1 X34.6824 Y60.3733 F400
G1 X34.6827 Y35.7741 F400
G3 X34.8045 Y35.1573 I1.6116 J0
G3 X35.1548 Y34.6319 I1.4898 J0.6167
G3 X35.6776 Y34.2842 I1.1395 J1.1395
G3 X36.2944 Y34.1598 I0.6167 J1.4898
G1 X43.8959 Y34.1598
G3 X44.5126 Y34.2842 I0 J1.6116
G3 X45.0355 Y34.6319 I-0.6167 J1.4898
G3 X45.3857 Y35.1573 I-1.1395 J1.1395
G3 X45.5076 Y35.7741 I-1.4898 J0.6167
G1 X45.5076 Y60.3730
G3 X45.3857 Y60.9898 I-1.6116 J0
G3 X45.0355 Y61.5126 I-1.4898 J-0.6167
G3 X44.5126 Y61.8629 I-1.1395 J-1.1395
G3 X43.8959 Y61.9847 I-0.6167 J-1.4898
G1 X36.2944 Y61.9847
G3 X35.6776 Y61.8629 I0 J-1.6116
G3 X35.1548 Y61.5126 I0.6167 J-1.4898
G3 X34.8045 Y60.9898 I1.1395 J-1.1395
G3 X34.6827 Y60.3730 I1.4898 J-0.6167
G0 Z2
G0 X39.7626 Y56.9058
G1 Z-0.95 F200
G1 X39.7614 Y39.2411 F400
G1 X40.4263 Y39.2411
G1 X40.4263 Y56.9060
G1 X39.7614 Y56.9060
G1 X37.2225 Y59.4459 F400
G1 X37.2233 Y36.7005 F400
G1 X42.9670 Y36.7005
G1 X42.9670 Y59.4467
G1 X37.2233 Y59.4467
G1 X34.6824 Y60.3733 F400
G1 X34.6827 Y35.7741 F400
G3 X34.8045 Y35.1573 I1.6116 J0
G3 X35.1548 Y34.6319 I1.4898 J0.6167
G3 X35.6776 Y34.2842 I1.1395 J1.1395
G3 X36.2944 Y34.1598 I0.6167 J1.4898
G1 X43.8959 Y34.1598
G3 X44.5126 Y34.2842 I0 J1.6116
G3 X45.0355 Y34.6319 I-0.6167 J1.4898
G3 X45.3857 Y35.1573 I-1.1395 J1.1395
G3 X45.5076 Y35.7741 I-1.4898 J0.6167
G1 X45.5076 Y60.3730
G3 X45.3857 Y60.9898 I-1.6116 J0
G3 X45.0355 Y61.5126 I-1.4898 J-0.6167
G3 X44.5126 Y61.8629 I-1.1395 J-1.1395
G3 X43.8959 Y61.9847 I-0.6167 J-1.4898
G1 X36.2944 Y61.9847
G3 X35.6776 Y61.8629 I0 J-1.6116
G3 X35.1548 Y61.5126 I0.6167 J-1.4898
G3 X34.8045 Y60.9898 I1.1395 J-1.1395
G3 X34.6827 Y60.3730 I1.4898 J-0.6167
G0 Z2
G0 X39.7626 Y56.9058
G1 Z-1 F200
G1 X39.7614 Y39.2411 F400
G1 X40.4263 Y39.2411
G1 X40.4263 Y56.9060
G1 X39.7614 Y56.9060
G1 X37.2225 Y59.4459 F400
G1 X37.2233 Y36.7005 F400
G1 X42.9670 Y36.7005
G1 X42.9670 Y59.4467
G1 X37.2233 Y59.4467
G1 X34.6824 Y60.3733 F400
G1 X34.6827 Y35.7741 F400
G3 X34.8045 Y35.1573 I1.6116 J0
G3 X35.1548 Y34.6319 I1.4898 J0.6167
G3 X35.6776 Y34.2842 I1.1395 J1.1395
G3 X36.2944 Y34.1598 I0.6167 J1.4898
G1 X43.8959 Y34.1598
G3 X44.5126 Y34.2842 I0 J1.6116
G3 X45.0355 Y34.6319 I-0.6167 J1.4898
G3 X45.3857 Y35.1573 I-1.1395 J1.1395
G3 X45.5076 Y35.7741 I-1.4898 J0.6167
G1 X45.5076 Y60.3730
G3 X45.3857 Y60.9898 I-1.6116 J0
G3 X45.0355 Y61.5126 I-1.4898 J-0.6167
G3 X44.5126 Y61.8629 I-1.1395 J-1.1395
G3 X43.8959 Y61.9847 I-0.6167 J-1.4898
G1 X36.2944 Y61.9847
G3 X35.6776 Y61.8629 I0 J-1.6116
G3 X35.1548 Y61.5126 I0.6167 J-1.4898
G3 X34.8045 Y60.9898 I1.1395 J-1.1395
G3 X34.6827 Y60.3730 I1.4898 J-0.6167
G0 Z2
G0 X39.7626 Y56.9058
G1 Z-1.05 F200
G1 X39.7614 Y39.2411 F400
G1 X40.4263 Y39.2411
G1 X40.4263 Y56.9060
G1 X39.7614 Y56.9060
G1 X37.2225 Y59.4459 F400
G1 X37.2233 Y36.7005 F400
G1 X42.9670 Y36.7005
G1 X42.9670 Y59.4467
G1 X37.2233 Y59.4467
G1 X34.6824 Y60.3733 F400
G1 X34.6827 Y35.7741 F400
G3 X34.8045 Y35.1573 I1.6116 J0
G3 X35.1548 Y34.6319 I1.4898 J0.6167
G3 X35.6776 Y34.2842 I1.1395 J1.1395
G3 X36.2944 Y34.1598 I0.6167 J1.4898
G1 X43.8959 Y34.1598
G3 X44.5126 Y34.2842 I0 J1.6116
G3 X45.0355 Y34.6319 I-0.6167 J1.4898
G3 X45.3857 Y35.1573 I-1.1395 J1.1395
G3 X45.5076 Y35.7741 I-1.4898 J0.6167
G1 X45.5076 Y60.3730
G3 X45.3857 Y60.9898 I-1.6116 J0
G3 X45.0355 Y61.5126 I-1.4898 J-0.6167
G3 X44.5126 Y61.8629 I-1.1395 J-1.1395
G3 X43.8959 Y61.9847 I-0.6167 J-1.4898
G1 X36.2944 Y61.9847
G3 X35.6776 Y61.8629 I0 J-1.6116
G3 X35.1548 Y61.5126 I0.6167 J-1.4898
G3 X34.8045 Y60.9898 I1.1395 J-1.1395
G3 X34.6827 Y60.3730 I1.4898 J-0.6167
G0 Z2
G0 X39.7626 Y56.9058
G1 Z-1.1 F200
G1 X39.7614 Y39.2411 F400
G1 X40.4263 Y39.2411
G1 X40.4263 Y56.9060
G1 X39.7614 Y56.9060
G1 X37.2225 Y59.4459 F400
G1 X37.2233 Y36.7005 F400
G1 X42.9670 Y36.7005
G1 X42.9670 Y59.4467
G1 X37.2233 Y59.4467
G1 X34.6824 Y60.3733 F400
G1 X34.6827 Y35.7741 F400
G3 X34.8045 Y35.1573 I1.6116 J0
G3 X35.1548 Y34.6319 I1.4898 J0.6167
G3 X35.6776 Y34.2842 I1.1395 J1.1395
G3 X36.2944 Y34.1598 I0.6167 J1.4898
G1 X43.8959 Y34.1598
G3 X44.5126 Y34.2842 I0 J1.6116
G3 X45.0355 Y34.6319 I-0.6167 J1.4898
G3 X45.3857 Y35.1573 I-1.1395 J1.1395
G3 X45.5076 Y35.7741 I-1.4898 J0.6167
G1 X45.5076 Y60.3730
G3 X45.3857 Y60.9898 I-1.6116 J0
G3 X45.0355 Y61.5126 I-1.4898 J-0.6167
G3 X44.5126 Y61.8629 I-1.1395 J-1.1395
G3 X43.8959 Y61.9847 I-0.6167 J-1.4898
G1 X36.2944 Y61.9847
G3 X35.6776 Y61.8629 I0 J-1.6116
G3 X35.1548 Y61.5126 I0.6167 J-1.4898
G3 X34.8045 Y60.9898 I1.1395 J-1.1395
G3 X34.6827 Y60.3730 I1.4898 J-0.6167
G0 Z2
G0 X39.7626 Y56.9058
G1 Z-1.15 F200
G1 X39.7614 Y39.2411 F400
G1 X40.4263 Y39.2411
G1 X40.4263 Y56.9060
G1 X39.7614 Y56.9060
G1 X37.2225 Y59.4459 F400
G1 X37.2233 Y36.7005 F400
G1 X42.9670 Y36.7005
G1 X42.9670 Y59.4467
G1 X37.2233 Y59.4467
G1 X34.6824 Y60.3733 F400
G1 X34.6827 Y35.7741 F400
G3 X34.8045 Y35.1573 I1.6116 J0
G3 X35.1548 Y34.6319 I1.4898 J0.6167
G3 X35.6776 Y34.2842 I1.1395 J1.1395
G3 X36.2944 Y34.1598 I0.6167 J1.4898
G1 X43.8959 Y34.1598
G3 X44.5126 Y34.2842 I0 J1.6116
G3 X45.0355 Y34.6319 I-0.6167 J1.4898
G3 X45.3857 Y35.1573 I-1.1395 J1.1395
G3 X45.5076 Y35.7741 I-1.4898 J0.6167
G1 X45.5076 Y60.3730
G3 X45.3857 Y60.9898 I-1.6116 J0
G3 X45.0355 Y61.5126 I-1.4898 J-0.6167
G3 X44.5126 Y61.8629 I-1.1395 J-1.1395
G3 X43.8959 Y61.9847 I-0.6167 J-1.4898
G1 X36.2944 Y61.9847
G3 X35.6776 Y61.8629 I0 J-1.6116
G3 X35.1548 Y61.5126 I0.6167 J-1.4898
G3 X34.8045 Y60.9898 I1.1395 J-1.1395
G3 X34.6827 Y60.3730 I1.4898 J-0.6167
G0 Z2
G0 X39.7626 Y56.9058
G1 Z-1.2 F200
G1 X39.7614 Y39.2411 F400
G1 X40.4263 Y39.2411
G1 X40.4263 Y56.9060
G1 X39.7614 Y56.9060
G1 X37.2225 Y59.4459 F400
G1 X37.2233 Y36.7005 F400
G1 X42.9670 Y36.7005
G1 X42.9670 Y59.4467
G1 X37.2233 Y59.4467
G1 X34.6824 Y60.3733 F400
G1 X34.6827 Y35.7741 F400
G3 X34.8045 Y35.1573 I1.6116 J0
G3 X35.1548 Y34.6319 I1.4898 J0.6167
G3 X35.6776 Y34.2842 I1.1395 J1.1395
G3 X36.2944 Y34.1598 I0.6167 J1.4898
G1 X43.8959 Y34.1598
G3 X44.5126 Y34.2842 I0 J1.6116
G3 X45.0355 Y34.6319 I-0.6167 J1.4898
G3 X45.3857 Y35.1573 I-1.1395 J1.1395
G3 X45.5076 Y35.7741 I-1.4898 J0.6167
G1 X45.5076 Y60.3730
G3 X45.3857 Y60.9898 I-1.6116 J0
G3 X45.0355 Y61.5126 I-1.4898 J-0.6167
G3 X44.5126 Y61.8629 I-1.1395 J-1.1395
G3 X43.8959 Y61.9847 I-0.6167 J-1.4898
G1 X36.2944 Y61.9847
G3 X35.6776 Y61.8629 I0 J-1.6116
G3 X35.1548 Y61.5126 I0.6167 J-1.4898
G3 X34.8045 Y60.9898 I1.1395 J-1.1395
G3 X34.6827 Y60.3730 I1.4898 J-0.6167
G0 Z2
G0 X39.7626 Y56.9058
G1 Z-1.25 F200
G1 X39.7614 Y39.2411 F400
G1 X40.4263 Y39.2411
G1 X40.4263 Y56.9060
G1 X39.7614 Y56.9060
G1 X37.2225 Y59.4459 F400
G1 X37.2233 Y36.7005 F400
G1 X42.9670 Y36.7005
G1 X42.9670 Y59.4467
G1 X37.2233 Y59.4467
G1 X34.6824 Y60.3733 F400
G1 X34.6827 Y35.7741 F400
G3 X34.8045 Y35.1573 I1.6116 J0
G3 X35.1548 Y34.6319 I1.4898 J0.6167
G3 X35.6776 Y34.2842 I1.1395 J1.1395
G3 X36.2944 Y34.1598 I0.6167 J1.4898
G1 X43.8959 Y34.1598
G3 X44.5126 Y34.2842 I0 J1.6116
G3 X45.0355 Y34.6319 I-0.6167 J1.4898
G3 X45.3857 Y35.1573 I-1.1395 J1.1395
G3 X45.5076 Y35.7741 I-1.4898 J0.6167
G1 X45.5076 Y60.3730
G3 X45.3857 Y60.9898 I-1.6116 J0
G3 X45.0355 Y61.5126 I-1.4898 J-0.6167
G3 X44.5126 Y61.8629 I-1.1395 J-1.1395
G3 X43.8959 Y61.9847 I-0.6167 J-1.4898
G1 X36.2944 Y61.9847
G3 X35.6776 Y61.8629 I0 J-1.6116
G3 X35.1548 Y61.5126 I0.6167 J-1.4898
G3 X34.8045 Y60.9898 I1.1395 J-1.1395
G3 X34.6827 Y60.3730 I1.4898 J-0.6167
G0 Z2
G0 X39.7626 Y56.9058
G1 Z-1.3 F200
G1 X39.7614 Y39.2411 F400
G1 X40.4263 Y39.2411
G1 X40.4263 Y56.9060
G1 X39.7614 Y56.9060
G1 X37.2225 Y59.4459 F400
G1 X37.2233 Y36.7005 F400
G1 X42.9670 Y36.7005
G1 X42.9670 Y59.4467
G1 X37.2233 Y59.4467
G1 X34.6824 Y60.3733 F400
G1 X34.6827 Y35.7741 F400
G3 X34.8045 Y35.1573 I1.6116 J0
G3 X35.1548 Y34.6319 I1.4898 J0.6167
G3 X35.6776 Y34.2842 I1.1395 J1.1395
G3 X36.2944 Y34.1598 I0.6167 J1.4898
G1 X43.8959 Y34.1598
G3 X44.5126 Y34.2842 I0 J1.6116
G3 X45.0355 Y34.6319 I-0.6167 J1.4898
G3 X45.3857 Y35.1573 I-1.1395 J1.1395
G3 X45.5076 Y35.7741 I-1.4898 J0.6167
G1 X45.5076 Y60.3730
G3 X45.3857 Y60.9898 I-1.6116 J0
G3 X45.0355 Y61.5126 I-1.4898 J-0.6167
G3 X44.5126 Y61.8629 I-1.1395 J-1.1395
G3 X43.8959 Y61.9847 I-0.6167 J-1.4898
G1 X36.2944 Y61.9847
G3 X35.6776 Y61.8629 I0 J-1.6116
G3 X35.1548 Y61.5126 I0.6167 J-1.4898
G3 X34.8045 Y60.9898 I1.1395 J-1.1395
G3 X34.6827 Y60.3730 I1.4898 J-0.6167
G0 Z2
G0 X39.7626 Y56.9058
G1 Z-1.35 F200
G1 X39.7614 Y39.2411 F400
G1 X40.4263 Y39.2411
G1 X40.4263 Y56.9060
G1 X39.7614 Y56.9060
G1 X37.2225 Y59.4459 F400
G1 X37.2233 Y36.7005 F400
G1 X42.9670 Y36.7005
G1 X42.9670 Y59.4467
G1 X37.2233 Y59.4467
G1 X34.6824 Y60.3733 F400
G1 X34.6827 Y35.7741 F400
G3 X34.8045 Y35.1573 I1.6116 J0
G3 X35.1548 Y34.6319 I1.4898 J0.6167
G3 X35.6776 Y34.2842 I1.1395 J1.1395
G3 X36.2944 Y34.1598 I0.6167 J1.4898
G1 X43.8959 Y34.1598
G3 X44.5126 Y34.2842 I0 J1.6116
G3 X45.0355 Y34.6319 I-0.6167 J1.4898
G3 X45.3857 Y35.1573 I-1.1395 J1.1395
G3 X45.5076 Y35.7741 I-1.4898 J0.6167
G1 X45.5076 Y60.3730
G3 X45.3857 Y60.9898 I-1.6116 J0
G3 X45.0355 Y61.5126 I-1.4898 J-0.6167
G3 X44.5126 Y61.8629 I-1.1395 J-1.1395
G3 X43.8959 Y61.9847 I-0.6167 J-1.4898
G1 X36.2944 Y61.9847
G3 X35.6776 Y61.8629 I0 J-1.6116
G3 X35.1548 Y61.5126 I0.6167 J-1.4898
G3 X34.8045 Y60.9898 I1.1395 J-1.1395
G3 X34.6827 Y60.3730 I1.4898 J-0.6167
G0 Z2
G0 X39.7626 Y56.9058
G1 Z-1.4 F200
G1 X39.7614 Y39.2411 F400
G1 X40.4263 Y39.2411
G1 X40.4263 Y56.9060
G1 X39.7614 Y56.9060
G1 X37.2225 Y59.4459 F400
G1 X37.2233 Y36.7005 F400
G1 X42.9670 Y36.7005
G1 X42.9670 Y59.4467
G1 X37.2233 Y59.4467
G1 X34.6824 Y60.3733 F400
G1 X34.6827 Y35.7741 F400
G3 X34.8045 Y35.1573 I1.6116 J0
G3 X35.1548 Y34.6319 I1.4898 J0.6167
G3 X35.6776 Y34.2842 I1.1395 J1.1395
G3 X36.2944 Y34.1598 I0.6167 J1.4898
G1 X43.8959 Y34.1598
G3 X44.5126 Y34.2842 I0 J1.6116
G3 X45.0355 Y34.6319 I-0.6167 J1.4898
G3 X45.3857 Y35.1573 I-1.1395 J1.1395
G3 X45.5076 Y35.7741 I-1.4898 J0.6167
G1 X45.5076 Y60.3730
G3 X45.3857 Y60.9898 I-1.6116 J0
G3 X45.0355 Y61.5126 I-1.4898 J-0.6167
G3 X44.5126 Y61.8629 I-1.1395 J-1.1395
G3 X43.8959 Y61.9847 I-0.6167 J-1.4898
G1 X36.2944 Y61.9847
G3 X35.6776 Y61.8629 I0 J-1.6116
G3 X35.1548 Y61.5126 I0.6167 J-1.4898
G3 X34.8045 Y60.9898 I1.1395 J-1.1395
G3 X34.6827 Y60.3730 I1.4898 J-0.6167
G0 Z2
G0 X39.7626 Y56.9058
G1 Z-1.45 F200
G1 X39.7614 Y39.2411 F400
G1 X40.4263 Y39.2411
G1 X40.4263 Y56.9060
G1 X39.7614 Y56.9060
G1 X37.2225 Y59.4459 F400
G1 X37.2233 Y36.7005 F400
G1 X42.9670 Y36.7005
G1 X42.9670 Y59.4467
G1 X37.2233 Y59.4467
G1 X34.6824 Y60.3733 F400
G1 X34.6827 Y35.7741 F400
G3 X34.8045 Y35.1573 I1.6116 J0
G3 X35.1548 Y34.6319 I1.4898 J0.6167
G3 X35.6776 Y34.2842 I1.1395 J1.1395
G3 X36.2944 Y34.1598 I0.6167 J1.4898
G1 X43.8959 Y34.1598
G3 X44.5126 Y34.2842 I0 J1.6116
G3 X45.0355 Y34.6319 I-0.6167 J1.4898
G3 X45.3857 Y35.1573 I-1.1395 J1.1395
G3 X45.5076 Y35.7741 I-1.4898 J0.6167
G1 X45.5076 Y60.3730
G3 X45.3857 Y60.9898 I-1.6116 J0
G3 X45.0355 Y61.5126 I-1.4898 J-0.6167
G3 X44.5126 Y61.8629 I-1.1395 J-1.1395
G3 X43.8959 Y61.9847 I-0.6167 J-1.4898
G1 X36.2944 Y61.9847
G3 X35.6776 Y61.8629 I0 J-1.6116
G3 X35.1548 Y61.5126 I0.6167 J-1.4898
G3 X34.8045 Y60.9898 I1.1395 J-1.1395
G3 X34.6827 Y60.3730 I1.4898 J-0.6167
G0 Z2
G0 X39.7626 Y56.9058
G1 Z-1.5 F200
G1 X39.7614 Y39.2411 F400
G1 X40.4263 Y39.2411
G1 X40.4263 Y56.9060
G1 X39.7614 Y56.9060
G1 X37.2225 Y59.4459 F400
G1 X37.2233 Y36.7005 F400
G1 X42.9670 Y36.7005
G1 X42.9670 Y59.4467
G1 X37.2233 Y59.4467
G1 X34.6824 Y60.3733 F400
G1 X34.6827 Y35.7741 F400
G3 X34.8045 Y35.1573 I1.6116 J0
G3 X35.1548 Y34.6319 I1.4898 J0.6167
G3 X35.6776 Y34.2842 I1.1395 J1.1395
G3 X36.2944 Y34.1598 I0.6167 J1.4898
G1 X43.8959 Y34.1598
G3 X44.5126 Y34.2842 I0 J1.6116
G3 X45.0355 Y34.6319 I-0.6167 J1.4898
G3 X45.3857 Y35.1573 I-1.1395 J1.1395
G3 X45.5076 Y35.7741 I-1.4898 J0.6167
G1 X45.5076 Y60.3730
G3 X45.3857 Y60.9898 I-1.6116 J0
G3 X45.0355 Y61.5126 I-1.4898 J-0.6167
G3 X44.5126 Y61.8629 I-1.1395 J-1.1395
G3 X43.8959 Y61.9847 I-0.6167 J-1.4898
G1 X36.2944 Y61.9847
G3 X35.6776 Y61.8629 I0 J-1.6116
G3 X35.1548 Y61.5126 I0.6167 J-1.4898
G3 X34.8045 Y60.9898 I1.1395 J-1.1395
G3 X34.6827 Y60.3730 I1.4898 J-0.6167
G0 Z2
G0 X39.7626 Y56.9058
G1 Z-1.55 F200
G1 X39.7614 Y39.2411 F400
G1 X40.4263 Y39.2411
G1 X40.4263 Y56.9060
G1 X39.7614 Y56.9060
G1 X37.2225 Y59.4459 F400
G1 X37.2233 Y36.7005 F400
G1 X42.9670 Y36.7005
G1 X42.9670 Y59.4467
G1 X37.2233 Y59.4467
G1 X34.6824 Y60.3733 F400
G1 X34.6827 Y35.7741 F400
G3 X34.8045 Y35.1573 I1.6116 J0
G3 X35.1548 Y34.6319 I1.4898 J0.6167
G3 X35.6776 Y34.2842 I1.1395 J1.1395
G3 X36.2944 Y34.1598 I0.6167 J1.4898
G1 X43.8959 Y34.1598
G3 X44.5126 Y34.2842 I0 J1.6116
G3 X45.0355 Y34.6319 I-0.6167 J1.4898
G3 X45.3857 Y35.1573 I-1.1395 J1.1395
G3 X45.5076 Y35.7741 I-1.4898 J0.6167
G1 X45.5076 Y60.3730
G3 X45.3857 Y60.9898 I-1.6116 J0
G3 X45.0355 Y61.5126 I-1.4898 J-0.6167
G3 X44.5126 Y61.8629 I-1.1395 J-1.1395
G3 X43.8959 Y61.9847 I-0.6167 J-1.4898
G1 X36.2944 Y61.9847
G3 X35.6776 Y61.8629 I0 J-1.6116
G3 X35.1548 Y61.5126 I0.6167 J-1.4898
G3 X34.8045 Y60.9898 I1.1395 J-1.1395
G3 X34.6827 Y60.3730 I1.4898 J-0.6167
G0 Z2
G0 X39.7626 Y56.9058
G1 Z-1.6 F200
G1 X39.7614 Y39.2411 F400
G1 X40.4263 Y39.2411
G1 X40.4263 Y56.9060
G1 X39.7614 Y56.9060
G1 X37.2225 Y59.4459 F400
G1 X37.2233 Y36.7005 F400
G1 X42.9670 Y36.7005
G1 X42.9670 Y59.4467
G1 X37.2233 Y59.4467
G1 X34.6824 Y60.3733 F400
G1 X34.6827 Y35.7741 F400
G3 X34.8045 Y35.1573 I1.6116 J0
G3 X35.1548 Y34.6319 I1.4898 J0.6167
G3 X35.6776 Y34.2842 I1.1395 J1.1395
G3 X36.2944 Y34.1598 I0.6167 J1.4898
G1 X43.8959 Y34.1598
G3 X44.5126 Y34.2842 I0 J1.6116
G3 X45.0355 Y34.6319 I-0.6167 J1.4898
G3 X45.3857 Y35.1573 I-1.1395 J1.1395
G3 X45.5076 Y35.7741 I-1.4898 J0.6167
G1 X45.5076 Y60.3730
G3 X45.3857 Y60.9898 I-1.6116 J0
G3 X45.0355 Y61.5126 I-1.4898 J-0.6167
G3 X44.5126 Y61.8629 I-1.1395 J-1.1395
G3 X43.8959 Y61.9847 I-0.6167 J-1.4898
G1 X36.2944 Y61.9847
G3 X35.6776 Y61.8629 I0 J-1.6116
G3 X35.1548 Y61.5126 I0.6167 J-1.4898
G3 X34.8045 Y60.9898 I1.1395 J-1.1395
G3 X34.6827 Y60.3730 I1.4898 J-0.6167
G0 Z2
G0 X39.7626 Y56.9058
G1 Z-1.65 F200
G1 X39.7614 Y39.2411 F400
G1 X40.4263 Y39.2411
G1 X40.4263 Y56.9060
G1 X39.7614 Y56.9060
G1 X37.2225 Y59.4459 F400
G1 X37.2233 Y36.7005 F400
G1 X42.9670 Y36.7005
G1 X42.9670 Y59.4467
G1 X37.2233 Y59.4467
G1 X34.6824 Y60.3733 F400
G1 X34.6827 Y35.7741 F400
G3 X34.8045 Y35.1573 I1.6116 J0
G3 X35.1548 Y34.6319 I1.4898 J0.6167
G3 X35.6776 Y34.2842 I1.1395 J1.1395
G3 X36.2944 Y34.1598 I0.6167 J1.4898
G1 X43.8959 Y34.1598
G3 X44.5126 Y34.2842 I0 J1.6116
G3 X45.0355 Y34.6319 I-0.6167 J1.4898
G3 X45.3857 Y35.1573 I-1.1395 J1.1395
G3 X45.5076 Y35.7741 I-1.4898 J0.6167
G1 X45.5076 Y60.3730
G3 X45.3857 Y60.9898 I-1.6116 J0
G3 X45.0355 Y61.5126 I-1.4898 J-0.6167
G3 X44.5126 Y61.8629 I-1.1395 J-1.1395
G3 X43.8959 Y61.9847 I-0.6167 J-1.4898
G1 X36.2944 Y61.9847
G3 X35.6776 Y61.8629 I0 J-1.6116
G3 X35.1548 Y61.5126 I0.6167 J-1.4898
G3 X34.8045 Y60.9898 I1.1395 J-1.1395
G3 X34.6827 Y60.3730 I1.4898 J-0.6167
G0 Z2
G0 X39.7626 Y56.9058
G1 Z-1.7 F200
G1 X39.7614 Y39.2411 F400
G1 X40.4263 Y39.2411
G1 X40.4263 Y56.9060
G1 X39.7614 Y56.9060
G1 X37.2225 Y59.4459 F400
G1 X37.2233 Y36.7005 F400
G1 X42.9670 Y36.7005
G1 X42.9670 Y59.4467
G1 X37.2233 Y59.4467
G1 X34.6824 Y60.3733 F400
G1 X34.6827 Y35.7741 F400
G3 X34.8045 Y35.1573 I1.6116 J0
G3 X35.1548 Y34.6319 I1.4898 J0.6167
G3 X35.6776 Y34.2842 I1.1395 J1.1395
G3 X36.2944 Y34.1598 I0.6167 J1.4898
G1 X43.8959 Y34.1598
G3 X44.5126 Y34.2842 I0 J1.6116
G3 X45.0355 Y34.6319 I-0.6167 J1.4898
G3 X45.3857 Y35.1573 I-1.1395 J1.1395
G3 X45.5076 Y35.7741 I-1.4898 J0.6167
G1 X45.5076 Y60.3730
G3 X45.3857 Y60.9898 I-1.6116 J0
G3 X45.0355 Y61.5126 I-1.4898 J-0.6167
G3 X44.5126 Y61.8629 I-1.1395 J-1.1395
G3 X43.8959 Y61.9847 I-0.6167 J-1.4898
G1 X36.2944 Y61.9847
G3 X35.6776 Y61.8629 I0 J-1.6116
G3 X35.1548 Y61.5126 I0.6167 J-1.4898
G3 X34.8045 Y60.9898 I1.1395 J-1.1395
G3 X34.6827 Y60.3730 I1.4898 J-0.6167
G0 Z2
G0 X39.7626 Y56.9058
G1 Z-1.75 F200
G1 X39.7614 Y39.2411 F400
G1 X40.4263 Y39.2411
G1 X40.4263 Y56.9060
G1 X39.7614 Y56.9060
G1 X37.2225 Y59.4459 F400
G1 X37.2233 Y36.7005 F400
G1 X42.9670 Y36.7005
G1 X42.9670 Y59.4467
G1 X37.2233 Y59.4467
G1 X34.6824 Y60.3733 F400
G1 X34.6827 Y35.7741 F400
G3 X34.8045 Y35.1573 I1.6116 J0
G3 X35.1548 Y34.6319 I1.4898 J0.6167
G3 X35.6776 Y34.2842 I1.1395 J1.1395
G3 X36.2944 Y34.1598 I0.6167 J1.4898
G1 X43.8959 Y34.1598
G3 X44.5126 Y34.2842 I0 J1.6116
G3 X45.0355 Y34.6319 I-0.6167 J1.4898
G3 X45.3857 Y35.1573 I-1.1395 J1.1395
G3 X45.5076 Y35.7741 I-1.4898 J0.6167
G1 X45.5076 Y60.3730
G3 X45.3857 Y60.9898 I-1.6116 J0
G3 X45.0355 Y61.5126 I-1.4898 J-0.6167
G3 X44.5126 Y61.8629 I-1.1395 J-1.1395
G3 X43.8959 Y61.9847 I-0.6167 J-1.4898
G1 X36.2944 Y61.9847
G3 X35.6776 Y61.8629 I0 J-1.6116
G3 X35.1548 Y61.5126 I0.6167 J-1.4898
G3 X34.8045 Y60.9898 I1.1395 J-1.1395
G3 X34.6827 Y60.3730 I1.4898 J-0.6167
G0 Z2
G0 X39.7626 Y56.9058
G1 Z-1.8 F200
G1 X39.7614 Y39.2411 F400
G1 X40.4263 Y39.2411
G1 X40.4263 Y56.9060
G1 X39.7614 Y56.9060
G1 X37.2225 Y59.4459 F400
G1 X37.2233 Y36.7005 F400
G1 X42.9670 Y36.7005
G1 X42.9670 Y59.4467
G1 X37.2233 Y59.4467
G1 X34.6824 Y60.3733 F400
G1 X34.6827 Y35.7741 F400
G3 X34.8045 Y35.1573 I1.6116 J0
G3 X35.1548 Y34.6319 I1.4898 J0.6167
G3 X35.6776 Y34.2842 I1.1395 J1.1395
G3 X36.2944 Y34.1598 I0.6167 J1.4898
G1 X43.8959 Y34.1598
G3 X44.5126 Y34.2842 I0 J1.6116
G3 X45.0355 Y34.6319 I-0.6167 J1.4898
G3 X45.3857 Y35.1573 I-1.1395 J1.1395
G3 X45.5076 Y35.7741 I-1.4898 J0.6167
G1 X45.5076 Y60.3730
G3 X45.3857 Y60.9898 I-1.6116 J0
G3 X45.0355 Y61.5126 I-1.4898 J-0.6167
G3 X44.5126 Y61.8629 I-1.1395 J-1.1395
G3 X43.8959 Y61.9847 I-0.6167 J-1.4898
G1 X36.2944 Y61.9847
G3 X35.6776 Y61.8629 I0 J-1.6116
G3 X35.1548 Y61.5126 I0.6167 J-1.4898
G3 X34.8045 Y60.9898 I1.1395 J-1.1395
G3 X34.6827 Y60.3730 I1.4898 J-0.6167
G0 Z2
G0 X39.7626 Y56.9058
G1 Z-1.85 F200
G1 X39.7614 Y39.2411 F400
G1 X40.4263 Y39.2411
G1 X40.4263 Y56.9060
G1 X39.7614 Y56.9060
G1 X37.2225 Y59.4459 F400
G1 X37.2233 Y36.7005 F400
G1 X42.9670 Y36.7005
G1 X42.9670 Y59.4467
G1 X37.2233 Y59.4467
G1 X34.6824 Y60.3733 F400
G1 X34.6827 Y35.7741 F400
G3 X34.8045 Y35.1573 I1.6116 J0
G3 X35.1548 Y34.6319 I1.4898 J0.6167
G3 X35.6776 Y34.2842 I1.1395 J1.1395
G3 X36.2944 Y34.1598 I0.6167 J1.4898
G1 X43.8959 Y34.1598
G3 X44.5126 Y34.2842 I0 J1.6116
G3 X45.0355 Y34.6319 I-0.6167 J1.4898
G3 X45.3857 Y35.1573 I-1.1395 J1.1395
G3 X45.5076 Y35.7741 I-1.4898 J0.6167
G1 X45.5076 Y60.3730
G3 X45.3857 Y60.9898 I-1.6116 J0
G3 X45.0355 Y61.5126 I-1.4898 J-0.6167
G3 X44.5126 Y61.8629 I-1.1395 J-1.1395
G3 X43.8959 Y61.9847 I-0.6167 J-1.4898
G1 X36.2944 Y61.9847
G3 X35.6776 Y61.8629 I0 J-1.6116
G3 X35.1548 Y61.5126 I0.6167 J-1.4898
G3 X34.8045 Y60.9898 I1.1395 J-1.1395
G3 X34.6827 Y60.3730 I1.4898 J-0.6167
G0 Z2
G0 X39.7626 Y56.9058
G1 Z-1.9 F200
G1 X39.7614 Y39.2411 F400
G1 X40.4263 Y39.2411
G1 X40.4263 Y56.9060
G1 X39.7614 Y56.9060
G1 X37.2225 Y59.4459 F400
G1 X37.2233 Y36.7005 F400
G1 X42.9670 Y36.7005
G1 X42.9670 Y59.4467
G1 X37.2233 Y59.4467
G1 X34.6824 Y60.3733 F400
G1 X34.6827 Y35.7741 F400
G3 X34.8045 Y35.1573 I1.6116 J0
G3 X35.1548 Y34.6319 I1.4898 J0.6167
G3 X35.6776 Y34.2842 I1.1395 J1.1395
G3 X36.2944 Y34.1598 I0.6167 J1.4898
G1 X43.8959 Y34.1598
G3 X44.5126 Y34.2842 I0 J1.6116
G3 X45.0355 Y34.6319 I-0.6167 J1.4898
G3 X45.3857 Y35.1573 I-1.1395 J1.1395
G3 X45.5076 Y35.7741 I-1.4898 J0.6167
G1 X45.5076 Y60.3730
G3 X45.3857 Y60.9898 I-1.6116 J0
G3 X45.0355 Y61.5126 I-1.4898 J-0.6167
G3 X44.5126 Y61.8629 I-1.1395 J-1.1395
G3 X43.8959 Y61.9847 I-0.6167 J-1.4898
G1 X36.2944 Y61.9847
G3 X35.6776 Y61.8629 I0 J-1.6116
G3 X35.1548 Y61.5126 I0.6167 J-1.4898
G3 X34.8045 Y60.9898 I1.1395 J-1.1395
G3 X34.6827 Y60.3730 I1.4898 J-0.6167
G0 Z2
G0 X39.7626 Y56.9058
G1 Z-1.95 F200
G1 X39.7614 Y39.2411 F400
G1 X40.4263 Y39.2411
G1 X40.4263 Y56.9060
G1 X39.7614 Y56.9060
G1 X37.2225 Y59.4459 F400
G1 X37.2233 Y36.7005 F400
G1 X42.9670 Y36.7005
G1 X42.9670 Y59.4467
G1 X37.2233 Y59.4467
G1 X34.6824 Y60.3733 F400
G1 X34.6827 Y35.7741 F400
G3 X34.8045 Y35.1573 I1.6116 J0
G3 X35.1548 Y34.6319 I1.4898 J0.6167
G3 X35.6776 Y34.2842 I1.1395 J1.1395
G3 X36.2944 Y34.1598 I0.6167 J1.4898
G1 X43.8959 Y34.1598
G3 X44.5126 Y34.2842 I0 J1.6116
G3 X45.0355 Y34.6319 I-0.6167 J1.4898
G3 X45.3857 Y35.1573 I-1.1395 J1.1395
G3 X45.5076 Y35.7741 I-1.4898 J0.6167
G1 X45.5076 Y60.3730
G3 X45.3857 Y60.9898 I-1.6116 J0
G3 X45.0355 Y61.5126 I-1.4898 J-0.6167
G3 X44.5126 Y61.8629 I-1.1395 J-1.1395
G3 X43.8959 Y61.9847 I-0.6167 J-1.4898
G1 X36.2944 Y61.9847
G3 X35.6776 Y61.8629 I0 J-1.6116
G3 X35.1548 Y61.5126 I0.6167 J-1.4898
G3 X34.8045 Y60.9898 I1.1395 J-1.1395
G3 X34.6827 Y60.3730 I1.4898 J-0.6167
G0 Z2
G0 X39.7626 Y56.9058
G1 Z-2 F200
G1 X39.7614 Y39.2411 F400
G1 X40.4263 Y39.2411
G1 X40.4263 Y56.9060
G1 X39.7614 Y56.9060
G1 X37.2225 Y59.4459 F400
G1 X37.2233 Y36.7005 F400
G1 X42.9670 Y36.7005
G1 X42.9670 Y59.4467
G1 X37.2233 Y59.4467
G1 X34.6824 Y60.3733 F400
G1 X34.6827 Y35.7741 F400
G3 X34.8045 Y35.1573 I1.6116 J0
G3 X35.1548 Y34.6319 I1.4898 J0.6167
G3 X35.6776 Y34.2842 I1.1395 J1.1395
G3 X36.2944 Y34.1598 I0.6167 J1.4898
G1 X43.8959 Y34.1598
G3 X44.5126 Y34.2842 I0 J1.6116
G3 X45.0355 Y34.6319 I-0.6167 J1.4898
G3 X45.3857 Y35.1573 I-1.1395 J1.1395
G3 X45.5076 Y35.7741 I-1.4898 J0.6167
G1 X45.5076 Y60.3730
G3 X45.3857 Y60.9898 I-1.6116 J0
G3 X45.0355 Y61.5126 I-1.4898 J-0.6167
G3 X44.5126 Y61.8629 I-1.1395 J-1.1395
G3 X43.8959 Y61.9847 I-0.6167 J-1.4898
G1 X36.2944 Y61.9847
G3 X35.6776 Y61.8629 I0 J-1.6116
G3 X35.1548 Y61.5126 I0.6167 J-1.4898
G3 X34.8045 Y60.9898 I1.1395 J-1.1395
G3 X34.6827 Y60.3730 I1.4898 J-0.6167
G0 Z2
G0 X39.7626 Y56.9058
G1 Z-2.05 F200
G1 X39.7614 Y39.2411 F400
G1 X40.4263 Y39.2411
G1 X40.4263 Y56.9060
G1 X39.7614 Y56.9060
G1 X37.2225 Y59.4459 F400
G1 X37.2233 Y36.7005 F400
G1 X42.9670 Y36.7005
G1 X42.9670 Y59.4467
G1 X37.2233 Y59.4467
G1 X34.6824 Y60.3733 F400
G1 X34.6827 Y35.7741 F400
G3 X34.8045 Y35.1573 I1.6116 J0
G3 X35.1548 Y34.6319 I1.4898 J0.6167
G3 X35.6776 Y34.2842 I1.1395 J1.1395
G3 X36.2944 Y34.1598 I0.6167 J1.4898
G1 X43.8959 Y34.1598
G3 X44.5126 Y34.2842 I0 J1.6116
G3 X45.0355 Y34.6319 I-0.6167 J1.4898
G3 X45.3857 Y35.1573 I-1.1395 J1.1395
G3 X45.5076 Y35.7741 I-1.4898 J0.6167
G1 X45.5076 Y60.3730
G3 X45.3857 Y60.9898 I-1.6116 J0
G3 X45.0355 Y61.5126 I-1.4898 J-0.6167
G3 X44.5126 Y61.8629 I-1.1395 J-1.1395
G3 X43.8959 Y61.9847 I-0.6167 J-1.4898
G1 X36.2944 Y61.9847
G3 X35.6776 Y61.8629 I0 J-1.6116
G3 X35.1548 Y61.5126 I0.6167 J-1.4898
G3 X34.8045 Y60.9898 I1.1395 J-1.1395
G3 X34.6827 Y60.3730 I1.4898 J-0.6167
G0 Z2
G0 X39.7626 Y56.9058
G1 Z-2.1 F200
G1 X39.7614 Y39.2411 F400
G1 X40.4263 Y39.2411
G1 X40.4263 Y56.9060
G1 X39.7614 Y56.9060
G1 X37.2225 Y59.4459 F400
G1 X37.2233 Y36.7005 F400
G1 X42.9670 Y36.7005
G1 X42.9670 Y59.4467
G1 X37.2233 Y59.4467
G1 X34.6824 Y60.3733 F400
G1 X34.6827 Y35.7741 F400
G3 X34.8045 Y35.1573 I1.6116 J0
G3 X35.1548 Y34.6319 I1.4898 J0.6167
G3 X35.6776 Y34.2842 I1.1395 J1.1395
G3 X36.2944 Y34.1598 I0.6167 J1.4898
G1 X43.8959 Y34.1598
G3 X44.5126 Y34.2842 I0 J1.6116
G3 X45.0355 Y34.6319 I-0.6167 J1.4898
G3 X45.3857 Y35.1573 I-1.1395 J1.1395
G3 X45.5076 Y35.7741 I-1.4898 J0.6167
G1 X45.5076 Y60.3730
G3 X45.3857 Y60.9898 I-1.6116 J0
G3 X45.0355 Y61.5126 I-1.4898 J-0.6167
G3 X44.5126 Y61.8629 I-1.1395 J-1.1395
G3 X43.8959 Y61.9847 I-0.6167 J-1.4898
G1 X36.2944 Y61.9847
G3 X35.6776 Y61.8629 I0 J-1.6116
G3 X35.1548 Y61.5126 I0.6167 J-1.4898
G3 X34.8045 Y60.9898 I1.1395 J-1.1395
G3 X34.6827 Y60.3730 I1.4898 J-0.6167
G0 Z2
G0 X39.7626 Y56.9058
G1 Z-2.15 F200
G1 X39.7614 Y39.2411 F400
G1 X40.4263 Y39.2411
G1 X40.4263 Y56.9060
G1 X39.7614 Y56.9060
G1 X37.2225 Y59.4459 F400
G1 X37.2233 Y36.7005 F400
G1 X42.9670 Y36.7005
G1 X42.9670 Y59.4467
G1 X37.2233 Y59.4467
G1 X34.6824 Y60.3733 F400
G1 X34.6827 Y35.7741 F400
G3 X34.8045 Y35.1573 I1.6116 J0
G3 X35.1548 Y34.6319 I1.4898 J0.6167
G3 X35.6776 Y34.2842 I1.1395 J1.1395
G3 X36.2944 Y34.1598 I0.6167 J1.4898
G1 X43.8959 Y34.1598
G3 X44.5126 Y34.2842 I0 J1.6116
G3 X45.0355 Y34.6319 I-0.6167 J1.4898
G3 X45.3857 Y35.1573 I-1.1395 J1.1395
G3 X45.5076 Y35.7741 I-1.4898 J0.6167
G1 X45.5076 Y60.3730
G3 X45.3857 Y60.9898 I-1.6116 J0
G3 X45.0355 Y61.5126 I-1.4898 J-0.6167
G3 X44.5126 Y61.8629 I-1.1395 J-1.1395
G3 X43.8959 Y61.9847 I-0.6167 J-1.4898
G1 X36.2944 Y61.9847
G3 X35.6776 Y61.8629 I0 J-1.6116
G3 X35.1548 Y61.5126 I0.6167 J-1.4898
G3 X34.8045 Y60.9898 I1.1395 J-1.1395
G3 X34.6827 Y60.3730 I1.4898 J-0.6167
G0 Z2
G0 X39.7626 Y56.9058
G1 Z-2.2 F200
G1 X39.7614 Y39.2411 F400
G1 X40.4263 Y39.2411
G1 X40.4263 Y56.9060
G1 X39.7614 Y56.9060
G1 X37.2225 Y59.4459 F400
G1 X37.2233 Y36.7005 F400
G1 X42.9670 Y36.7005
G1 X42.9670 Y59.4467
G1 X37.2233 Y59.4467
G1 X34.6824 Y60.3733 F400
G1 X34.6827 Y35.7741 F400
G3 X34.8045 Y35.1573 I1.6116 J0
G3 X35.1548 Y34.6319 I1.4898 J0.6167
G3 X35.6776 Y34.2842 I1.1395 J1.1395
G3 X36.2944 Y34.1598 I0.6167 J1.4898
G1 X43.8959 Y34.1598
G3 X44.5126 Y34.2842 I0 J1.6116
G3 X45.0355 Y34.6319 I-0.6167 J1.4898
G3 X45.3857 Y35.1573 I-1.1395 J1.1395
G3 X45.5076 Y35.7741 I-1.4898 J0.6167
G1 X45.5076 Y60.3730
G3 X45.3857 Y60.9898 I-1.6116 J0
G3 X45.0355 Y61.5126 I-1.4898 J-0.6167
G3 X44.5126 Y61.8629 I-1.1395 J-1.1395
G3 X43.8959 Y61.9847 I-0.6167 J-1.4898
G1 X36.2944 Y61.9847
G3 X35.6776 Y61.8629 I0 J-1.6116
G3 X35.1548 Y61.5126 I0.6167 J-1.4898
G3 X34.8045 Y60.9898 I1.1395 J-1.1395
G3 X34.6827 Y60.3730 I1.4898 J-0.6167
G0 Z2
G0 X39.7626 Y56.9058
G1 Z-2.25 F200
G1 X39.7614 Y39.2411 F400
G1 X40.4263 Y39.2411
G1 X40.4263 Y56.9060
G1 X39.7614 Y56.9060
G1 X37.2225 Y59.4459 F400
G1 X37.2233 Y36.7005 F400
G1 X42.9670 Y36.7005
G1 X42.9670 Y59.4467
G1 X37.2233 Y59.4467
G1 X34.6824 Y60.3733 F400
G1 X34.6827 Y35.7741 F400
G3 X34.8045 Y35.1573 I1.6116 J0
G3 X35.1548 Y34.6319 I1.4898 J0.6167
G3 X35.6776 Y34.2842 I1.1395 J1.1395
G3 X36.2944 Y34.1598 I0.6167 J1.4898
G1 X43.8959 Y34.1598
G3 X44.5126 Y34.2842 I0 J1.6116
G3 X45.0355 Y34.6319 I-0.6167 J1.4898
G3 X45.3857 Y35.1573 I-1.1395 J1.1395
G3 X45.5076 Y35.7741 I-1.4898 J0.6167
G1 X45.5076 Y60.3730
G3 X45.3857 Y60.9898 I-1.6116 J0
G3 X45.0355 Y61.5126 I-1.4898 J-0.6167
G3 X44.5126 Y61.8629 I-1.1395 J-1.1395
G3 X43.8959 Y61.9847 I-0.6167 J-1.4898
G1 X36.2944 Y61.9847
G3 X35.6776 Y61.8629 I0 J-1.6116
G3 X35.1548 Y61.5126 I0.6167 J-1.4898
G3 X34.8045 Y60.9898 I1.1395 J-1.1395
G3 X34.6827 Y60.3730 I1.4898 J-0.6167
G0 Z2
G0 X39.7626 Y56.9058
G1 Z-2.3 F200
G1 X39.7614 Y39.2411 F400
G1 X40.4263 Y39.2411
G1 X40.4263 Y56.9060
G1 X39.7614 Y56.9060
G1 X37.2225 Y59.4459 F400
G1 X37.2233 Y36.7005 F400
G1 X42.9670 Y36.7005
G1 X42.9670 Y59.4467
G1 X37.2233 Y59.4467
G1 X34.6824 Y60.3733 F400
G1 X34.6827 Y35.7741 F400
G3 X34.8045 Y35.1573 I1.6116 J0
G3 X35.1548 Y34.6319 I1.4898 J0.6167
G3 X35.6776 Y34.2842 I1.1395 J1.1395
G3 X36.2944 Y34.1598 I0.6167 J1.4898
G1 X43.8959 Y34.1598
G3 X44.5126 Y34.2842 I0 J1.6116
G3 X45.0355 Y34.6319 I-0.6167 J1.4898
G3 X45.3857 Y35.1573 I-1.1395 J1.1395
G3 X45.5076 Y35.7741 I-1.4898 J0.6167
G1 X45.5076 Y60.3730
G3 X45.3857 Y60.9898 I-1.6116 J0
G3 X45.0355 Y61.5126 I-1.4898 J-0.6167
G3 X44.5126 Y61.8629 I-1.1395 J-1.1395
G3 X43.8959 Y61.9847 I-0.6167 J-1.4898
G1 X36.2944 Y61.9847
G3 X35.6776 Y61.8629 I0 J-1.6116
G3 X35.1548 Y61.5126 I0.6167 J-1.4898
G3 X34.8045 Y60.9898 I1.1395 J-1.1395
G3 X34.6827 Y60.3730 I1.4898 J-0.6167
G0 Z2
G0 X39.7626 Y56.9058
G1 Z-2.35 F200
G1 X39.7614 Y39.2411 F400
G1 X40.4263 Y39.2411
G1 X40.4263 Y56.9060
G1 X39.7614 Y56.9060
G1 X37.2225 Y59.4459 F400
G1 X37.2233 Y36.7005 F400
G1 X42.9670 Y36.7005
G1 X42.9670 Y59.4467
G1 X37.2233 Y59.4467
G1 X34.6824 Y60.3733 F400
G1 X34.6827 Y35.7741 F400
G3 X34.8045 Y35.1573 I1.6116 J0
G3 X35.1548 Y34.6319 I1.4898 J0.6167
G3 X35.6776 Y34.2842 I1.1395 J1.1395
G3 X36.2944 Y34.1598 I0.6167 J1.4898
G1 X43.8959 Y34.1598
G3 X44.5126 Y34.2842 I0 J1.6116
G3 X45.0355 Y34.6319 I-0.6167 J1.4898
G3 X45.3857 Y35.1573 I-1.1395 J1.1395
G3 X45.5076 Y35.7741 I-1.4898 J0.6167
G1 X45.5076 Y60.3730
G3 X45.3857 Y60.9898 I-1.6116 J0
G3 X45.0355 Y61.5126 I-1.4898 J-0.6167
G3 X44.5126 Y61.8629 I-1.1395 J-1.1395
G3 X43.8959 Y61.9847 I-0.6167 J-1.4898
G1 X36.2944 Y61.9847
G3 X35.6776 Y61.8629 I0 J-1.6116
G3 X35.1548 Y61.5126 I0.6167 J-1.4898
G3 X34.8045 Y60.9898 I1.1395 J-1.1395
G3 X34.6827 Y60.3730 I1.4898 J-0.6167
G0 Z2
G0 X39.7626 Y56.9058
G1 Z-2.4 F200
G1 X39.7614 Y39.2411 F400
G1 X40.4263 Y39.2411
G1 X40.4263 Y56.9060
G1 X39.7614 Y56.9060
G1 X37.2225 Y59.4459 F400
G1 X37.2233 Y36.7005 F400
G1 X42.9670 Y36.7005
G1 X42.9670 Y59.4467
G1 X37.2233 Y59.4467
G1 X34.6824 Y60.3733 F400
G1 X34.6827 Y35.7741 F400
G3 X34.8045 Y35.1573 I1.6116 J0
G3 X35.1548 Y34.6319 I1.4898 J0.6167
G3 X35.6776 Y34.2842 I1.1395 J1.1395
G3 X36.2944 Y34.1598 I0.6167 J1.4898
G1 X43.8959 Y34.1598
G3 X44.5126 Y34.2842 I0 J1.6116
G3 X45.0355 Y34.6319 I-0.6167 J1.4898
G3 X45.3857 Y35.1573 I-1.1395 J1.1395
G3 X45.5076 Y35.7741 I-1.4898 J0.6167
G1 X45.5076 Y60.3730
G3 X45.3857 Y60.9898 I-1.6116 J0
G3 X45.0355 Y61.5126 I-1.4898 J-0.6167
G3 X44.5126 Y61.8629 I-1.1395 J-1.1395
G3 X43.8959 Y61.9847 I-0.6167 J-1.4898
G1 X36.2944 Y61.9847
G3 X35.6776 Y61.8629 I0 J-1.6116
G3 X35.1548 Y61.5126 I0.6167 J-1.4898
G3 X34.8045 Y60.9898 I1.1395 J-1.1395
G3 X34.6827 Y60.3730 I1.4898 J-0.6167
G0 Z2
G0 X39.7626 Y56.9058
G1 Z-2.45 F200
G1 X39.7614 Y39.2411 F400
G1 X40.4263 Y39.2411
G1 X40.4263 Y56.9060
G1 X39.7614 Y56.9060
G1 X37.2225 Y59.4459 F400
G1 X37.2233 Y36.7005 F400
G1 X42.9670 Y36.7005
G1 X42.9670 Y59.4467
G1 X37.2233 Y59.4467
G1 X34.6824 Y60.3733 F400
G1 X34.6827 Y35.7741 F400
G3 X34.8045 Y35.1573 I1.6116 J0
G3 X35.1548 Y34.6319 I1.4898 J0.6167
G3 X35.6776 Y34.2842 I1.1395 J1.1395
G3 X36.2944 Y34.1598 I0.6167 J1.4898
G1 X43.8959 Y34.1598
G3 X44.5126 Y34.2842 I0 J1.6116
G3 X45.0355 Y34.6319 I-0.6167 J1.4898
G3 X45.3857 Y35.1573 I-1.1395 J1.1395
G3 X45.5076 Y35.7741 I-1.4898 J0.6167
G1 X45.5076 Y60.3730
G3 X45.3857 Y60.9898 I-1.6116 J0
G3 X45.0355 Y61.5126 I-1.4898 J-0.6167
G3 X44.5126 Y61.8629 I-1.1395 J-1.1395
G3 X43.8959 Y61.9847 I-0.6167 J-1.4898
G1 X36.2944 Y61.9847
G3 X35.6776 Y61.8629 I0 J-1.6116
G3 X35.1548 Y61.5126 I0.6167 J-1.4898
G3 X34.8045 Y60.9898 I1.1395 J-1.1395
G3 X34.6827 Y60.3730 I1.4898 J-0.6167
G0 Z2
G0 X39.7626 Y56.9058
G1 Z-2.5 F200
G1 X39.7614 Y39.2411 F400
G1 X40.4263 Y39.2411
G1 X40.4263 Y56.9060
G1 X39.7614 Y56.9060
G1 X37.2225 Y59.4459 F400
G1 X37.2233 Y36.7005 F400
G1 X42.9670 Y36.7005
G1 X42.9670 Y59.4467
G1 X37.2233 Y59.4467
G1 X34.6824 Y60.3733 F400
G1 X34.6827 Y35.7741 F400
G3 X34.8045 Y35.1573 I1.6116 J0
G3 X35.1548 Y34.6319 I1.4898 J0.6167
G3 X35.6776 Y34.2842 I1.1395 J1.1395
G3 X36.2944 Y34.1598 I0.6167 J1.4898
G1 X43.8959 Y34.1598
G3 X44.5126 Y34.2842 I0 J1.6116
G3 X45.0355 Y34.6319 I-0.6167 J1.4898
G3 X45.3857 Y35.1573 I-1.1395 J1.1395
G3 X45.5076 Y35.7741 I-1.4898 J0.6167
G1 X45.5076 Y60.3730
G3 X45.3857 Y60.9898 I-1.6116 J0
G3 X45.0355 Y61.5126 I-1.4898 J-0.6167
G3 X44.5126 Y61.8629 I-1.1395 J-1.1395
G3 X43.8959 Y61.9847 I-0.6167 J-1.4898
G1 X36.2944 Y61.9847
G3 X35.6776 Y61.8629 I0 J-1.6116
G3 X35.1548 Y61.5126 I0.6167 J-1.4898
G3 X34.8045 Y60.9898 I1.1395 J-1.1395
G3 X34.6827 Y60.3730 I1.4898 J-0.6167
G0 Z2
G0 X39.7626 Y56.9058
G1 Z-2.55 F200
G1 X39.7614 Y39.2411 F400
G1 X40.4263 Y39.2411
G1 X40.4263 Y56.9060
G1 X39.7614 Y56.9060
G1 X37.2225 Y59.4459 F400
G1 X37.2233 Y36.7005 F400
G1 X42.9670 Y36.7005
G1 X42.9670 Y59.4467
G1 X37.2233 Y59.4467
G1 X34.6824 Y60.3733 F400
G1 X34.6827 Y35.7741 F400
G3 X34.8045 Y35.1573 I1.6116 J0
G3 X35.1548 Y34.6319 I1.4898 J0.6167
G3 X35.6776 Y34.2842 I1.1395 J1.1395
G3 X36.2944 Y34.1598 I0.6167 J1.4898
G1 X43.8959 Y34.1598
G3 X44.5126 Y34.2842 I0 J1.6116
G3 X45.0355 Y34.6319 I-0.6167 J1.4898
G3 X45.3857 Y35.1573 I-1.1395 J1.1395
G3 X45.5076 Y35.7741 I-1.4898 J0.6167
G1 X45.5076 Y60.3730
G3 X45.3857 Y60.9898 I-1.6116 J0
G3 X45.0355 Y61.5126 I-1.4898 J-0.6167
G3 X44.5126 Y61.8629 I-1.1395 J-1.1395
G3 X43.8959 Y61.9847 I-0.6167 J-1.4898
G1 X36.2944 Y61.9847
G3 X35.6776 Y61.8629 I0 J-1.6116
G3 X35.1548 Y61.5126 I0.6167 J-1.4898
G3 X34.8045 Y60.9898 I1.1395 J-1.1395
G3 X34.6827 Y60.3730 I1.4898 J-0.6167
G0 Z2
G0 X39.7626 Y56.9058
G1 Z-2.6 F200
G1 X39.7614 Y39.2411 F400
G1 X40.4263 Y39.2411
G1 X40.4263 Y56.9060
G1 X39.7614 Y56.9060
G1 X37.2225 Y59.4459 F400
G1 X37.2233 Y36.7005 F400
G1 X42.9670 Y36.7005
G1 X42.9670 Y59.4467
G1 X37.2233 Y59.4467
G1 X34.6824 Y60.3733 F400
G1 X34.6827 Y35.7741 F400
G3 X34.8045 Y35.1573 I1.6116 J0
G3 X35.1548 Y34.6319 I1.4898 J0.6167
G3 X35.6776 Y34.2842 I1.1395 J1.1395
G3 X36.2944 Y34.1598 I0.6167 J1.4898
G1 X43.8959 Y34.1598
G3 X44.5126 Y34.2842 I0 J1.6116
G3 X45.0355 Y34.6319 I-0.6167 J1.4898
G3 X45.3857 Y35.1573 I-1.1395 J1.1395
G3 X45.5076 Y35.7741 I-1.4898 J0.6167
G1 X45.5076 Y60.3730
G3 X45.3857 Y60.9898 I-1.6116 J0
G3 X45.0355 Y61.5126 I-1.4898 J-0.6167
G3 X44.5126 Y61.8629 I-1.1395 J-1.1395
G3 X43.8959 Y61.9847 I-0.6167 J-1.4898
G1 X36.2944 Y61.9847
G3 X35.6776 Y61.8629 I0 J-1.6116
G3 X35.1548 Y61.5126 I0.6167 J-1.4898
G3 X34.8045 Y60.9898 I1.1395 J-1.1395
G3 X34.6827 Y60.3730 I1.4898 J-0.6167
G0 Z2
G0 X39.7626 Y56.9058
G1 Z-2.65 F200
G1 X39.7614 Y39.2411 F400
G1 X40.4263 Y39.2411
G1 X40.4263 Y56.9060
G1 X39.7614 Y56.9060
G1 X37.2225 Y59.4459 F400
G1 X37.2233 Y36.7005 F400
G1 X42.9670 Y36.7005
G1 X42.9670 Y59.4467
G1 X37.2233 Y59.4467
G1 X34.6824 Y60.3733 F400
G1 X34.6827 Y35.7741 F400
G3 X34.8045 Y35.1573 I1.6116 J0
G3 X35.1548 Y34.6319 I1.4898 J0.6167
G3 X35.6776 Y34.2842 I1.1395 J1.1395
G3 X36.2944 Y34.1598 I0.6167 J1.4898
G1 X43.8959 Y34.1598
G3 X44.5126 Y34.2842 I0 J1.6116
G3 X45.0355 Y34.6319 I-0.6167 J1.4898
G3 X45.3857 Y35.1573 I-1.1395 J1.1395
G3 X45.5076 Y35.7741 I-1.4898 J0.6167
G1 X45.5076 Y60.3730
G3 X45.3857 Y60.9898 I-1.6116 J0
G3 X45.0355 Y61.5126 I-1.4898 J-0.6167
G3 X44.5126 Y61.8629 I-1.1395 J-1.1395
G3 X43.8959 Y61.9847 I-0.6167 J-1.4898
G1 X36.2944 Y61.9847
G3 X35.6776 Y61.8629 I0 J-1.6116
G3 X35.1548 Y61.5126 I0.6167 J-1.4898
G3 X34.8045 Y60.9898 I1.1395 J-1.1395
G3 X34.6827 Y60.3730 I1.4898 J-0.6167
G0 Z2
G0 X39.7626 Y56.9058
G1 Z-2.7 F200
G1 X39.7614 Y39.2411 F400
G1 X40.4263 Y39.2411
G1 X40.4263 Y56.9060
G1 X39.7614 Y56.9060
G1 X37.2225 Y59.4459 F400
G1 X37.2233 Y36.7005 F400
G1 X42.9670 Y36.7005
G1 X42.9670 Y59.4467
G1 X37.2233 Y59.4467
G1 X34.6824 Y60.3733 F400
G1 X34.6827 Y35.7741 F400
G3 X34.8045 Y35.1573 I1.6116 J0
G3 X35.1548 Y34.6319 I1.4898 J0.6167
G3 X35.6776 Y34.2842 I1.1395 J1.1395
G3 X36.2944 Y34.1598 I0.6167 J1.4898
G1 X43.8959 Y34.1598
G3 X44.5126 Y34.2842 I0 J1.6116
G3 X45.0355 Y34.6319 I-0.6167 J1.4898
G3 X45.3857 Y35.1573 I-1.1395 J1.1395
G3 X45.5076 Y35.7741 I-1.4898 J0.6167
G1 X45.5076 Y60.3730
G3 X45.3857 Y60.9898 I-1.6116 J0
G3 X45.0355 Y61.5126 I-1.4898 J-0.6167
G3 X44.5126 Y61.8629 I-1.1395 J-1.1395
G3 X43.8959 Y61.9847 I-0.6167 J-1.4898
G1 X36.2944 Y61.9847
G3 X35.6776 Y61.8629 I0 J-1.6116
G3 X35.1548 Y61.5126 I0.6167 J-1.4898
G3 X34.8045 Y60.9898 I1.1395 J-1.1395
G3 X34.6827 Y60.3730 I1.4898 J-0.6167
G0 Z2
G0 X39.7626 Y56.9058
G1 Z-2.75 F200
G1 X39.7614 Y39.2411 F400
G1 X40.4263 Y39.2411
G1 X40.4263 Y56.9060
G1 X39.7614 Y56.9060
G1 X37.2225 Y59.4459 F400
G1 X37.2233 Y36.7005 F400
G1 X42.9670 Y36.7005
G1 X42.9670 Y59.4467
G1 X37.2233 Y59.4467
G1 X34.6824 Y60.3733 F400
G1 X34.6827 Y35.7741 F400
G3 X34.8045 Y35.1573 I1.6116 J0
G3 X35.1548 Y34.6319 I1.4898 J0.6167
G3 X35.6776 Y34.2842 I1.1395 J1.1395
G3 X36.2944 Y34.1598 I0.6167 J1.4898
G1 X43.8959 Y34.1598
G3 X44.5126 Y34.2842 I0 J1.6116
G3 X45.0355 Y34.6319 I-0.6167 J1.4898
G3 X45.3857 Y35.1573 I-1.1395 J1.1395
G3 X45.5076 Y35.7741 I-1.4898 J0.6167
G1 X45.5076 Y60.3730
G3 X45.3857 Y60.9898 I-1.6116 J0
G3 X45.0355 Y61.5126 I-1.4898 J-0.6167
G3 X44.5126 Y61.8629 I-1.1395 J-1.1395
G3 X43.8959 Y61.9847 I-0.6167 J-1.4898
G1 X36.2944 Y61.9847
G3 X35.6776 Y61.8629 I0 J-1.6116
G3 X35.1548 Y61.5126 I0.6167 J-1.4898
G3 X34.8045 Y60.9898 I1.1395 J-1.1395
G3 X34.6827 Y60.3730 I1.4898 J-0.6167
G0 Z2
G0 X39.7626 Y56.9058
G1 Z-2.8 F200
G1 X39.7614 Y39.2411 F400
G1 X40.4263 Y39.2411
G1 X40.4263 Y56.9060
G1 X39.7614 Y56.9060
G1 X37.2225 Y59.4459 F400
G1 X37.2233 Y36.7005 F400
G1 X42.9670 Y36.7005
G1 X42.9670 Y59.4467
G1 X37.2233 Y59.4467
G1 X34.6824 Y60.3733 F400
G1 X34.6827 Y35.7741 F400
G3 X34.8045 Y35.1573 I1.6116 J0
G3 X35.1548 Y34.6319 I1.4898 J0.6167
G3 X35.6776 Y34.2842 I1.1395 J1.1395
G3 X36.2944 Y34.1598 I0.6167 J1.4898
G1 X43.8959 Y34.1598
G3 X44.5126 Y34.2842 I0 J1.6116
G3 X45.0355 Y34.6319 I-0.6167 J1.4898
G3 X45.3857 Y35.1573 I-1.1395 J1.1395
G3 X45.5076 Y35.7741 I-1.4898 J0.6167
G1 X45.5076 Y60.3730
G3 X45.3857 Y60.9898 I-1.6116 J0
G3 X45.0355 Y61.5126 I-1.4898 J-0.6167
G3 X44.5126 Y61.8629 I-1.1395 J-1.1395
G3 X43.8959 Y61.9847 I-0.6167 J-1.4898
G1 X36.2944 Y61.9847
G3 X35.6776 Y61.8629 I0 J-1.6116
G3 X35.1548 Y61.5126 I0.6167 J-1.4898
G3 X34.8045 Y60.9898 I1.1395 J-1.1395
G3 X34.6827 Y60.3730 I1.4898 J-0.6167
G0 Z2
G0 X39.7626 Y56.9058
G1 Z-2.85 F200
G1 X39.7614 Y39.2411 F400
G1 X40.4263 Y39.2411
G1 X40.4263 Y56.9060
G1 X39.7614 Y56.9060
G1 X37.2225 Y59.4459 F400
G1 X37.2233 Y36.7005 F400
G1 X42.9670 Y36.7005
G1 X42.9670 Y59.4467
G1 X37.2233 Y59.4467
G1 X34.6824 Y60.3733 F400
G1 X34.6827 Y35.7741 F400
G3 X34.8045 Y35.1573 I1.6116 J0
G3 X35.1548 Y34.6319 I1.4898 J0.6167
G3 X35.6776 Y34.2842 I1.1395 J1.1395
G3 X36.2944 Y34.1598 I0.6167 J1.4898
G1 X43.8959 Y34.1598
G3 X44.5126 Y34.2842 I0 J1.6116
G3 X45.0355 Y34.6319 I-0.6167 J1.4898
G3 X45.3857 Y35.1573 I-1.1395 J1.1395
G3 X45.5076 Y35.7741 I-1.4898 J0.6167
G1 X45.5076 Y60.3730
G3 X45.3857 Y60.9898 I-1.6116 J0
G3 X45.0355 Y61.5126 I-1.4898 J-0.6167
G3 X44.5126 Y61.8629 I-1.1395 J-1.1395
G3 X43.8959 Y61.9847 I-0.6167 J-1.4898
G1 X36.2944 Y61.9847
G3 X35.6776 Y61.8629 I0 J-1.6116
G3 X35.1548 Y61.5126 I0.6167 J-1.4898
G3 X34.8045 Y60.9898 I1.1395 J-1.1395
G3 X34.6827 Y60.3730 I1.4898 J-0.6167
G0 Z2
G0 X39.7626 Y56.9058
G1 Z-2.9 F200
G1 X39.7614 Y39.2411 F400
G1 X40.4263 Y39.2411
G1 X40.4263 Y56.9060
G1 X39.7614 Y56.9060
G1 X37.2225 Y59.4459 F400
G1 X37.2233 Y36.7005 F400
G1 X42.9670 Y36.7005
G1 X42.9670 Y59.4467
G1 X37.2233 Y59.4467
G1 X34.6824 Y60.3733 F400
G1 X34.6827 Y35.7741 F400
G3 X34.8045 Y35.1573 I1.6116 J0
G3 X35.1548 Y34.6319 I1.4898 J0.6167
G3 X35.6776 Y34.2842 I1.1395 J1.1395
G3 X36.2944 Y34.1598 I0.6167 J1.4898
G1 X43.8959 Y34.1598
G3 X44.5126 Y34.2842 I0 J1.6116
G3 X45.0355 Y34.6319 I-0.6167 J1.4898
G3 X45.3857 Y35.1573 I-1.1395 J1.1395
G3 X45.5076 Y35.7741 I-1.4898 J0.6167
G1 X45.5076 Y60.3730
G3 X45.3857 Y60.9898 I-1.6116 J0
G3 X45.0355 Y61.5126 I-1.4898 J-0.6167
G3 X44.5126 Y61.8629 I-1.1395 J-1.1395
G3 X43.8959 Y61.9847 I-0.6167 J-1.4898
G1 X36.2944 Y61.9847
G3 X35.6776 Y61.8629 I0 J-1.6116
G3 X35.1548 Y61.5126 I0.6167 J-1.4898
G3 X34.8045 Y60.9898 I1.1395 J-1.1395
G3 X34.6827 Y60.3730 I1.4898 J-0.6167
G0 Z2
G0 X39.7626 Y56.9058
G1 Z-2.95 F200
G1 X39.7614 Y39.2411 F400
G1 X40.4263 Y39.2411
G1 X40.4263 Y56.9060
G1 X39.7614 Y56.9060
G1 X37.2225 Y59.4459 F400
G1 X37.2233 Y36.7005 F400
G1 X42.9670 Y36.7005
G1 X42.9670 Y59.4467
G1 X37.2233 Y59.4467
G1 X34.6824 Y60.3733 F400
G1 X34.6827 Y35.7741 F400
G3 X34.8045 Y35.1573 I1.6116 J0
G3 X35.1548 Y34.6319 I1.4898 J0.6167
G3 X35.6776 Y34.2842 I1.1395 J1.1395
G3 X36.2944 Y34.1598 I0.6167 J1.4898
G1 X43.8959 Y34.1598
G3 X44.5126 Y34.2842 I0 J1.6116
G3 X45.0355 Y34.6319 I-0.6167 J1.4898
G3 X45.3857 Y35.1573 I-1.1395 J1.1395
G3 X45.5076 Y35.7741 I-1.4898 J0.6167
G1 X45.5076 Y60.3730
G3 X45.3857 Y60.9898 I-1.6116 J0
G3 X45.0355 Y61.5126 I-1.4898 J-0.6167
G3 X44.5126 Y61.8629 I-1.1395 J-1.1395
G3 X43.8959 Y61.9847 I-0.6167 J-1.4898
G1 X36.2944 Y61.9847
G3 X35.6776 Y61.8629 I0 J-1.6116
G3 X35.1548 Y61.5126 I0.6167 J-1.4898
G3 X34.8045 Y60.9898 I1.1395 J-1.1395
G3 X34.6827 Y60.3730 I1.4898 J-0.6167
G0 Z2
G0 X39.7626 Y56.9058
G1 Z-3 F200
G1 X39.7614 Y39.2411 F400
G1 X40.4263 Y39.2411
G1 X40.4263 Y56.9060
G1 X39.7614 Y56.9060
G1 X37.2225 Y59.4459 F400
G1 X37.2233 Y36.7005 F400
G1 X42.9670 Y36.7005
G1 X42.9670 Y59.4467
G1 X37.2233 Y59.4467
G1 X34.6824 Y60.3733 F400
G1 X34.6827 Y35.7741 F400
G3 X34.8045 Y35.1573 I1.6116 J0
G3 X35.1548 Y34.6319 I1.4898 J0.6167
G3 X35.6776 Y34.2842 I1.1395 J1.1395
G3 X36.2944 Y34.1598 I0.6167 J1.4898
G1 X43.8959 Y34.1598
G3 X44.5126 Y34.2842 I0 J1.6116
G3 X45.0355 Y34.6319 I-0.6167 J1.4898
G3 X45.3857 Y35.1573 I-1.1395 J1.1395
G3 X45.5076 Y35.7741 I-1.4898 J0.6167
G1 X45.5076 Y60.3730
G3 X45.3857 Y60.9898 I-1.6116 J0
G3 X45.0355 Y61.5126 I-1.4898 J-0.6167
G3 X44.5126 Y61.8629 I-1.1395 J-1.1395
G3 X43.8959 Y61.9847 I-0.6167 J-1.4898
G1 X36.2944 Y61.9847
G3 X35.6776 Y61.8629 I0 J-1.6116
G3 X35.1548 Y61.5126 I0.6167 J-1.4898
G3 X34.8045 Y60.9898 I1.1395 J-1.1395
G3 X34.6827 Y60.3730 I1.4898 J-0.6167
G0 Z2
G0 X39.7626 Y56.9058
G1 Z-3.05 F200
G1 X39.7614 Y39.2411 F400
G1 X40.4263 Y39.2411
G1 X40.4263 Y56.9060
G1 X39.7614 Y56.9060
G1 X37.2225 Y59.4459 F400
G1 X37.2233 Y36.7005 F400
G1 X42.9670 Y36.7005
G1 X42.9670 Y59.4467
G1 X37.2233 Y59.4467
G1 X34.6824 Y60.3733 F400
G1 X34.6827 Y35.7741 F400
G3 X34.8045 Y35.1573 I1.6116 J0
G3 X35.1548 Y34.6319 I1.4898 J0.6167
G3 X35.6776 Y34.2842 I1.1395 J1.1395
G3 X36.2944 Y34.1598 I0.6167 J1.4898
G1 X43.8959 Y34.1598
G3 X44.5126 Y34.2842 I0 J1.6116
G3 X45.0355 Y34.6319 I-0.6167 J1.4898
G3 X45.3857 Y35.1573 I-1.1395 J1.1395
G3 X45.5076 Y35.7741 I-1.4898 J0.6167
G1 X45.5076 Y60.3730
G3 X45.3857 Y60.9898 I-1.6116 J0
G3 X45.0355 Y61.5126 I-1.4898 J-0.6167
G3 X44.5126 Y61.8629 I-1.1395 J-1.1395
G3 X43.8959 Y61.9847 I-0.6167 J-1.4898
G1 X36.2944 Y61.9847
G3 X35.6776 Y61.8629 I0 J-1.6116
G3 X35.1548 Y61.5126 I0.6167 J-1.4898
G3 X34.8045 Y60.9898 I1.1395 J-1.1395
G3 X34.6827 Y60.3730 I1.4898 J-0.6167
G0 Z2
G0 X39.7626 Y56.9058
G1 Z-3.1 F200
G1 X39.7614 Y39.2411 F400
G1 X40.4263 Y39.2411
G1 X40.4263 Y56.9060
G1 X39.7614 Y56.9060
G1 X37.2225 Y59.4459 F400
G1 X37.2233 Y36.7005 F400
G1 X42.9670 Y36.7005
G1 X42.9670 Y59.4467
G1 X37.2233 Y59.4467
G1 X34.6824 Y60.3733 F400
G1 X34.6827 Y35.7741 F400
G3 X34.8045 Y35.1573 I1.6116 J0
G3 X35.1548 Y34.6319 I1.4898 J0.6167
G3 X35.6776 Y34.2842 I1.1395 J1.1395
G3 X36.2944 Y34.1598 I0.6167 J1.4898
G1 X43.8959 Y34.1598
G3 X44.5126 Y34.2842 I0 J1.6116
G3 X45.0355 Y34.6319 I-0.6167 J1.4898
G3 X45.3857 Y35.1573 I-1.1395 J1.1395
G3 X45.5076 Y35.7741 I-1.4898 J0.6167
G1 X45.5076 Y60.3730
G3 X45.3857 Y60.9898 I-1.6116 J0
G3 X45.0355 Y61.5126 I-1.4898 J-0.6167
G3 X44.5126 Y61.8629 I-1.1395 J-1.1395
G3 X43.8959 Y61.9847 I-0.6167 J-1.4898
G1 X36.2944 Y61.9847
G3 X35.6776 Y61.8629 I0 J-1.6116
G3 X35.1548 Y61.5126 I0.6167 J-1.4898
G3 X34.8045 Y60.9898 I1.1395 J-1.1395
G3 X34.6827 Y60.3730 I1.4898 J-0.6167
G0 Z2
G0 X39.7626 Y56.9058
G1 Z-3.15 F200
G1 X39.7614 Y39.2411 F400
G1 X40.4263 Y39.2411
G1 X40.4263 Y56.9060
G1 X39.7614 Y56.9060
G1 X37.2225 Y59.4459 F400
G1 X37.2233 Y36.7005 F400
G1 X42.9670 Y36.7005
G1 X42.9670 Y59.4467
G1 X37.2233 Y59.4467
G1 X34.6824 Y60.3733 F400
G1 X34.6827 Y35.7741 F400
G3 X34.8045 Y35.1573 I1.6116 J0
G3 X35.1548 Y34.6319 I1.4898 J0.6167
G3 X35.6776 Y34.2842 I1.1395 J1.1395
G3 X36.2944 Y34.1598 I0.6167 J1.4898
G1 X43.8959 Y34.1598
G3 X44.5126 Y34.2842 I0 J1.6116
G3 X45.0355 Y34.6319 I-0.6167 J1.4898
G3 X45.3857 Y35.1573 I-1.1395 J1.1395
G3 X45.5076 Y35.7741 I-1.4898 J0.6167
G1 X45.5076 Y60.3730
G3 X45.3857 Y60.9898 I-1.6116 J0
G3 X45.0355 Y61.5126 I-1.4898 J-0.6167
G3 X44.5126 Y61.8629 I-1.1395 J-1.1395
G3 X43.8959 Y61.9847 I-0.6167 J-1.4898
G1 X36.2944 Y61.9847
G3 X35.6776 Y61.8629 I0 J-1.6116
G3 X35.1548 Y61.5126 I0.6167 J-1.4898
G3 X34.8045 Y60.9898 I1.1395 J-1.1395
G3 X34.6827 Y60.3730 I1.4898 J-0.6167
G0 Z2
G0 X39.7626 Y56.9058
G1 Z-3.2 F200
G1 X39.7614 Y39.2411 F400
G1 X40.4263 Y39.2411
G1 X40.4263 Y56.9060
G1 X39.7614 Y56.9060
G1 X37.2225 Y59.4459 F400
G1 X37.2233 Y36.7005 F400
G1 X42.9670 Y36.7005
G1 X42.9670 Y59.4467
G1 X37.2233 Y59.4467
G1 X34.6824 Y60.3733 F400
G1 X34.6827 Y35.7741 F400
G3 X34.8045 Y35.1573 I1.6116 J0
G3 X35.1548 Y34.6319 I1.4898 J0.6167
G3 X35.6776 Y34.2842 I1.1395 J1.1395
G3 X36.2944 Y34.1598 I0.6167 J1.4898
G1 X43.8959 Y34.1598
G3 X44.5126 Y34.2842 I0 J1.6116
G3 X45.0355 Y34.6319 I-0.6167 J1.4898
G3 X45.3857 Y35.1573 I-1.1395 J1.1395
G3 X45.5076 Y35.7741 I-1.4898 J0.6167
G1 X45.5076 Y60.3730
G3 X45.3857 Y60.9898 I-1.6116 J0
G3 X45.0355 Y61.5126 I-1.4898 J-0.6167
G3 X44.5126 Y61.8629 I-1.1395 J-1.1395
G3 X43.8959 Y61.9847 I-0.6167 J-1.4898
G1 X36.2944 Y61.9847
G3 X35.6776 Y61.8629 I0 J-1.6116
G3 X35.1548 Y61.5126 I0.6167 J-1.4898
G3 X34.8045 Y60.9898 I1.1395 J-1.1395
G3 X34.6827 Y60.3730 I1.4898 J-0.6167
G0 Z2
G0 X39.7626 Y56.9058
G1 Z-3.25 F200
G1 X39.7614 Y39.2411 F400
G1 X40.4263 Y39.2411
G1 X40.4263 Y56.9060
G1 X39.7614 Y56.9060
G1 X37.2225 Y59.4459 F400
G1 X37.2233 Y36.7005 F400
G1 X42.9670 Y36.7005
G1 X42.9670 Y59.4467
G1 X37.2233 Y59.4467
G1 X34.6824 Y60.3733 F400
G1 X34.6827 Y35.7741 F400
G3 X34.8045 Y35.1573 I1.6116 J0
G3 X35.1548 Y34.6319 I1.4898 J0.6167
G3 X35.6776 Y34.2842 I1.1395 J1.1395
G3 X36.2944 Y34.1598 I0.6167 J1.4898
G1 X43.8959 Y34.1598
G3 X44.5126 Y34.2842 I0 J1.6116
G3 X45.0355 Y34.6319 I-0.6167 J1.4898
G3 X45.3857 Y35.1573 I-1.1395 J1.1395
G3 X45.5076 Y35.7741 I-1.4898 J0.6167
G1 X45.5076 Y60.3730
G3 X45.3857 Y60.9898 I-1.6116 J0
G3 X45.0355 Y61.5126 I-1.4898 J-0.6167
G3 X44.5126 Y61.8629 I-1.1395 J-1.1395
G3 X43.8959 Y61.9847 I-0.6167 J-1.4898
G1 X36.2944 Y61.9847
G3 X35.6776 Y61.8629 I0 J-1.6116
G3 X35.1548 Y61.5126 I0.6167 J-1.4898
G3 X34.8045 Y60.9898 I1.1395 J-1.1395
G3 X34.6827 Y60.3730 I1.4898 J-0.6167
G0 Z2
G0 X39.7626 Y56.9058
G1 Z-3.3 F200
G1 X39.7614 Y39.2411 F400
G1 X40.4263 Y39.2411
G1 X40.4263 Y56.9060
G1 X39.7614 Y56.9060
G1 X37.2225 Y59.4459 F400
G1 X37.2233 Y36.7005 F400
G1 X42.9670 Y36.7005
G1 X42.9670 Y59.4467
G1 X37.2233 Y59.4467
G1 X34.6824 Y60.3733 F400
G1 X34.6827 Y35.7741 F400
G3 X34.8045 Y35.1573 I1.6116 J0
G3 X35.1548 Y34.6319 I1.4898 J0.6167
G3 X35.6776 Y34.2842 I1.1395 J1.1395
G3 X36.2944 Y34.1598 I0.6167 J1.4898
G1 X43.8959 Y34.1598
G3 X44.5126 Y34.2842 I0 J1.6116
G3 X45.0355 Y34.6319 I-0.6167 J1.4898
G3 X45.3857 Y35.1573 I-1.1395 J1.1395
G3 X45.5076 Y35.7741 I-1.4898 J0.6167
G1 X45.5076 Y60.3730
G3 X45.3857 Y60.9898 I-1.6116 J0
G3 X45.0355 Y61.5126 I-1.4898 J-0.6167
G3 X44.5126 Y61.8629 I-1.1395 J-1.1395
G3 X43.8959 Y61.9847 I-0.6167 J-1.4898
G1 X36.2944 Y61.9847
G3 X35.6776 Y61.8629 I0 J-1.6116
G3 X35.1548 Y61.5126 I0.6167 J-1.4898
G3 X34.8045 Y60.9898 I1.1395 J-1.1395
G3 X34.6827 Y60.3730 I1.4898 J-0.6167
G0 Z2
G0 X39.7626 Y56.9058
G1 Z-3.35 F200
G1 X39.7614 Y39.2411 F400
G1 X40.4263 Y39.2411
G1 X40.4263 Y56.9060
G1 X39.7614 Y56.9060
G1 X37.2225 Y59.4459 F400
G1 X37.2233 Y36.7005 F400
G1 X42.9670 Y36.7005
G1 X42.9670 Y59.4467
G1 X37.2233 Y59.4467
G1 X34.6824 Y60.3733 F400
G1 X34.6827 Y35.7741 F400
G3 X34.8045 Y35.1573 I1.6116 J0
G3 X35.1548 Y34.6319 I1.4898 J0.6167
G3 X35.6776 Y34.2842 I1.1395 J1.1395
G3 X36.2944 Y34.1598 I0.6167 J1.4898
G1 X43.8959 Y34.1598
G3 X44.5126 Y34.2842 I0 J1.6116
G3 X45.0355 Y34.6319 I-0.6167 J1.4898
G3 X45.3857 Y35.1573 I-1.1395 J1.1395
G3 X45.5076 Y35.7741 I-1.4898 J0.6167
G1 X45.5076 Y60.3730
G3 X45.3857 Y60.9898 I-1.6116 J0
G3 X45.0355 Y61.5126 I-1.4898 J-0.6167
G3 X44.5126 Y61.8629 I-1.1395 J-1.1395
G3 X43.8959 Y61.9847 I-0.6167 J-1.4898
G1 X36.2944 Y61.9847
G3 X35.6776 Y61.8629 I0 J-1.6116
G3 X35.1548 Y61.5126 I0.6167 J-1.4898
G3 X34.8045 Y60.9898 I1.1395 J-1.1395
G3 X34.6827 Y60.3730 I1.4898 J-0.6167
G0 Z2
G0 X39.7626 Y56.9058
G1 Z-3.4 F200
G1 X39.7614 Y39.2411 F400
G1 X40.4263 Y39.2411
G1 X40.4263 Y56.9060
G1 X39.7614 Y56.9060
G1 X37.2225 Y59.4459 F400
G1 X37.2233 Y36.7005 F400
G1 X42.9670 Y36.7005
G1 X42.9670 Y59.4467
G1 X37.2233 Y59.4467
G1 X34.6824 Y60.3733 F400
G1 X34.6827 Y35.7741 F400
G3 X34.8045 Y35.1573 I1.6116 J0
G3 X35.1548 Y34.6319 I1.4898 J0.6167
G3 X35.6776 Y34.2842 I1.1395 J1.1395
G3 X36.2944 Y34.1598 I0.6167 J1.4898
G1 X43.8959 Y34.1598
G3 X44.5126 Y34.2842 I0 J1.6116
G3 X45.0355 Y34.6319 I-0.6167 J1.4898
G3 X45.3857 Y35.1573 I-1.1395 J1.1395
G3 X45.5076 Y35.7741 I-1.4898 J0.6167
G1 X45.5076 Y60.3730
G3 X45.3857 Y60.9898 I-1.6116 J0
G3 X45.0355 Y61.5126 I-1.4898 J-0.6167
G3 X44.5126 Y61.8629 I-1.1395 J-1.1395
G3 X43.8959 Y61.9847 I-0.6167 J-1.4898
G1 X36.2944 Y61.9847
G3 X35.6776 Y61.8629 I0 J-1.6116
G3 X35.1548 Y61.5126 I0.6167 J-1.4898
G3 X34.8045 Y60.9898 I1.1395 J-1.1395
G3 X34.6827 Y60.3730 I1.4898 J-0.6167
G0 Z2
G0 X39.7626 Y56.9058
G1 Z-3.45 F200
G1 X39.7614 Y39.2411 F400
G1 X40.4263 Y39.2411
G1 X40.4263 Y56.9060
G1 X39.7614 Y56.9060
G1 X37.2225 Y59.4459 F400
G1 X37.2233 Y36.7005 F400
G1 X42.9670 Y36.7005
G1 X42.9670 Y59.4467
G1 X37.2233 Y59.4467
G1 X34.6824 Y60.3733 F400
G1 X34.6827 Y35.7741 F400
G3 X34.8045 Y35.1573 I1.6116 J0
G3 X35.1548 Y34.6319 I1.4898 J0.6167
G3 X35.6776 Y34.2842 I1.1395 J1.1395
G3 X36.2944 Y34.1598 I0.6167 J1.4898
G1 X43.8959 Y34.1598
G3 X44.5126 Y34.2842 I0 J1.6116
G3 X45.0355 Y34.6319 I-0.6167 J1.4898
G3 X45.3857 Y35.1573 I-1.1395 J1.1395
G3 X45.5076 Y35.7741 I-1.4898 J0.6167
G1 X45.5076 Y60.3730
G3 X45.3857 Y60.9898 I-1.6116 J0
G3 X45.0355 Y61.5126 I-1.4898 J-0.6167
G3 X44.5126 Y61.8629 I-1.1395 J-1.1395
G3 X43.8959 Y61.9847 I-0.6167 J-1.4898
G1 X36.2944 Y61.9847
G3 X35.6776 Y61.8629 I0 J-1.6116
G3 X35.1548 Y61.5126 I0.6167 J-1.4898
G3 X34.8045 Y60.9898 I1.1395 J-1.1395
G3 X34.6827 Y60.3730 I1.4898 J-0.6167
G0 Z2
G0 X39.7626 Y56.9058
G1 Z-3.5 F200
G1 X39.7614 Y39.2411 F400
G1 X40.4263 Y39.2411
G1 X40.4263 Y56.9060
G1 X39.7614 Y56.9060
G1 X37.2225 Y59.4459 F400
G1 X37.2233 Y36.7005 F400
G1 X42.9670 Y36.7005
G1 X42.9670 Y59.4467
G1 X37.2233 Y59.4467
G1 X34.6824 Y60.3733 F400
G1 X34.6827 Y35.7741 F400
G3 X34.8045 Y35.1573 I1.6116 J0
G3 X35.1548 Y34.6319 I1.4898 J0.6167
G3 X35.6776 Y34.2842 I1.1395 J1.1395
G3 X36.2944 Y34.1598 I0.6167 J1.4898
G1 X43.8959 Y34.1598
G3 X44.5126 Y34.2842 I0 J1.6116
G3 X45.0355 Y34.6319 I-0.6167 J1.4898
G3 X45.3857 Y35.1573 I-1.1395 J1.1395
G3 X45.5076 Y35.7741 I-1.4898 J0.6167
G1 X45.5076 Y60.3730
G3 X45.3857 Y60.9898 I-1.6116 J0
G3 X45.0355 Y61.5126 I-1.4898 J-0.6167
G3 X44.5126 Y61.8629 I-1.1395 J-1.1395
G3 X43.8959 Y61.9847 I-0.6167 J-1.4898
G1 X36.2944 Y61.9847
G3 X35.6776 Y61.8629 I0 J-1.6116
G3 X35.1548 Y61.5126 I0.6167 J-1.4898
G3 X34.8045 Y60.9898 I1.1395 J-1.1395
G3 X34.6827 Y60.3730 I1.4898 J-0.6167
G0 Z2
G0 X39.7626 Y56.9058
G1 Z-3.55 F200
G1 X39.7614 Y39.2411 F400
G1 X40.4263 Y39.2411
G1 X40.4263 Y56.9060
G1 X39.7614 Y56.9060
G1 X37.2225 Y59.4459 F400
G1 X37.2233 Y36.7005 F400
G1 X42.9670 Y36.7005
G1 X42.9670 Y59.4467
G1 X37.2233 Y59.4467
G1 X34.6824 Y60.3733 F400
G1 X34.6827 Y35.7741 F400
G3 X34.8045 Y35.1573 I1.6116 J0
G3 X35.1548 Y34.6319 I1.4898 J0.6167
G3 X35.6776 Y34.2842 I1.1395 J1.1395
G3 X36.2944 Y34.1598 I0.6167 J1.4898
G1 X43.8959 Y34.1598
G3 X44.5126 Y34.2842 I0 J1.6116
G3 X45.0355 Y34.6319 I-0.6167 J1.4898
G3 X45.3857 Y35.1573 I-1.1395 J1.1395
G3 X45.5076 Y35.7741 I-1.4898 J0.6167
G1 X45.5076 Y60.3730
G3 X45.3857 Y60.9898 I-1.6116 J0
G3 X45.0355 Y61.5126 I-1.4898 J-0.6167
G3 X44.5126 Y61.8629 I-1.1395 J-1.1395
G3 X43.8959 Y61.9847 I-0.6167 J-1.4898
G1 X36.2944 Y61.9847
G3 X35.6776 Y61.8629 I0 J-1.6116
G3 X35.1548 Y61.5126 I0.6167 J-1.4898
G3 X34.8045 Y60.9898 I1.1395 J-1.1395
G3 X34.6827 Y60.3730 I1.4898 J-0.6167
G0 Z2
G0 X39.7626 Y56.9058
G1 Z-3.6 F200
G1 X39.7614 Y39.2411 F400
G1 X40.4263 Y39.2411
G1 X40.4263 Y56.9060
G1 X39.7614 Y56.9060
G1 X37.2225 Y59.4459 F400
G1 X37.2233 Y36.7005 F400
G1 X42.9670 Y36.7005
G1 X42.9670 Y59.4467
G1 X37.2233 Y59.4467
G1 X34.6824 Y60.3733 F400
G1 X34.6827 Y35.7741 F400
G3 X34.8045 Y35.1573 I1.6116 J0
G3 X35.1548 Y34.6319 I1.4898 J0.6167
G3 X35.6776 Y34.2842 I1.1395 J1.1395
G3 X36.2944 Y34.1598 I0.6167 J1.4898
G1 X43.8959 Y34.1598
G3 X44.5126 Y34.2842 I0 J1.6116
G3 X45.0355 Y34.6319 I-0.6167 J1.4898
G3 X45.3857 Y35.1573 I-1.1395 J1.1395
G3 X45.5076 Y35.7741 I-1.4898 J0.6167
G1 X45.5076 Y60.3730
G3 X45.3857 Y60.9898 I-1.6116 J0
G3 X45.0355 Y61.5126 I-1.4898 J-0.6167
G3 X44.5126 Y61.8629 I-1.1395 J-1.1395
G3 X43.8959 Y61.9847 I-0.6167 J-1.4898
G1 X36.2944 Y61.9847
G3 X35.6776 Y61.8629 I0 J-1.6116
G3 X35.1548 Y61.5126 I0.6167 J-1.4898
G3 X34.8045 Y60.9898 I1.1395 J-1.1395
G3 X34.6827 Y60.3730 I1.4898 J-0.6167
G0 Z2
G0 X39.7626 Y56.9058
G1 Z-3.65 F200
G1 X39.7614 Y39.2411 F400
G1 X40.4263 Y39.2411
G1 X40.4263 Y56.9060
G1 X39.7614 Y56.9060
G1 X37.2225 Y59.4459 F400
G1 X37.2233 Y36.7005 F400
G1 X42.9670 Y36.7005
G1 X42.9670 Y59.4467
G1 X37.2233 Y59.4467
G1 X34.6824 Y60.3733 F400
G1 X34.6827 Y35.7741 F400
G3 X34.8045 Y35.1573 I1.6116 J0
G3 X35.1548 Y34.6319 I1.4898 J0.6167
G3 X35.6776 Y34.2842 I1.1395 J1.1395
G3 X36.2944 Y34.1598 I0.6167 J1.4898
G1 X43.8959 Y34.1598
G3 X44.5126 Y34.2842 I0 J1.6116
G3 X45.0355 Y34.6319 I-0.6167 J1.4898
G3 X45.3857 Y35.1573 I-1.1395 J1.1395
G3 X45.5076 Y35.7741 I-1.4898 J0.6167
G1 X45.5076 Y60.3730
G3 X45.3857 Y60.9898 I-1.6116 J0
G3 X45.0355 Y61.5126 I-1.4898 J-0.6167
G3 X44.5126 Y61.8629 I-1.1395 J-1.1395
G3 X43.8959 Y61.9847 I-0.6167 J-1.4898
G1 X36.2944 Y61.9847
G3 X35.6776 Y61.8629 I0 J-1.6116
G3 X35.1548 Y61.5126 I0.6167 J-1.4898
G3 X34.8045 Y60.9898 I1.1395 J-1.1395
G3 X34.6827 Y60.3730 I1.4898 J-0.6167
G0 Z2
G0 X39.7626 Y56.9058
G1 Z-3.7 F200
G1 X39.7614 Y39.2411 F400
G1 X40.4263 Y39.2411
G1 X40.4263 Y56.9060
G1 X39.7614 Y56.9060
G1 X37.2225 Y59.4459 F400
G1 X37.2233 Y36.7005 F400
G1 X42.9670 Y36.7005
G1 X42.9670 Y59.4467
G1 X37.2233 Y59.4467
G1 X34.6824 Y60.3733 F400
G1 X34.6827 Y35.7741 F400
G3 X34.8045 Y35.1573 I1.6116 J0
G3 X35.1548 Y34.6319 I1.4898 J0.6167
G3 X35.6776 Y34.2842 I1.1395 J1.1395
G3 X36.2944 Y34.1598 I0.6167 J1.4898
G1 X43.8959 Y34.1598
G3 X44.5126 Y34.2842 I0 J1.6116
G3 X45.0355 Y34.6319 I-0.6167 J1.4898
G3 X45.3857 Y35.1573 I-1.1395 J1.1395
G3 X45.5076 Y35.7741 I-1.4898 J0.6167
G1 X45.5076 Y60.3730
G3 X45.3857 Y60.9898 I-1.6116 J0
G3 X45.0355 Y61.5126 I-1.4898 J-0.6167
G3 X44.5126 Y61.8629 I-1.1395 J-1.1395
G3 X43.8959 Y61.9847 I-0.6167 J-1.4898
G1 X36.2944 Y61.9847
G3 X35.6776 Y61.8629 I0 J-1.6116
G3 X35.1548 Y61.5126 I0.6167 J-1.4898
G3 X34.8045 Y60.9898 I1.1395 J-1.1395
G3 X34.6827 Y60.3730 I1.4898 J-0.6167
G0 Z2
G0 X39.7626 Y56.9058
G1 Z-3.75 F200
G1 X39.7614 Y39.2411 F400
G1 X40.4263 Y39.2411
G1 X40.4263 Y56.9060
G1 X39.7614 Y56.9060
G1 X37.2225 Y59.4459 F400
G1 X37.2233 Y36.7005 F400
G1 X42.9670 Y36.7005
G1 X42.9670 Y59.4467
G1 X37.2233 Y59.4467
G1 X34.6824 Y60.3733 F400
G1 X34.6827 Y35.7741 F400
G3 X34.8045 Y35.1573 I1.6116 J0
G3 X35.1548 Y34.6319 I1.4898 J0.6167
G3 X35.6776 Y34.2842 I1.1395 J1.1395
G3 X36.2944 Y34.1598 I0.6167 J1.4898
G1 X43.8959 Y34.1598
G3 X44.5126 Y34.2842 I0 J1.6116
G3 X45.0355 Y34.6319 I-0.6167 J1.4898
G3 X45.3857 Y35.1573 I-1.1395 J1.1395
G3 X45.5076 Y35.7741 I-1.4898 J0.6167
G1 X45.5076 Y60.3730
G3 X45.3857 Y60.9898 I-1.6116 J0
G3 X45.0355 Y61.5126 I-1.4898 J-0.6167
G3 X44.5126 Y61.8629 I-1.1395 J-1.1395
G3 X43.8959 Y61.9847 I-0.6167 J-1.4898
G1 X36.2944 Y61.9847
G3 X35.6776 Y61.8629 I0 J-1.6116
G3 X35.1548 Y61.5126 I0.6167 J-1.4898
G3 X34.8045 Y60.9898 I1.1395 J-1.1395
G3 X34.6827 Y60.3730 I1.4898 J-0.6167
G0 Z2
G0 X39.7626 Y56.9058
G1 Z-3.8 F200
G1 X39.7614 Y39.2411 F400
G1 X40.4263 Y39.2411
G1 X40.4263 Y56.9060
G1 X39.7614 Y56.9060
G1 X37.2225 Y59.4459 F400
G1 X37.2233 Y36.7005 F400
G1 X42.9670 Y36.7005
G1 X42.9670 Y59.4467
G1 X37.2233 Y59.4467
G1 X34.6824 Y60.3733 F400
G1 X34.6827 Y35.7741 F400
G3 X34.8045 Y35.1573 I1.6116 J0
G3 X35.1548 Y34.6319 I1.4898 J0.6167
G3 X35.6776 Y34.2842 I1.1395 J1.1395
G3 X36.2944 Y34.1598 I0.6167 J1.4898
G1 X43.8959 Y34.1598
G3 X44.5126 Y34.2842 I0 J1.6116
G3 X45.0355 Y34.6319 I-0.6167 J1.4898
G3 X45.3857 Y35.1573 I-1.1395 J1.1395
G3 X45.5076 Y35.7741 I-1.4898 J0.6167
G1 X45.5076 Y60.3730
G3 X45.3857 Y60.9898 I-1.6116 J0
G3 X45.0355 Y61.5126 I-1.4898 J-0.6167
G3 X44.5126 Y61.8629 I-1.1395 J-1.1395
G3 X43.8959 Y61.9847 I-0.6167 J-1.4898
G1 X36.2944 Y61.9847
G3 X35.6776 Y61.8629 I0 J-1.6116
G3 X35.1548 Y61.5126 I0.6167 J-1.4898
G3 X34.8045 Y60.9898 I1.1395 J-1.1395
G3 X34.6827 Y60.3730 I1.4898 J-0.6167
G0 Z2
G0 X39.7626 Y56.9058
G1 Z-3.85 F200
G1 X39.7614 Y39.2411 F400
G1 X40.4263 Y39.2411
G1 X40.4263 Y56.9060
G1 X39.7614 Y56.9060
G1 X37.2225 Y59.4459 F400
G1 X37.2233 Y36.7005 F400
G1 X42.9670 Y36.7005
G1 X42.9670 Y59.4467
G1 X37.2233 Y59.4467
G1 X34.6824 Y60.3733 F400
G1 X34.6827 Y35.7741 F400
G3 X34.8045 Y35.1573 I1.6116 J0
G3 X35.1548 Y34.6319 I1.4898 J0.6167
G3 X35.6776 Y34.2842 I1.1395 J1.1395
G3 X36.2944 Y34.1598 I0.6167 J1.4898
G1 X43.8959 Y34.1598
G3 X44.5126 Y34.2842 I0 J1.6116
G3 X45.0355 Y34.6319 I-0.6167 J1.4898
G3 X45.3857 Y35.1573 I-1.1395 J1.1395
G3 X45.5076 Y35.7741 I-1.4898 J0.6167
G1 X45.5076 Y60.3730
G3 X45.3857 Y60.9898 I-1.6116 J0
G3 X45.0355 Y61.5126 I-1.4898 J-0.6167
G3 X44.5126 Y61.8629 I-1.1395 J-1.1395
G3 X43.8959 Y61.9847 I-0.6167 J-1.4898
G1 X36.2944 Y61.9847
G3 X35.6776 Y61.8629 I0 J-1.6116
G3 X35.1548 Y61.5126 I0.6167 J-1.4898
G3 X34.8045 Y60.9898 I1.1395 J-1.1395
G3 X34.6827 Y60.3730 I1.4898 J-0.6167
G0 Z2
G0 X39.7626 Y56.9058
G1 Z-3.9 F200
G1 X39.7614 Y39.2411 F400
G1 X40.4263 Y39.2411
G1 X40.4263 Y56.9060
G1 X39.7614 Y56.9060
G1 X37.2225 Y59.4459 F400
G1 X37.2233 Y36.7005 F400
G1 X42.9670 Y36.7005
G1 X42.9670 Y59.4467
G1 X37.2233 Y59.4467
G1 X34.6824 Y60.3733 F400
G1 X34.6827 Y35.7741 F400
G3 X34.8045 Y35.1573 I1.6116 J0
G3 X35.1548 Y34.6319 I1.4898 J0.6167
G3 X35.6776 Y34.2842 I1.1395 J1.1395
G3 X36.2944 Y34.1598 I0.6167 J1.4898
G1 X43.8959 Y34.1598
G3 X44.5126 Y34.2842 I0 J1.6116
G3 X45.0355 Y34.6319 I-0.6167 J1.4898
G3 X45.3857 Y35.1573 I-1.1395 J1.1395
G3 X45.5076 Y35.7741 I-1.4898 J0.6167
G1 X45.5076 Y60.3730
G3 X45.3857 Y60.9898 I-1.6116 J0
G3 X45.0355 Y61.5126 I-1.4898 J-0.6167
G3 X44.5126 Y61.8629 I-1.1395 J-1.1395
G3 X43.8959 Y61.9847 I-0.6167 J-1.4898
G1 X36.2944 Y61.9847
G3 X35.6776 Y61.8629 I0 J-1.6116
G3 X35.1548 Y61.5126 I0.6167 J-1.4898
G3 X34.8045 Y60.9898 I1.1395 J-1.1395
G3 X34.6827 Y60.3730 I1.4898 J-0.6167
G0 Z2
G0 X39.7626 Y56.9058
G1 Z-3.95 F200
G1 X39.7614 Y39.2411 F400
G1 X40.4263 Y39.2411
G1 X40.4263 Y56.9060
G1 X39.7614 Y56.9060
G1 X37.2225 Y59.4459 F400
G1 X37.2233 Y36.7005 F400
G1 X42.9670 Y36.7005
G1 X42.9670 Y59.4467
G1 X37.2233 Y59.4467
G1 X34.6824 Y60.3733 F400
G1 X34.6827 Y35.7741 F400
G3 X34.8045 Y35.1573 I1.6116 J0
G3 X35.1548 Y34.6319 I1.4898 J0.6167
G3 X35.6776 Y34.2842 I1.1395 J1.1395
G3 X36.2944 Y34.1598 I0.6167 J1.4898
G1 X43.8959 Y34.1598
G3 X44.5126 Y34.2842 I0 J1.6116
G3 X45.0355 Y34.6319 I-0.6167 J1.4898
G3 X45.3857 Y35.1573 I-1.1395 J1.1395
G3 X45.5076 Y35.7741 I-1.4898 J0.6167
G1 X45.5076 Y60.3730
G3 X45.3857 Y60.9898 I-1.6116 J0
G3 X45.0355 Y61.5126 I-1.4898 J-0.6167
G3 X44.5126 Y61.8629 I-1.1395 J-1.1395
G3 X43.8959 Y61.9847 I-0.6167 J-1.4898
G1 X36.2944 Y61.9847
G3 X35.6776 Y61.8629 I0 J-1.6116
G3 X35.1548 Y61.5126 I0.6167 J-1.4898
G3 X34.8045 Y60.9898 I1.1395 J-1.1395
G3 X34.6827 Y60.3730 I1.4898 J-0.6167
G0 Z2
G0 X39.7626 Y56.9058
G1 Z-4 F200
G1 X39.7614 Y39.2411 F400
G1 X40.4263 Y39.2411
G1 X40.4263 Y56.9060
G1 X39.7614 Y56.9060
G1 X37.2225 Y59.4459 F400
G1 X37.2233 Y36.7005 F400
G1 X42.9670 Y36.7005
G1 X42.9670 Y59.4467
G1 X37.2233 Y59.4467
G1 X34.6824 Y60.3733 F400
G1 X34.6827 Y35.7741 F400
G3 X34.8045 Y35.1573 I1.6116 J0
G3 X35.1548 Y34.6319 I1.4898 J0.6167
G3 X35.6776 Y34.2842 I1.1395 J1.1395
G3 X36.2944 Y34.1598 I0.6167 J1.4898
G1 X43.8959 Y34.1598
G3 X44.5126 Y34.2842 I0 J1.6116
G3 X45.0355 Y34.6319 I-0.6167 J1.4898
G3 X45.3857 Y35.1573 I-1.1395 J1.1395
G3 X45.5076 Y35.7741 I-1.4898 J0.6167
G1 X45.5076 Y60.3730
G3 X45.3857 Y60.9898 I-1.6116 J0
G3 X45.0355 Y61.5126 I-1.4898 J-0.6167
G3 X44.5126 Y61.8629 I-1.1395 J-1.1395
G3 X43.8959 Y61.9847 I-0.6167 J-1.4898
G1 X36.2944 Y61.9847
G3 X35.6776 Y61.8629 I0 J-1.6116
G3 X35.1548 Y61.5126 I0.6167 J-1.4898
G3 X34.8045 Y60.9898 I1.1395 J-1.1395
G3 X34.6827 Y60.3730 I1.4898 J-0.6167
G0 Z2
G0 X39.7626 Y56.9058
G1 Z-4.05 F200
G1 X39.7614 Y39.2411 F400
G1 X40.4263 Y39.2411
G1 X40.4263 Y56.9060
G1 X39.7614 Y56.9060
G1 X37.2225 Y59.4459 F400
G1 X37.2233 Y36.7005 F400
G1 X42.9670 Y36.7005
G1 X42.9670 Y59.4467
G1 X37.2233 Y59.4467
G1 X34.6824 Y60.3733 F400
G1 X34.6827 Y35.7741 F400
G3 X34.8045 Y35.1573 I1.6116 J0
G3 X35.1548 Y34.6319 I1.4898 J0.6167
G3 X35.6776 Y34.2842 I1.1395 J1.1395
G3 X36.2944 Y34.1598 I0.6167 J1.4898
G1 X43.8959 Y34.1598
G3 X44.5126 Y34.2842 I0 J1.6116
G3 X45.0355 Y34.6319 I-0.6167 J1.4898
G3 X45.3857 Y35.1573 I-1.1395 J1.1395
G3 X45.5076 Y35.7741 I-1.4898 J0.6167
G1 X45.5076 Y60.3730
G3 X45.3857 Y60.9898 I-1.6116 J0
G3 X45.0355 Y61.5126 I-1.4898 J-0.6167
G3 X44.5126 Y61.8629 I-1.1395 J-1.1395
G3 X43.8959 Y61.9847 I-0.6167 J-1.4898
G1 X36.2944 Y61.9847
G3 X35.6776 Y61.8629 I0 J-1.6116
G3 X35.1548 Y61.5126 I0.6167 J-1.4898
G3 X34.8045 Y60.9898 I1.1395 J-1.1395
G3 X34.6827 Y60.3730 I1.4898 J-0.6167
G0 Z2
G0 X39.7626 Y56.9058
G1 Z-4.1 F200
G1 X39.7614 Y39.2411 F400
G1 X40.4263 Y39.2411
G1 X40.4263 Y56.9060
G1 X39.7614 Y56.9060
G1 X37.2225 Y59.4459 F400
G1 X37.2233 Y36.7005 F400
G1 X42.9670 Y36.7005
G1 X42.9670 Y59.4467
G1 X37.2233 Y59.4467
G1 X34.6824 Y60.3733 F400
G1 X34.6827 Y35.7741 F400
G3 X34.8045 Y35.1573 I1.6116 J0
G3 X35.1548 Y34.6319 I1.4898 J0.6167
G3 X35.6776 Y34.2842 I1.1395 J1.1395
G3 X36.2944 Y34.1598 I0.6167 J1.4898
G1 X43.8959 Y34.1598
G3 X44.5126 Y34.2842 I0 J1.6116
G3 X45.0355 Y34.6319 I-0.6167 J1.4898
G3 X45.3857 Y35.1573 I-1.1395 J1.1395
G3 X45.5076 Y35.7741 I-1.4898 J0.6167
G1 X45.5076 Y60.3730
G3 X45.3857 Y60.9898 I-1.6116 J0
G3 X45.0355 Y61.5126 I-1.4898 J-0.6167
G3 X44.5126 Y61.8629 I-1.1395 J-1.1395
G3 X43.8959 Y61.9847 I-0.6167 J-1.4898
G1 X36.2944 Y61.9847
G3 X35.6776 Y61.8629 I0 J-1.6116
G3 X35.1548 Y61.5126 I0.6167 J-1.4898
G3 X34.8045 Y60.9898 I1.1395 J-1.1395
G3 X34.6827 Y60.3730 I1.4898 J-0.6167
G0 Z2
G0 X39.7626 Y56.9058
G1 Z-4.15 F200
G1 X39.7614 Y39.2411 F400
G1 X40.4263 Y39.2411
G1 X40.4263 Y56.9060
G1 X39.7614 Y56.9060
G1 X37.2225 Y59.4459 F400
G1 X37.2233 Y36.7005 F400
G1 X42.9670 Y36.7005
G1 X42.9670 Y59.4467
G1 X37.2233 Y59.4467
G1 X34.6824 Y60.3733 F400
G1 X34.6827 Y35.7741 F400
G3 X34.8045 Y35.1573 I1.6116 J0
G3 X35.1548 Y34.6319 I1.4898 J0.6167
G3 X35.6776 Y34.2842 I1.1395 J1.1395
G3 X36.2944 Y34.1598 I0.6167 J1.4898
G1 X43.8959 Y34.1598
G3 X44.5126 Y34.2842 I0 J1.6116
G3 X45.0355 Y34.6319 I-0.6167 J1.4898
G3 X45.3857 Y35.1573 I-1.1395 J1.1395
G3 X45.5076 Y35.7741 I-1.4898 J0.6167
G1 X45.5076 Y60.3730
G3 X45.3857 Y60.9898 I-1.6116 J0
G3 X45.0355 Y61.5126 I-1.4898 J-0.6167
G3 X44.5126 Y61.8629 I-1.1395 J-1.1395
G3 X43.8959 Y61.9847 I-0.6167 J-1.4898
G1 X36.2944 Y61.9847
G3 X35.6776 Y61.8629 I0 J-1.6116
G3 X35.1548 Y61.5126 I0.6167 J-1.4898
G3 X34.8045 Y60.9898 I1.1395 J-1.1395
G3 X34.6827 Y60.3730 I1.4898 J-0.6167
G0 Z2
G0 X39.7626 Y56.9058
G1 Z-4.2 F200
G1 X39.7614 Y39.2411 F400
G1 X40.4263 Y39.2411
G1 X40.4263 Y56.9060
G1 X39.7614 Y56.9060
G1 X37.2225 Y59.4459 F400
G1 X37.2233 Y36.7005 F400
G1 X42.9670 Y36.7005
G1 X42.9670 Y59.4467
G1 X37.2233 Y59.4467
G1 X34.6824 Y60.3733 F400
G1 X34.6827 Y35.7741 F400
G3 X34.8045 Y35.1573 I1.6116 J0
G3 X35.1548 Y34.6319 I1.4898 J0.6167
G3 X35.6776 Y34.2842 I1.1395 J1.1395
G3 X36.2944 Y34.1598 I0.6167 J1.4898
G1 X43.8959 Y34.1598
G3 X44.5126 Y34.2842 I0 J1.6116
