(Generated by PartKam Version 0.05)

G21 G90 G40

(inlay)
G0 Z2
T0 M6
G17
M3
G0 X31.44238578680203 Y47.948984771573606
G1 Z-0.1 F200
G1 X14.616751269035532 Y47.9492385786802 F400
G1 X14.616751269035532 Y47.9238578680203
G1 X31.441624365482234 Y47.9238578680203
G1 X31.441624365482234 Y47.9492385786802
G0 Z2
G0 X31.44238578680203 Y47.948984771573606
G1 Z-0.2 F200
G1 X14.616751269035532 Y47.9492385786802 F400
G1 X14.616751269035532 Y47.9238578680203
G1 X31.441624365482234 Y47.9238578680203
G1 X31.441624365482234 Y47.9492385786802
G0 Z2
G0 X31.44238578680203 Y47.948984771573606
G1 Z-0.3 F200
G1 X14.616751269035532 Y47.9492385786802 F400
G1 X14.616751269035532 Y47.9238578680203
G1 X31.441624365482234 Y47.9238578680203
G1 X31.441624365482234 Y47.9492385786802
G0 Z2
G0 X31.44238578680203 Y47.948984771573606
G1 Z-0.4 F200
G1 X14.616751269035532 Y47.9492385786802 F400
G1 X14.616751269035532 Y47.9238578680203
G1 X31.441624365482234 Y47.9238578680203
G1 X31.441624365482234 Y47.9492385786802
G0 Z2
G0 X31.44238578680203 Y47.948984771573606
G1 Z-0.5 F200
G1 X14.616751269035532 Y47.9492385786802 F400
G1 X14.616751269035532 Y47.9238578680203
G1 X31.441624365482234 Y47.9238578680203
G1 X31.441624365482234 Y47.9492385786802
G0 Z2
G0 X31.44238578680203 Y47.948984771573606
G1 Z-0.6 F200
G1 X14.616751269035532 Y47.9492385786802 F400
G1 X14.616751269035532 Y47.9238578680203
G1 X31.441624365482234 Y47.9238578680203
G1 X31.441624365482234 Y47.9492385786802
G0 Z2
G0 X31.44238578680203 Y47.948984771573606
G1 Z-0.7 F200
G1 X14.616751269035532 Y47.9492385786802 F400
G1 X14.616751269035532 Y47.9238578680203
G1 X31.441624365482234 Y47.9238578680203
G1 X31.441624365482234 Y47.9492385786802
G0 Z2
G0 X31.44238578680203 Y47.948984771573606
G1 Z-0.8 F200
G1 X14.616751269035532 Y47.9492385786802 F400
G1 X14.616751269035532 Y47.9238578680203
G1 X31.441624365482234 Y47.9238578680203
G1 X31.441624365482234 Y47.9492385786802

(pocket 2)
G0 Z2
G0 X65.64238578680202 Y47.948984771573606
G1 Z-0.1 F200
G1 X48.81725888324873 Y47.9492385786802 F400
G1 X48.81725888324873 Y47.9238578680203
G1 X65.64213197969544 Y47.9238578680203
G1 X65.64213197969544 Y47.9492385786802
G0 Z2
G0 X65.64238578680202 Y47.948984771573606
G1 Z-0.2 F200
G1 X48.81725888324873 Y47.9492385786802 F400
G1 X48.81725888324873 Y47.9238578680203
G1 X65.64213197969544 Y47.9238578680203
G1 X65.64213197969544 Y47.9492385786802
G0 Z2
G0 X65.64238578680202 Y47.948984771573606
G1 Z-0.3 F200
G1 X48.81725888324873 Y47.9492385786802 F400
G1 X48.81725888324873 Y47.9238578680203
G1 X65.64213197969544 Y47.9238578680203
G1 X65.64213197969544 Y47.9492385786802
G0 Z2
G0 X65.64238578680202 Y47.948984771573606
G1 Z-0.4 F200
G1 X48.81725888324873 Y47.9492385786802 F400
G1 X48.81725888324873 Y47.9238578680203
G1 X65.64213197969544 Y47.9238578680203
G1 X65.64213197969544 Y47.9492385786802
G0 Z2
G0 X65.64238578680202 Y47.948984771573606
G1 Z-0.5 F200
G1 X48.81725888324873 Y47.9492385786802 F400
G1 X48.81725888324873 Y47.9238578680203
G1 X65.64213197969544 Y47.9238578680203
G1 X65.64213197969544 Y47.9492385786802
G0 Z2
G0 X65.64238578680202 Y47.948984771573606
G1 Z-0.6 F200
G1 X48.81725888324873 Y47.9492385786802 F400
G1 X48.81725888324873 Y47.9238578680203
G1 X65.64213197969544 Y47.9238578680203
G1 X65.64213197969544 Y47.9492385786802
G0 Z2
G0 X65.64238578680202 Y47.948984771573606
G1 Z-0.7 F200
G1 X48.81725888324873 Y47.9492385786802 F400
G1 X48.81725888324873 Y47.9238578680203
G1 X65.64213197969544 Y47.9238578680203
G1 X65.64213197969544 Y47.9492385786802
G0 Z2
G0 X65.64238578680202 Y47.948984771573606
G1 Z-0.8 F200
G1 X48.81725888324873 Y47.9492385786802 F400
G1 X48.81725888324873 Y47.9238578680203
G1 X65.64213197969544 Y47.9238578680203
G1 X65.64213197969544 Y47.9492385786802

(pocket 3)
G0 Z2
G0 X14.61751269035533 Y131.9238578680203
G1 Z-0.1 F200
G1 X31.441624365482234 Y131.92385786802032 F400
G1 X31.441624365482234 Y131.9492385786802
G1 X14.616751269035532 Y131.9492385786802
G1 X14.616751269035532 Y131.92385786802032
G0 Z2
G0 X14.61751269035533 Y131.9238578680203
G1 Z-0.2 F200
G1 X31.441624365482234 Y131.92385786802032 F400
G1 X31.441624365482234 Y131.9492385786802
G1 X14.616751269035532 Y131.9492385786802
G1 X14.616751269035532 Y131.92385786802032
G0 Z2
G0 X14.61751269035533 Y131.9238578680203
G1 Z-0.3 F200
G1 X31.441624365482234 Y131.92385786802032 F400
G1 X31.441624365482234 Y131.9492385786802
G1 X14.616751269035532 Y131.9492385786802
G1 X14.616751269035532 Y131.92385786802032
G0 Z2
G0 X14.61751269035533 Y131.9238578680203
G1 Z-0.4 F200
G1 X31.441624365482234 Y131.92385786802032 F400
G1 X31.441624365482234 Y131.9492385786802
G1 X14.616751269035532 Y131.9492385786802
G1 X14.616751269035532 Y131.92385786802032
G0 Z2
G0 X14.61751269035533 Y131.9238578680203
G1 Z-0.5 F200
G1 X31.441624365482234 Y131.92385786802032 F400
G1 X31.441624365482234 Y131.9492385786802
G1 X14.616751269035532 Y131.9492385786802
G1 X14.616751269035532 Y131.92385786802032
G0 Z2
G0 X14.61751269035533 Y131.9238578680203
G1 Z-0.6 F200
G1 X31.441624365482234 Y131.92385786802032 F400
G1 X31.441624365482234 Y131.9492385786802
G1 X14.616751269035532 Y131.9492385786802
G1 X14.616751269035532 Y131.92385786802032
G0 Z2
G0 X14.61751269035533 Y131.9238578680203
G1 Z-0.7 F200
G1 X31.441624365482234 Y131.92385786802032 F400
G1 X31.441624365482234 Y131.9492385786802
G1 X14.616751269035532 Y131.9492385786802
G1 X14.616751269035532 Y131.92385786802032
G0 Z2
G0 X14.61751269035533 Y131.9238578680203
G1 Z-0.8 F200
G1 X31.441624365482234 Y131.92385786802032 F400
G1 X31.441624365482234 Y131.9492385786802
G1 X14.616751269035532 Y131.9492385786802
G1 X14.616751269035532 Y131.92385786802032

(pocket 4)
G0 Z2
G0 X48.81751269035533 Y131.9238578680203
G1 Z-0.1 F200
G1 X65.64213197969544 Y131.92385786802032 F400
G1 X65.64213197969544 Y131.9492385786802
G1 X48.81725888324873 Y131.9492385786802
G1 X48.81725888324873 Y131.92385786802032
G0 Z2
G0 X48.81751269035533 Y131.9238578680203
G1 Z-0.2 F200
G1 X65.64213197969544 Y131.92385786802032 F400
G1 X65.64213197969544 Y131.9492385786802
G1 X48.81725888324873 Y131.9492385786802
G1 X48.81725888324873 Y131.92385786802032
G0 Z2
G0 X48.81751269035533 Y131.9238578680203
G1 Z-0.3 F200
G1 X65.64213197969544 Y131.92385786802032 F400
G1 X65.64213197969544 Y131.9492385786802
G1 X48.81725888324873 Y131.9492385786802
G1 X48.81725888324873 Y131.92385786802032
G0 Z2
G0 X48.81751269035533 Y131.9238578680203
G1 Z-0.4 F200
G1 X65.64213197969544 Y131.92385786802032 F400
G1 X65.64213197969544 Y131.9492385786802
G1 X48.81725888324873 Y131.9492385786802
G1 X48.81725888324873 Y131.92385786802032
G0 Z2
G0 X48.81751269035533 Y131.9238578680203
G1 Z-0.5 F200
G1 X65.64213197969544 Y131.92385786802032 F400
G1 X65.64213197969544 Y131.9492385786802
G1 X48.81725888324873 Y131.9492385786802
G1 X48.81725888324873 Y131.92385786802032
G0 Z2
G0 X48.81751269035533 Y131.9238578680203
G1 Z-0.6 F200
G1 X65.64213197969544 Y131.92385786802032 F400
G1 X65.64213197969544 Y131.9492385786802
G1 X48.81725888324873 Y131.9492385786802
G1 X48.81725888324873 Y131.92385786802032
G0 Z2
G0 X48.81751269035533 Y131.9238578680203
G1 Z-0.7 F200
G1 X65.64213197969544 Y131.92385786802032 F400
G1 X65.64213197969544 Y131.9492385786802
G1 X48.81725888324873 Y131.9492385786802
G1 X48.81725888324873 Y131.92385786802032
G0 Z2
G0 X48.81751269035533 Y131.9238578680203
G1 Z-0.8 F200
G1 X65.64213197969544 Y131.92385786802032 F400
G1 X65.64213197969544 Y131.9492385786802
G1 X48.81725888324873 Y131.9492385786802
G1 X48.81725888324873 Y131.92385786802032

(m5)
G0 Z2
G0 X23.02994923857868 Y39.52385786802031
G1 Z-0.1 F200
G3 X23.378172588832488 Y39.59390862944162 I0 J0.9137055837563451 F400
G3 X23.6751269035533 Y39.79187817258883 I-0.35025380710659904 J0.8426395939086294
G3 X23.873096446700508 Y40.08629441624365 I-0.6446700507614213 J0.6446700507614213
G3 X23.941624365482234 Y40.43654822335025 I-0.8426395939086294 J0.35025380710659904
G3 X23.873096446700508 Y40.786802030456855 I-0.9137055837563451 J0
G3 X23.6751269035533 Y41.08121827411168 I-0.8426395939086294 J-0.35025380710659904
G3 X23.378172588832488 Y41.27918781725889 I-0.6446700507614213 J-0.6446700507614213
G3 X23.030456852791875 Y41.34771573604061 I-0.35025380710659904 J-0.8426395939086294
G3 X22.680203045685282 Y41.27918781725889 I0 J-0.9137055837563451
G3 X22.38578680203046 Y41.08121827411168 I0.35025380710659904 J-0.8426395939086294
G3 X22.18781725888325 Y40.786802030456855 I0.6446700507614213 J-0.6446700507614213
G3 X22.116751269035536 Y40.43654822335025 I0.8426395939086294 J-0.35025380710659904
G3 X22.18781725888325 Y40.08629441624365 I0.9137055837563451 J0
G3 X22.38578680203046 Y39.79187817258883 I0.8426395939086294 J0.35025380710659904
G3 X22.680203045685282 Y39.59390862944162 I0.6446700507614213 J0.6446700507614213
G3 X23.030456852791875 Y39.52284263959391 I0.35025380710659904 J0.8426395939086294
G0 Z2
G0 X23.02994923857868 Y39.52385786802031
G1 Z-0.2 F200
G3 X23.378172588832488 Y39.59390862944162 I0 J0.9137055837563451 F400
G3 X23.6751269035533 Y39.79187817258883 I-0.35025380710659904 J0.8426395939086294
G3 X23.873096446700508 Y40.08629441624365 I-0.6446700507614213 J0.6446700507614213
G3 X23.941624365482234 Y40.43654822335025 I-0.8426395939086294 J0.35025380710659904
G3 X23.873096446700508 Y40.786802030456855 I-0.9137055837563451 J0
G3 X23.6751269035533 Y41.08121827411168 I-0.8426395939086294 J-0.35025380710659904
G3 X23.378172588832488 Y41.27918781725889 I-0.6446700507614213 J-0.6446700507614213
G3 X23.030456852791875 Y41.34771573604061 I-0.35025380710659904 J-0.8426395939086294
G3 X22.680203045685282 Y41.27918781725889 I0 J-0.9137055837563451
G3 X22.38578680203046 Y41.08121827411168 I0.35025380710659904 J-0.8426395939086294
G3 X22.18781725888325 Y40.786802030456855 I0.6446700507614213 J-0.6446700507614213
G3 X22.116751269035536 Y40.43654822335025 I0.8426395939086294 J-0.35025380710659904
G3 X22.18781725888325 Y40.08629441624365 I0.9137055837563451 J0
G3 X22.38578680203046 Y39.79187817258883 I0.8426395939086294 J0.35025380710659904
G3 X22.680203045685282 Y39.59390862944162 I0.6446700507614213 J0.6446700507614213
G3 X23.030456852791875 Y39.52284263959391 I0.35025380710659904 J0.8426395939086294
G0 Z2
G0 X23.02994923857868 Y39.52385786802031
G1 Z-0.3 F200
G3 X23.378172588832488 Y39.59390862944162 I0 J0.9137055837563451 F400
G3 X23.6751269035533 Y39.79187817258883 I-0.35025380710659904 J0.8426395939086294
G3 X23.873096446700508 Y40.08629441624365 I-0.6446700507614213 J0.6446700507614213
G3 X23.941624365482234 Y40.43654822335025 I-0.8426395939086294 J0.35025380710659904
G3 X23.873096446700508 Y40.786802030456855 I-0.9137055837563451 J0
G3 X23.6751269035533 Y41.08121827411168 I-0.8426395939086294 J-0.35025380710659904
G3 X23.378172588832488 Y41.27918781725889 I-0.6446700507614213 J-0.6446700507614213
G3 X23.030456852791875 Y41.34771573604061 I-0.35025380710659904 J-0.8426395939086294
G3 X22.680203045685282 Y41.27918781725889 I0 J-0.9137055837563451
G3 X22.38578680203046 Y41.08121827411168 I0.35025380710659904 J-0.8426395939086294
G3 X22.18781725888325 Y40.786802030456855 I0.6446700507614213 J-0.6446700507614213
G3 X22.116751269035536 Y40.43654822335025 I0.8426395939086294 J-0.35025380710659904
G3 X22.18781725888325 Y40.08629441624365 I0.9137055837563451 J0
G3 X22.38578680203046 Y39.79187817258883 I0.8426395939086294 J0.35025380710659904
G3 X22.680203045685282 Y39.59390862944162 I0.6446700507614213 J0.6446700507614213
G3 X23.030456852791875 Y39.52284263959391 I0.35025380710659904 J0.8426395939086294
G0 Z2
G0 X23.02994923857868 Y39.52385786802031
G1 Z-0.4 F200
G3 X23.378172588832488 Y39.59390862944162 I0 J0.9137055837563451 F400
G3 X23.6751269035533 Y39.79187817258883 I-0.35025380710659904 J0.8426395939086294
G3 X23.873096446700508 Y40.08629441624365 I-0.6446700507614213 J0.6446700507614213
G3 X23.941624365482234 Y40.43654822335025 I-0.8426395939086294 J0.35025380710659904
G3 X23.873096446700508 Y40.786802030456855 I-0.9137055837563451 J0
G3 X23.6751269035533 Y41.08121827411168 I-0.8426395939086294 J-0.35025380710659904
G3 X23.378172588832488 Y41.27918781725889 I-0.6446700507614213 J-0.6446700507614213
G3 X23.030456852791875 Y41.34771573604061 I-0.35025380710659904 J-0.8426395939086294
G3 X22.680203045685282 Y41.27918781725889 I0 J-0.9137055837563451
G3 X22.38578680203046 Y41.08121827411168 I0.35025380710659904 J-0.8426395939086294
G3 X22.18781725888325 Y40.786802030456855 I0.6446700507614213 J-0.6446700507614213
G3 X22.116751269035536 Y40.43654822335025 I0.8426395939086294 J-0.35025380710659904
G3 X22.18781725888325 Y40.08629441624365 I0.9137055837563451 J0
G3 X22.38578680203046 Y39.79187817258883 I0.8426395939086294 J0.35025380710659904
G3 X22.680203045685282 Y39.59390862944162 I0.6446700507614213 J0.6446700507614213
G3 X23.030456852791875 Y39.52284263959391 I0.35025380710659904 J0.8426395939086294
G0 Z2
G0 X23.02994923857868 Y39.52385786802031
G1 Z-0.5 F200
G3 X23.378172588832488 Y39.59390862944162 I0 J0.9137055837563451 F400
G3 X23.6751269035533 Y39.79187817258883 I-0.35025380710659904 J0.8426395939086294
G3 X23.873096446700508 Y40.08629441624365 I-0.6446700507614213 J0.6446700507614213
G3 X23.941624365482234 Y40.43654822335025 I-0.8426395939086294 J0.35025380710659904
G3 X23.873096446700508 Y40.786802030456855 I-0.9137055837563451 J0
G3 X23.6751269035533 Y41.08121827411168 I-0.8426395939086294 J-0.35025380710659904
G3 X23.378172588832488 Y41.27918781725889 I-0.6446700507614213 J-0.6446700507614213
G3 X23.030456852791875 Y41.34771573604061 I-0.35025380710659904 J-0.8426395939086294
G3 X22.680203045685282 Y41.27918781725889 I0 J-0.9137055837563451
G3 X22.38578680203046 Y41.08121827411168 I0.35025380710659904 J-0.8426395939086294
G3 X22.18781725888325 Y40.786802030456855 I0.6446700507614213 J-0.6446700507614213
G3 X22.116751269035536 Y40.43654822335025 I0.8426395939086294 J-0.35025380710659904
G3 X22.18781725888325 Y40.08629441624365 I0.9137055837563451 J0
G3 X22.38578680203046 Y39.79187817258883 I0.8426395939086294 J0.35025380710659904
G3 X22.680203045685282 Y39.59390862944162 I0.6446700507614213 J0.6446700507614213
G3 X23.030456852791875 Y39.52284263959391 I0.35025380710659904 J0.8426395939086294
G0 Z2
G0 X23.02994923857868 Y39.52385786802031
G1 Z-0.6 F200
G3 X23.378172588832488 Y39.59390862944162 I0 J0.9137055837563451 F400
G3 X23.6751269035533 Y39.79187817258883 I-0.35025380710659904 J0.8426395939086294
G3 X23.873096446700508 Y40.08629441624365 I-0.6446700507614213 J0.6446700507614213
G3 X23.941624365482234 Y40.43654822335025 I-0.8426395939086294 J0.35025380710659904
G3 X23.873096446700508 Y40.786802030456855 I-0.9137055837563451 J0
G3 X23.6751269035533 Y41.08121827411168 I-0.8426395939086294 J-0.35025380710659904
G3 X23.378172588832488 Y41.27918781725889 I-0.6446700507614213 J-0.6446700507614213
G3 X23.030456852791875 Y41.34771573604061 I-0.35025380710659904 J-0.8426395939086294
G3 X22.680203045685282 Y41.27918781725889 I0 J-0.9137055837563451
G3 X22.38578680203046 Y41.08121827411168 I0.35025380710659904 J-0.8426395939086294
G3 X22.18781725888325 Y40.786802030456855 I0.6446700507614213 J-0.6446700507614213
G3 X22.116751269035536 Y40.43654822335025 I0.8426395939086294 J-0.35025380710659904
G3 X22.18781725888325 Y40.08629441624365 I0.9137055837563451 J0
G3 X22.38578680203046 Y39.79187817258883 I0.8426395939086294 J0.35025380710659904
G3 X22.680203045685282 Y39.59390862944162 I0.6446700507614213 J0.6446700507614213
G3 X23.030456852791875 Y39.52284263959391 I0.35025380710659904 J0.8426395939086294
G0 Z2
G0 X23.02994923857868 Y39.52385786802031
G1 Z-0.7 F200
G3 X23.378172588832488 Y39.59390862944162 I0 J0.9137055837563451 F400
G3 X23.6751269035533 Y39.79187817258883 I-0.35025380710659904 J0.8426395939086294
G3 X23.873096446700508 Y40.08629441624365 I-0.6446700507614213 J0.6446700507614213
G3 X23.941624365482234 Y40.43654822335025 I-0.8426395939086294 J0.35025380710659904
G3 X23.873096446700508 Y40.786802030456855 I-0.9137055837563451 J0
G3 X23.6751269035533 Y41.08121827411168 I-0.8426395939086294 J-0.35025380710659904
G3 X23.378172588832488 Y41.27918781725889 I-0.6446700507614213 J-0.6446700507614213
G3 X23.030456852791875 Y41.34771573604061 I-0.35025380710659904 J-0.8426395939086294
G3 X22.680203045685282 Y41.27918781725889 I0 J-0.9137055837563451
G3 X22.38578680203046 Y41.08121827411168 I0.35025380710659904 J-0.8426395939086294
G3 X22.18781725888325 Y40.786802030456855 I0.6446700507614213 J-0.6446700507614213
G3 X22.116751269035536 Y40.43654822335025 I0.8426395939086294 J-0.35025380710659904
G3 X22.18781725888325 Y40.08629441624365 I0.9137055837563451 J0
G3 X22.38578680203046 Y39.79187817258883 I0.8426395939086294 J0.35025380710659904
G3 X22.680203045685282 Y39.59390862944162 I0.6446700507614213 J0.6446700507614213
G3 X23.030456852791875 Y39.52284263959391 I0.35025380710659904 J0.8426395939086294
G0 Z2
G0 X23.02994923857868 Y39.52385786802031
G1 Z-0.8 F200
G3 X23.378172588832488 Y39.59390862944162 I0 J0.9137055837563451 F400
G3 X23.6751269035533 Y39.79187817258883 I-0.35025380710659904 J0.8426395939086294
G3 X23.873096446700508 Y40.08629441624365 I-0.6446700507614213 J0.6446700507614213
G3 X23.941624365482234 Y40.43654822335025 I-0.8426395939086294 J0.35025380710659904
G3 X23.873096446700508 Y40.786802030456855 I-0.9137055837563451 J0
G3 X23.6751269035533 Y41.08121827411168 I-0.8426395939086294 J-0.35025380710659904
G3 X23.378172588832488 Y41.27918781725889 I-0.6446700507614213 J-0.6446700507614213
G3 X23.030456852791875 Y41.34771573604061 I-0.35025380710659904 J-0.8426395939086294
G3 X22.680203045685282 Y41.27918781725889 I0 J-0.9137055837563451
G3 X22.38578680203046 Y41.08121827411168 I0.35025380710659904 J-0.8426395939086294
G3 X22.18781725888325 Y40.786802030456855 I0.6446700507614213 J-0.6446700507614213
G3 X22.116751269035536 Y40.43654822335025 I0.8426395939086294 J-0.35025380710659904
G3 X22.18781725888325 Y40.08629441624365 I0.9137055837563451 J0
G3 X22.38578680203046 Y39.79187817258883 I0.8426395939086294 J0.35025380710659904
G3 X22.680203045685282 Y39.59390862944162 I0.6446700507614213 J0.6446700507614213
G3 X23.030456852791875 Y39.52284263959391 I0.35025380710659904 J0.8426395939086294
G0 Z2
G0 X23.02994923857868 Y39.52385786802031
G1 Z-0.9 F200
G3 X23.378172588832488 Y39.59390862944162 I0 J0.9137055837563451 F400
G3 X23.6751269035533 Y39.79187817258883 I-0.35025380710659904 J0.8426395939086294
G3 X23.873096446700508 Y40.08629441624365 I-0.6446700507614213 J0.6446700507614213
G3 X23.941624365482234 Y40.43654822335025 I-0.8426395939086294 J0.35025380710659904
G3 X23.873096446700508 Y40.786802030456855 I-0.9137055837563451 J0
G3 X23.6751269035533 Y41.08121827411168 I-0.8426395939086294 J-0.35025380710659904
G3 X23.378172588832488 Y41.27918781725889 I-0.6446700507614213 J-0.6446700507614213
G3 X23.030456852791875 Y41.34771573604061 I-0.35025380710659904 J-0.8426395939086294
G3 X22.680203045685282 Y41.27918781725889 I0 J-0.9137055837563451
G3 X22.38578680203046 Y41.08121827411168 I0.35025380710659904 J-0.8426395939086294
G3 X22.18781725888325 Y40.786802030456855 I0.6446700507614213 J-0.6446700507614213
G3 X22.116751269035536 Y40.43654822335025 I0.8426395939086294 J-0.35025380710659904
G3 X22.18781725888325 Y40.08629441624365 I0.9137055837563451 J0
G3 X22.38578680203046 Y39.79187817258883 I0.8426395939086294 J0.35025380710659904
G3 X22.680203045685282 Y39.59390862944162 I0.6446700507614213 J0.6446700507614213
G3 X23.030456852791875 Y39.52284263959391 I0.35025380710659904 J0.8426395939086294
G0 Z2
G0 X23.02994923857868 Y39.52385786802031
G1 Z-1 F200
G3 X23.378172588832488 Y39.59390862944162 I0 J0.9137055837563451 F400
G3 X23.6751269035533 Y39.79187817258883 I-0.35025380710659904 J0.8426395939086294
G3 X23.873096446700508 Y40.08629441624365 I-0.6446700507614213 J0.6446700507614213
G3 X23.941624365482234 Y40.43654822335025 I-0.8426395939086294 J0.35025380710659904
G3 X23.873096446700508 Y40.786802030456855 I-0.9137055837563451 J0
G3 X23.6751269035533 Y41.08121827411168 I-0.8426395939086294 J-0.35025380710659904
G3 X23.378172588832488 Y41.27918781725889 I-0.6446700507614213 J-0.6446700507614213
G3 X23.030456852791875 Y41.34771573604061 I-0.35025380710659904 J-0.8426395939086294
G3 X22.680203045685282 Y41.27918781725889 I0 J-0.9137055837563451
G3 X22.38578680203046 Y41.08121827411168 I0.35025380710659904 J-0.8426395939086294
G3 X22.18781725888325 Y40.786802030456855 I0.6446700507614213 J-0.6446700507614213
G3 X22.116751269035536 Y40.43654822335025 I0.8426395939086294 J-0.35025380710659904
G3 X22.18781725888325 Y40.08629441624365 I0.9137055837563451 J0
G3 X22.38578680203046 Y39.79187817258883 I0.8426395939086294 J0.35025380710659904
G3 X22.680203045685282 Y39.59390862944162 I0.6446700507614213 J0.6446700507614213
G3 X23.030456852791875 Y39.52284263959391 I0.35025380710659904 J0.8426395939086294
G0 Z2
G0 X23.02994923857868 Y39.52385786802031
G1 Z-1.1 F200
G3 X23.378172588832488 Y39.59390862944162 I0 J0.9137055837563451 F400
G3 X23.6751269035533 Y39.79187817258883 I-0.35025380710659904 J0.8426395939086294
G3 X23.873096446700508 Y40.08629441624365 I-0.6446700507614213 J0.6446700507614213
G3 X23.941624365482234 Y40.43654822335025 I-0.8426395939086294 J0.35025380710659904
G3 X23.873096446700508 Y40.786802030456855 I-0.9137055837563451 J0
G3 X23.6751269035533 Y41.08121827411168 I-0.8426395939086294 J-0.35025380710659904
G3 X23.378172588832488 Y41.27918781725889 I-0.6446700507614213 J-0.6446700507614213
G3 X23.030456852791875 Y41.34771573604061 I-0.35025380710659904 J-0.8426395939086294
G3 X22.680203045685282 Y41.27918781725889 I0 J-0.9137055837563451
G3 X22.38578680203046 Y41.08121827411168 I0.35025380710659904 J-0.8426395939086294
G3 X22.18781725888325 Y40.786802030456855 I0.6446700507614213 J-0.6446700507614213
G3 X22.116751269035536 Y40.43654822335025 I0.8426395939086294 J-0.35025380710659904
G3 X22.18781725888325 Y40.08629441624365 I0.9137055837563451 J0
G3 X22.38578680203046 Y39.79187817258883 I0.8426395939086294 J0.35025380710659904
G3 X22.680203045685282 Y39.59390862944162 I0.6446700507614213 J0.6446700507614213
G3 X23.030456852791875 Y39.52284263959391 I0.35025380710659904 J0.8426395939086294
G0 Z2
G0 X23.02994923857868 Y39.52385786802031
G1 Z-1.2 F200
G3 X23.378172588832488 Y39.59390862944162 I0 J0.9137055837563451 F400
G3 X23.6751269035533 Y39.79187817258883 I-0.35025380710659904 J0.8426395939086294
G3 X23.873096446700508 Y40.08629441624365 I-0.6446700507614213 J0.6446700507614213
G3 X23.941624365482234 Y40.43654822335025 I-0.8426395939086294 J0.35025380710659904
G3 X23.873096446700508 Y40.786802030456855 I-0.9137055837563451 J0
G3 X23.6751269035533 Y41.08121827411168 I-0.8426395939086294 J-0.35025380710659904
G3 X23.378172588832488 Y41.27918781725889 I-0.6446700507614213 J-0.6446700507614213
G3 X23.030456852791875 Y41.34771573604061 I-0.35025380710659904 J-0.8426395939086294
G3 X22.680203045685282 Y41.27918781725889 I0 J-0.9137055837563451
G3 X22.38578680203046 Y41.08121827411168 I0.35025380710659904 J-0.8426395939086294
G3 X22.18781725888325 Y40.786802030456855 I0.6446700507614213 J-0.6446700507614213
G3 X22.116751269035536 Y40.43654822335025 I0.8426395939086294 J-0.35025380710659904
G3 X22.18781725888325 Y40.08629441624365 I0.9137055837563451 J0
G3 X22.38578680203046 Y39.79187817258883 I0.8426395939086294 J0.35025380710659904
G3 X22.680203045685282 Y39.59390862944162 I0.6446700507614213 J0.6446700507614213
G3 X23.030456852791875 Y39.52284263959391 I0.35025380710659904 J0.8426395939086294
G0 Z2
G0 X23.02994923857868 Y39.52385786802031
G1 Z-1.3 F200
G3 X23.378172588832488 Y39.59390862944162 I0 J0.9137055837563451 F400
G3 X23.6751269035533 Y39.79187817258883 I-0.35025380710659904 J0.8426395939086294
G3 X23.873096446700508 Y40.08629441624365 I-0.6446700507614213 J0.6446700507614213
G3 X23.941624365482234 Y40.43654822335025 I-0.8426395939086294 J0.35025380710659904
G3 X23.873096446700508 Y40.786802030456855 I-0.9137055837563451 J0
G3 X23.6751269035533 Y41.08121827411168 I-0.8426395939086294 J-0.35025380710659904
G3 X23.378172588832488 Y41.27918781725889 I-0.6446700507614213 J-0.6446700507614213
G3 X23.030456852791875 Y41.34771573604061 I-0.35025380710659904 J-0.8426395939086294
G3 X22.680203045685282 Y41.27918781725889 I0 J-0.9137055837563451
G3 X22.38578680203046 Y41.08121827411168 I0.35025380710659904 J-0.8426395939086294
G3 X22.18781725888325 Y40.786802030456855 I0.6446700507614213 J-0.6446700507614213
G3 X22.116751269035536 Y40.43654822335025 I0.8426395939086294 J-0.35025380710659904
G3 X22.18781725888325 Y40.08629441624365 I0.9137055837563451 J0
G3 X22.38578680203046 Y39.79187817258883 I0.8426395939086294 J0.35025380710659904
G3 X22.680203045685282 Y39.59390862944162 I0.6446700507614213 J0.6446700507614213
G3 X23.030456852791875 Y39.52284263959391 I0.35025380710659904 J0.8426395939086294
G0 Z2
G0 X23.02994923857868 Y39.52385786802031
G1 Z-1.4 F200
G3 X23.378172588832488 Y39.59390862944162 I0 J0.9137055837563451 F400
G3 X23.6751269035533 Y39.79187817258883 I-0.35025380710659904 J0.8426395939086294
G3 X23.873096446700508 Y40.08629441624365 I-0.6446700507614213 J0.6446700507614213
G3 X23.941624365482234 Y40.43654822335025 I-0.8426395939086294 J0.35025380710659904
G3 X23.873096446700508 Y40.786802030456855 I-0.9137055837563451 J0
G3 X23.6751269035533 Y41.08121827411168 I-0.8426395939086294 J-0.35025380710659904
G3 X23.378172588832488 Y41.27918781725889 I-0.6446700507614213 J-0.6446700507614213
G3 X23.030456852791875 Y41.34771573604061 I-0.35025380710659904 J-0.8426395939086294
G3 X22.680203045685282 Y41.27918781725889 I0 J-0.9137055837563451
G3 X22.38578680203046 Y41.08121827411168 I0.35025380710659904 J-0.8426395939086294
G3 X22.18781725888325 Y40.786802030456855 I0.6446700507614213 J-0.6446700507614213
G3 X22.116751269035536 Y40.43654822335025 I0.8426395939086294 J-0.35025380710659904
G3 X22.18781725888325 Y40.08629441624365 I0.9137055837563451 J0
G3 X22.38578680203046 Y39.79187817258883 I0.8426395939086294 J0.35025380710659904
G3 X22.680203045685282 Y39.59390862944162 I0.6446700507614213 J0.6446700507614213
G3 X23.030456852791875 Y39.52284263959391 I0.35025380710659904 J0.8426395939086294
G0 Z2
G0 X23.02994923857868 Y39.52385786802031
G1 Z-1.5 F200
G3 X23.378172588832488 Y39.59390862944162 I0 J0.9137055837563451 F400
G3 X23.6751269035533 Y39.79187817258883 I-0.35025380710659904 J0.8426395939086294
G3 X23.873096446700508 Y40.08629441624365 I-0.6446700507614213 J0.6446700507614213
G3 X23.941624365482234 Y40.43654822335025 I-0.8426395939086294 J0.35025380710659904
G3 X23.873096446700508 Y40.786802030456855 I-0.9137055837563451 J0
G3 X23.6751269035533 Y41.08121827411168 I-0.8426395939086294 J-0.35025380710659904
G3 X23.378172588832488 Y41.27918781725889 I-0.6446700507614213 J-0.6446700507614213
G3 X23.030456852791875 Y41.34771573604061 I-0.35025380710659904 J-0.8426395939086294
G3 X22.680203045685282 Y41.27918781725889 I0 J-0.9137055837563451
G3 X22.38578680203046 Y41.08121827411168 I0.35025380710659904 J-0.8426395939086294
G3 X22.18781725888325 Y40.786802030456855 I0.6446700507614213 J-0.6446700507614213
G3 X22.116751269035536 Y40.43654822335025 I0.8426395939086294 J-0.35025380710659904
G3 X22.18781725888325 Y40.08629441624365 I0.9137055837563451 J0
G3 X22.38578680203046 Y39.79187817258883 I0.8426395939086294 J0.35025380710659904
G3 X22.680203045685282 Y39.59390862944162 I0.6446700507614213 J0.6446700507614213
G3 X23.030456852791875 Y39.52284263959391 I0.35025380710659904 J0.8426395939086294
G0 Z2
G0 X23.02994923857868 Y39.52385786802031
G1 Z-1.6 F200
G3 X23.378172588832488 Y39.59390862944162 I0 J0.9137055837563451 F400
G3 X23.6751269035533 Y39.79187817258883 I-0.35025380710659904 J0.8426395939086294
G3 X23.873096446700508 Y40.08629441624365 I-0.6446700507614213 J0.6446700507614213
G3 X23.941624365482234 Y40.43654822335025 I-0.8426395939086294 J0.35025380710659904
G3 X23.873096446700508 Y40.786802030456855 I-0.9137055837563451 J0
G3 X23.6751269035533 Y41.08121827411168 I-0.8426395939086294 J-0.35025380710659904
G3 X23.378172588832488 Y41.27918781725889 I-0.6446700507614213 J-0.6446700507614213
G3 X23.030456852791875 Y41.34771573604061 I-0.35025380710659904 J-0.8426395939086294
G3 X22.680203045685282 Y41.27918781725889 I0 J-0.9137055837563451
G3 X22.38578680203046 Y41.08121827411168 I0.35025380710659904 J-0.8426395939086294
G3 X22.18781725888325 Y40.786802030456855 I0.6446700507614213 J-0.6446700507614213
G3 X22.116751269035536 Y40.43654822335025 I0.8426395939086294 J-0.35025380710659904
G3 X22.18781725888325 Y40.08629441624365 I0.9137055837563451 J0
G3 X22.38578680203046 Y39.79187817258883 I0.8426395939086294 J0.35025380710659904
G3 X22.680203045685282 Y39.59390862944162 I0.6446700507614213 J0.6446700507614213
G3 X23.030456852791875 Y39.52284263959391 I0.35025380710659904 J0.8426395939086294
G0 Z2
G0 X23.02994923857868 Y39.52385786802031
G1 Z-1.7 F200
G3 X23.378172588832488 Y39.59390862944162 I0 J0.9137055837563451 F400
G3 X23.6751269035533 Y39.79187817258883 I-0.35025380710659904 J0.8426395939086294
G3 X23.873096446700508 Y40.08629441624365 I-0.6446700507614213 J0.6446700507614213
G3 X23.941624365482234 Y40.43654822335025 I-0.8426395939086294 J0.35025380710659904
G3 X23.873096446700508 Y40.786802030456855 I-0.9137055837563451 J0
G3 X23.6751269035533 Y41.08121827411168 I-0.8426395939086294 J-0.35025380710659904
G3 X23.378172588832488 Y41.27918781725889 I-0.6446700507614213 J-0.6446700507614213
G3 X23.030456852791875 Y41.34771573604061 I-0.35025380710659904 J-0.8426395939086294
G3 X22.680203045685282 Y41.27918781725889 I0 J-0.9137055837563451
G3 X22.38578680203046 Y41.08121827411168 I0.35025380710659904 J-0.8426395939086294
G3 X22.18781725888325 Y40.786802030456855 I0.6446700507614213 J-0.6446700507614213
G3 X22.116751269035536 Y40.43654822335025 I0.8426395939086294 J-0.35025380710659904
G3 X22.18781725888325 Y40.08629441624365 I0.9137055837563451 J0
G3 X22.38578680203046 Y39.79187817258883 I0.8426395939086294 J0.35025380710659904
G3 X22.680203045685282 Y39.59390862944162 I0.6446700507614213 J0.6446700507614213
G3 X23.030456852791875 Y39.52284263959391 I0.35025380710659904 J0.8426395939086294
G0 Z2
G0 X23.02994923857868 Y39.52385786802031
G1 Z-1.8 F200
G3 X23.378172588832488 Y39.59390862944162 I0 J0.9137055837563451 F400
G3 X23.6751269035533 Y39.79187817258883 I-0.35025380710659904 J0.8426395939086294
G3 X23.873096446700508 Y40.08629441624365 I-0.6446700507614213 J0.6446700507614213
G3 X23.941624365482234 Y40.43654822335025 I-0.8426395939086294 J0.35025380710659904
G3 X23.873096446700508 Y40.786802030456855 I-0.9137055837563451 J0
G3 X23.6751269035533 Y41.08121827411168 I-0.8426395939086294 J-0.35025380710659904
G3 X23.378172588832488 Y41.27918781725889 I-0.6446700507614213 J-0.6446700507614213
G3 X23.030456852791875 Y41.34771573604061 I-0.35025380710659904 J-0.8426395939086294
G3 X22.680203045685282 Y41.27918781725889 I0 J-0.9137055837563451
G3 X22.38578680203046 Y41.08121827411168 I0.35025380710659904 J-0.8426395939086294
G3 X22.18781725888325 Y40.786802030456855 I0.6446700507614213 J-0.6446700507614213
G3 X22.116751269035536 Y40.43654822335025 I0.8426395939086294 J-0.35025380710659904
G3 X22.18781725888325 Y40.08629441624365 I0.9137055837563451 J0
G3 X22.38578680203046 Y39.79187817258883 I0.8426395939086294 J0.35025380710659904
G3 X22.680203045685282 Y39.59390862944162 I0.6446700507614213 J0.6446700507614213
G3 X23.030456852791875 Y39.52284263959391 I0.35025380710659904 J0.8426395939086294
G0 Z2
G0 X23.02994923857868 Y39.52385786802031
G1 Z-1.9 F200
G3 X23.378172588832488 Y39.59390862944162 I0 J0.9137055837563451 F400
G3 X23.6751269035533 Y39.79187817258883 I-0.35025380710659904 J0.8426395939086294
G3 X23.873096446700508 Y40.08629441624365 I-0.6446700507614213 J0.6446700507614213
G3 X23.941624365482234 Y40.43654822335025 I-0.8426395939086294 J0.35025380710659904
G3 X23.873096446700508 Y40.786802030456855 I-0.9137055837563451 J0
G3 X23.6751269035533 Y41.08121827411168 I-0.8426395939086294 J-0.35025380710659904
G3 X23.378172588832488 Y41.27918781725889 I-0.6446700507614213 J-0.6446700507614213
G3 X23.030456852791875 Y41.34771573604061 I-0.35025380710659904 J-0.8426395939086294
G3 X22.680203045685282 Y41.27918781725889 I0 J-0.9137055837563451
G3 X22.38578680203046 Y41.08121827411168 I0.35025380710659904 J-0.8426395939086294
G3 X22.18781725888325 Y40.786802030456855 I0.6446700507614213 J-0.6446700507614213
G3 X22.116751269035536 Y40.43654822335025 I0.8426395939086294 J-0.35025380710659904
G3 X22.18781725888325 Y40.08629441624365 I0.9137055837563451 J0
G3 X22.38578680203046 Y39.79187817258883 I0.8426395939086294 J0.35025380710659904
G3 X22.680203045685282 Y39.59390862944162 I0.6446700507614213 J0.6446700507614213
G3 X23.030456852791875 Y39.52284263959391 I0.35025380710659904 J0.8426395939086294
G0 Z2
G0 X23.02994923857868 Y39.52385786802031
G1 Z-2 F200
G3 X23.378172588832488 Y39.59390862944162 I0 J0.9137055837563451 F400
G3 X23.6751269035533 Y39.79187817258883 I-0.35025380710659904 J0.8426395939086294
G3 X23.873096446700508 Y40.08629441624365 I-0.6446700507614213 J0.6446700507614213
G3 X23.941624365482234 Y40.43654822335025 I-0.8426395939086294 J0.35025380710659904
G3 X23.873096446700508 Y40.786802030456855 I-0.9137055837563451 J0
G3 X23.6751269035533 Y41.08121827411168 I-0.8426395939086294 J-0.35025380710659904
G3 X23.378172588832488 Y41.27918781725889 I-0.6446700507614213 J-0.6446700507614213
G3 X23.030456852791875 Y41.34771573604061 I-0.35025380710659904 J-0.8426395939086294
G3 X22.680203045685282 Y41.27918781725889 I0 J-0.9137055837563451
G3 X22.38578680203046 Y41.08121827411168 I0.35025380710659904 J-0.8426395939086294
G3 X22.18781725888325 Y40.786802030456855 I0.6446700507614213 J-0.6446700507614213
G3 X22.116751269035536 Y40.43654822335025 I0.8426395939086294 J-0.35025380710659904
G3 X22.18781725888325 Y40.08629441624365 I0.9137055837563451 J0
G3 X22.38578680203046 Y39.79187817258883 I0.8426395939086294 J0.35025380710659904
G3 X22.680203045685282 Y39.59390862944162 I0.6446700507614213 J0.6446700507614213
G3 X23.030456852791875 Y39.52284263959391 I0.35025380710659904 J0.8426395939086294
G0 Z2
G0 X23.02994923857868 Y39.52385786802031
G1 Z-2.1 F200
G3 X23.378172588832488 Y39.59390862944162 I0 J0.9137055837563451 F400
G3 X23.6751269035533 Y39.79187817258883 I-0.35025380710659904 J0.8426395939086294
G3 X23.873096446700508 Y40.08629441624365 I-0.6446700507614213 J0.6446700507614213
G3 X23.941624365482234 Y40.43654822335025 I-0.8426395939086294 J0.35025380710659904
G3 X23.873096446700508 Y40.786802030456855 I-0.9137055837563451 J0
G3 X23.6751269035533 Y41.08121827411168 I-0.8426395939086294 J-0.35025380710659904
G3 X23.378172588832488 Y41.27918781725889 I-0.6446700507614213 J-0.6446700507614213
G3 X23.030456852791875 Y41.34771573604061 I-0.35025380710659904 J-0.8426395939086294
G3 X22.680203045685282 Y41.27918781725889 I0 J-0.9137055837563451
G3 X22.38578680203046 Y41.08121827411168 I0.35025380710659904 J-0.8426395939086294
G3 X22.18781725888325 Y40.786802030456855 I0.6446700507614213 J-0.6446700507614213
G3 X22.116751269035536 Y40.43654822335025 I0.8426395939086294 J-0.35025380710659904
G3 X22.18781725888325 Y40.08629441624365 I0.9137055837563451 J0
G3 X22.38578680203046 Y39.79187817258883 I0.8426395939086294 J0.35025380710659904
G3 X22.680203045685282 Y39.59390862944162 I0.6446700507614213 J0.6446700507614213
G3 X23.030456852791875 Y39.52284263959391 I0.35025380710659904 J0.8426395939086294
G0 Z2
G0 X23.02994923857868 Y39.52385786802031
G1 Z-2.2 F200
G3 X23.378172588832488 Y39.59390862944162 I0 J0.9137055837563451 F400
G3 X23.6751269035533 Y39.79187817258883 I-0.35025380710659904 J0.8426395939086294
G3 X23.873096446700508 Y40.08629441624365 I-0.6446700507614213 J0.6446700507614213
G3 X23.941624365482234 Y40.43654822335025 I-0.8426395939086294 J0.35025380710659904
G3 X23.873096446700508 Y40.786802030456855 I-0.9137055837563451 J0
G3 X23.6751269035533 Y41.08121827411168 I-0.8426395939086294 J-0.35025380710659904
G3 X23.378172588832488 Y41.27918781725889 I-0.6446700507614213 J-0.6446700507614213
G3 X23.030456852791875 Y41.34771573604061 I-0.35025380710659904 J-0.8426395939086294
G3 X22.680203045685282 Y41.27918781725889 I0 J-0.9137055837563451
G3 X22.38578680203046 Y41.08121827411168 I0.35025380710659904 J-0.8426395939086294
G3 X22.18781725888325 Y40.786802030456855 I0.6446700507614213 J-0.6446700507614213
G3 X22.116751269035536 Y40.43654822335025 I0.8426395939086294 J-0.35025380710659904
G3 X22.18781725888325 Y40.08629441624365 I0.9137055837563451 J0
G3 X22.38578680203046 Y39.79187817258883 I0.8426395939086294 J0.35025380710659904
G3 X22.680203045685282 Y39.59390862944162 I0.6446700507614213 J0.6446700507614213
G3 X23.030456852791875 Y39.52284263959391 I0.35025380710659904 J0.8426395939086294
G0 Z2
G0 X23.02994923857868 Y39.52385786802031
G1 Z-2.3 F200
G3 X23.378172588832488 Y39.59390862944162 I0 J0.9137055837563451 F400
G3 X23.6751269035533 Y39.79187817258883 I-0.35025380710659904 J0.8426395939086294
G3 X23.873096446700508 Y40.08629441624365 I-0.6446700507614213 J0.6446700507614213
G3 X23.941624365482234 Y40.43654822335025 I-0.8426395939086294 J0.35025380710659904
G3 X23.873096446700508 Y40.786802030456855 I-0.9137055837563451 J0
G3 X23.6751269035533 Y41.08121827411168 I-0.8426395939086294 J-0.35025380710659904
G3 X23.378172588832488 Y41.27918781725889 I-0.6446700507614213 J-0.6446700507614213
G3 X23.030456852791875 Y41.34771573604061 I-0.35025380710659904 J-0.8426395939086294
G3 X22.680203045685282 Y41.27918781725889 I0 J-0.9137055837563451
G3 X22.38578680203046 Y41.08121827411168 I0.35025380710659904 J-0.8426395939086294
G3 X22.18781725888325 Y40.786802030456855 I0.6446700507614213 J-0.6446700507614213
G3 X22.116751269035536 Y40.43654822335025 I0.8426395939086294 J-0.35025380710659904
G3 X22.18781725888325 Y40.08629441624365 I0.9137055837563451 J0
G3 X22.38578680203046 Y39.79187817258883 I0.8426395939086294 J0.35025380710659904
G3 X22.680203045685282 Y39.59390862944162 I0.6446700507614213 J0.6446700507614213
G3 X23.030456852791875 Y39.52284263959391 I0.35025380710659904 J0.8426395939086294
G0 Z2
G0 X23.02994923857868 Y39.52385786802031
G1 Z-2.4 F200
G3 X23.378172588832488 Y39.59390862944162 I0 J0.9137055837563451 F400
G3 X23.6751269035533 Y39.79187817258883 I-0.35025380710659904 J0.8426395939086294
G3 X23.873096446700508 Y40.08629441624365 I-0.6446700507614213 J0.6446700507614213
G3 X23.941624365482234 Y40.43654822335025 I-0.8426395939086294 J0.35025380710659904
G3 X23.873096446700508 Y40.786802030456855 I-0.9137055837563451 J0
G3 X23.6751269035533 Y41.08121827411168 I-0.8426395939086294 J-0.35025380710659904
G3 X23.378172588832488 Y41.27918781725889 I-0.6446700507614213 J-0.6446700507614213
G3 X23.030456852791875 Y41.34771573604061 I-0.35025380710659904 J-0.8426395939086294
G3 X22.680203045685282 Y41.27918781725889 I0 J-0.9137055837563451
G3 X22.38578680203046 Y41.08121827411168 I0.35025380710659904 J-0.8426395939086294
G3 X22.18781725888325 Y40.786802030456855 I0.6446700507614213 J-0.6446700507614213
G3 X22.116751269035536 Y40.43654822335025 I0.8426395939086294 J-0.35025380710659904
G3 X22.18781725888325 Y40.08629441624365 I0.9137055837563451 J0
G3 X22.38578680203046 Y39.79187817258883 I0.8426395939086294 J0.35025380710659904
G3 X22.680203045685282 Y39.59390862944162 I0.6446700507614213 J0.6446700507614213
G3 X23.030456852791875 Y39.52284263959391 I0.35025380710659904 J0.8426395939086294
G0 Z2
G0 X23.02994923857868 Y39.52385786802031
G1 Z-2.5 F200
G3 X23.378172588832488 Y39.59390862944162 I0 J0.9137055837563451 F400
G3 X23.6751269035533 Y39.79187817258883 I-0.35025380710659904 J0.8426395939086294
G3 X23.873096446700508 Y40.08629441624365 I-0.6446700507614213 J0.6446700507614213
G3 X23.941624365482234 Y40.43654822335025 I-0.8426395939086294 J0.35025380710659904
G3 X23.873096446700508 Y40.786802030456855 I-0.9137055837563451 J0
G3 X23.6751269035533 Y41.08121827411168 I-0.8426395939086294 J-0.35025380710659904
G3 X23.378172588832488 Y41.27918781725889 I-0.6446700507614213 J-0.6446700507614213
G3 X23.030456852791875 Y41.34771573604061 I-0.35025380710659904 J-0.8426395939086294
G3 X22.680203045685282 Y41.27918781725889 I0 J-0.9137055837563451
G3 X22.38578680203046 Y41.08121827411168 I0.35025380710659904 J-0.8426395939086294
G3 X22.18781725888325 Y40.786802030456855 I0.6446700507614213 J-0.6446700507614213
G3 X22.116751269035536 Y40.43654822335025 I0.8426395939086294 J-0.35025380710659904
G3 X22.18781725888325 Y40.08629441624365 I0.9137055837563451 J0
G3 X22.38578680203046 Y39.79187817258883 I0.8426395939086294 J0.35025380710659904
G3 X22.680203045685282 Y39.59390862944162 I0.6446700507614213 J0.6446700507614213
G3 X23.030456852791875 Y39.52284263959391 I0.35025380710659904 J0.8426395939086294
G0 Z2
G0 X23.02994923857868 Y39.52385786802031
G1 Z-2.6 F200
G3 X23.378172588832488 Y39.59390862944162 I0 J0.9137055837563451 F400
G3 X23.6751269035533 Y39.79187817258883 I-0.35025380710659904 J0.8426395939086294
G3 X23.873096446700508 Y40.08629441624365 I-0.6446700507614213 J0.6446700507614213
G3 X23.941624365482234 Y40.43654822335025 I-0.8426395939086294 J0.35025380710659904
G3 X23.873096446700508 Y40.786802030456855 I-0.9137055837563451 J0
G3 X23.6751269035533 Y41.08121827411168 I-0.8426395939086294 J-0.35025380710659904
G3 X23.378172588832488 Y41.27918781725889 I-0.6446700507614213 J-0.6446700507614213
G3 X23.030456852791875 Y41.34771573604061 I-0.35025380710659904 J-0.8426395939086294
G3 X22.680203045685282 Y41.27918781725889 I0 J-0.9137055837563451
G3 X22.38578680203046 Y41.08121827411168 I0.35025380710659904 J-0.8426395939086294
G3 X22.18781725888325 Y40.786802030456855 I0.6446700507614213 J-0.6446700507614213
G3 X22.116751269035536 Y40.43654822335025 I0.8426395939086294 J-0.35025380710659904
G3 X22.18781725888325 Y40.08629441624365 I0.9137055837563451 J0
G3 X22.38578680203046 Y39.79187817258883 I0.8426395939086294 J0.35025380710659904
G3 X22.680203045685282 Y39.59390862944162 I0.6446700507614213 J0.6446700507614213
G3 X23.030456852791875 Y39.52284263959391 I0.35025380710659904 J0.8426395939086294
G0 Z2
G0 X23.02994923857868 Y39.52385786802031
G1 Z-2.7 F200
G3 X23.378172588832488 Y39.59390862944162 I0 J0.9137055837563451 F400
G3 X23.6751269035533 Y39.79187817258883 I-0.35025380710659904 J0.8426395939086294
G3 X23.873096446700508 Y40.08629441624365 I-0.6446700507614213 J0.6446700507614213
G3 X23.941624365482234 Y40.43654822335025 I-0.8426395939086294 J0.35025380710659904
G3 X23.873096446700508 Y40.786802030456855 I-0.9137055837563451 J0
G3 X23.6751269035533 Y41.08121827411168 I-0.8426395939086294 J-0.35025380710659904
G3 X23.378172588832488 Y41.27918781725889 I-0.6446700507614213 J-0.6446700507614213
G3 X23.030456852791875 Y41.34771573604061 I-0.35025380710659904 J-0.8426395939086294
G3 X22.680203045685282 Y41.27918781725889 I0 J-0.9137055837563451
G3 X22.38578680203046 Y41.08121827411168 I0.35025380710659904 J-0.8426395939086294
G3 X22.18781725888325 Y40.786802030456855 I0.6446700507614213 J-0.6446700507614213
G3 X22.116751269035536 Y40.43654822335025 I0.8426395939086294 J-0.35025380710659904
G3 X22.18781725888325 Y40.08629441624365 I0.9137055837563451 J0
G3 X22.38578680203046 Y39.79187817258883 I0.8426395939086294 J0.35025380710659904
G3 X22.680203045685282 Y39.59390862944162 I0.6446700507614213 J0.6446700507614213
G3 X23.030456852791875 Y39.52284263959391 I0.35025380710659904 J0.8426395939086294
G0 Z2
G0 X23.02994923857868 Y39.52385786802031
G1 Z-2.8 F200
G3 X23.378172588832488 Y39.59390862944162 I0 J0.9137055837563451 F400
G3 X23.6751269035533 Y39.79187817258883 I-0.35025380710659904 J0.8426395939086294
G3 X23.873096446700508 Y40.08629441624365 I-0.6446700507614213 J0.6446700507614213
G3 X23.941624365482234 Y40.43654822335025 I-0.8426395939086294 J0.35025380710659904
G3 X23.873096446700508 Y40.786802030456855 I-0.9137055837563451 J0
G3 X23.6751269035533 Y41.08121827411168 I-0.8426395939086294 J-0.35025380710659904
G3 X23.378172588832488 Y41.27918781725889 I-0.6446700507614213 J-0.6446700507614213
G3 X23.030456852791875 Y41.34771573604061 I-0.35025380710659904 J-0.8426395939086294
G3 X22.680203045685282 Y41.27918781725889 I0 J-0.9137055837563451
G3 X22.38578680203046 Y41.08121827411168 I0.35025380710659904 J-0.8426395939086294
G3 X22.18781725888325 Y40.786802030456855 I0.6446700507614213 J-0.6446700507614213
G3 X22.116751269035536 Y40.43654822335025 I0.8426395939086294 J-0.35025380710659904
G3 X22.18781725888325 Y40.08629441624365 I0.9137055837563451 J0
G3 X22.38578680203046 Y39.79187817258883 I0.8426395939086294 J0.35025380710659904
G3 X22.680203045685282 Y39.59390862944162 I0.6446700507614213 J0.6446700507614213
G3 X23.030456852791875 Y39.52284263959391 I0.35025380710659904 J0.8426395939086294
G0 Z2
G0 X23.02994923857868 Y39.52385786802031
G1 Z-2.9 F200
G3 X23.378172588832488 Y39.59390862944162 I0 J0.9137055837563451 F400
G3 X23.6751269035533 Y39.79187817258883 I-0.35025380710659904 J0.8426395939086294
G3 X23.873096446700508 Y40.08629441624365 I-0.6446700507614213 J0.6446700507614213
G3 X23.941624365482234 Y40.43654822335025 I-0.8426395939086294 J0.35025380710659904
G3 X23.873096446700508 Y40.786802030456855 I-0.9137055837563451 J0
G3 X23.6751269035533 Y41.08121827411168 I-0.8426395939086294 J-0.35025380710659904
G3 X23.378172588832488 Y41.27918781725889 I-0.6446700507614213 J-0.6446700507614213
G3 X23.030456852791875 Y41.34771573604061 I-0.35025380710659904 J-0.8426395939086294
G3 X22.680203045685282 Y41.27918781725889 I0 J-0.9137055837563451
G3 X22.38578680203046 Y41.08121827411168 I0.35025380710659904 J-0.8426395939086294
G3 X22.18781725888325 Y40.786802030456855 I0.6446700507614213 J-0.6446700507614213
G3 X22.116751269035536 Y40.43654822335025 I0.8426395939086294 J-0.35025380710659904
G3 X22.18781725888325 Y40.08629441624365 I0.9137055837563451 J0
G3 X22.38578680203046 Y39.79187817258883 I0.8426395939086294 J0.35025380710659904
G3 X22.680203045685282 Y39.59390862944162 I0.6446700507614213 J0.6446700507614213
G3 X23.030456852791875 Y39.52284263959391 I0.35025380710659904 J0.8426395939086294
G0 Z2
G0 X23.02994923857868 Y39.52385786802031
G1 Z-3 F200
G3 X23.378172588832488 Y39.59390862944162 I0 J0.9137055837563451 F400
G3 X23.6751269035533 Y39.79187817258883 I-0.35025380710659904 J0.8426395939086294
G3 X23.873096446700508 Y40.08629441624365 I-0.6446700507614213 J0.6446700507614213
G3 X23.941624365482234 Y40.43654822335025 I-0.8426395939086294 J0.35025380710659904
G3 X23.873096446700508 Y40.786802030456855 I-0.9137055837563451 J0
G3 X23.6751269035533 Y41.08121827411168 I-0.8426395939086294 J-0.35025380710659904
G3 X23.378172588832488 Y41.27918781725889 I-0.6446700507614213 J-0.6446700507614213
G3 X23.030456852791875 Y41.34771573604061 I-0.35025380710659904 J-0.8426395939086294
G3 X22.680203045685282 Y41.27918781725889 I0 J-0.9137055837563451
G3 X22.38578680203046 Y41.08121827411168 I0.35025380710659904 J-0.8426395939086294
G3 X22.18781725888325 Y40.786802030456855 I0.6446700507614213 J-0.6446700507614213
G3 X22.116751269035536 Y40.43654822335025 I0.8426395939086294 J-0.35025380710659904
G3 X22.18781725888325 Y40.08629441624365 I0.9137055837563451 J0
G3 X22.38578680203046 Y39.79187817258883 I0.8426395939086294 J0.35025380710659904
G3 X22.680203045685282 Y39.59390862944162 I0.6446700507614213 J0.6446700507614213
G3 X23.030456852791875 Y39.52284263959391 I0.35025380710659904 J0.8426395939086294
G0 Z2
G0 X23.02994923857868 Y39.52385786802031
G1 Z-3.1 F200
G3 X23.378172588832488 Y39.59390862944162 I0 J0.9137055837563451 F400
G3 X23.6751269035533 Y39.79187817258883 I-0.35025380710659904 J0.8426395939086294
G3 X23.873096446700508 Y40.08629441624365 I-0.6446700507614213 J0.6446700507614213
G3 X23.941624365482234 Y40.43654822335025 I-0.8426395939086294 J0.35025380710659904
G3 X23.873096446700508 Y40.786802030456855 I-0.9137055837563451 J0
G3 X23.6751269035533 Y41.08121827411168 I-0.8426395939086294 J-0.35025380710659904
G3 X23.378172588832488 Y41.27918781725889 I-0.6446700507614213 J-0.6446700507614213
G3 X23.030456852791875 Y41.34771573604061 I-0.35025380710659904 J-0.8426395939086294
G3 X22.680203045685282 Y41.27918781725889 I0 J-0.9137055837563451
G3 X22.38578680203046 Y41.08121827411168 I0.35025380710659904 J-0.8426395939086294
G3 X22.18781725888325 Y40.786802030456855 I0.6446700507614213 J-0.6446700507614213
G3 X22.116751269035536 Y40.43654822335025 I0.8426395939086294 J-0.35025380710659904
G3 X22.18781725888325 Y40.08629441624365 I0.9137055837563451 J0
G3 X22.38578680203046 Y39.79187817258883 I0.8426395939086294 J0.35025380710659904
G3 X22.680203045685282 Y39.59390862944162 I0.6446700507614213 J0.6446700507614213
G3 X23.030456852791875 Y39.52284263959391 I0.35025380710659904 J0.8426395939086294
G0 Z2
G0 X23.02994923857868 Y39.52385786802031
G1 Z-3.2 F200
G3 X23.378172588832488 Y39.59390862944162 I0 J0.9137055837563451 F400
G3 X23.6751269035533 Y39.79187817258883 I-0.35025380710659904 J0.8426395939086294
G3 X23.873096446700508 Y40.08629441624365 I-0.6446700507614213 J0.6446700507614213
G3 X23.941624365482234 Y40.43654822335025 I-0.8426395939086294 J0.35025380710659904
G3 X23.873096446700508 Y40.786802030456855 I-0.9137055837563451 J0
G3 X23.6751269035533 Y41.08121827411168 I-0.8426395939086294 J-0.35025380710659904
G3 X23.378172588832488 Y41.27918781725889 I-0.6446700507614213 J-0.6446700507614213
G3 X23.030456852791875 Y41.34771573604061 I-0.35025380710659904 J-0.8426395939086294
G3 X22.680203045685282 Y41.27918781725889 I0 J-0.9137055837563451
G3 X22.38578680203046 Y41.08121827411168 I0.35025380710659904 J-0.8426395939086294
G3 X22.18781725888325 Y40.786802030456855 I0.6446700507614213 J-0.6446700507614213
G3 X22.116751269035536 Y40.43654822335025 I0.8426395939086294 J-0.35025380710659904
G3 X22.18781725888325 Y40.08629441624365 I0.9137055837563451 J0
G3 X22.38578680203046 Y39.79187817258883 I0.8426395939086294 J0.35025380710659904
G3 X22.680203045685282 Y39.59390862944162 I0.6446700507614213 J0.6446700507614213
G3 X23.030456852791875 Y39.52284263959391 I0.35025380710659904 J0.8426395939086294
G0 Z2
G0 X23.02994923857868 Y39.52385786802031
G1 Z-3.3 F200
G3 X23.378172588832488 Y39.59390862944162 I0 J0.9137055837563451 F400
G3 X23.6751269035533 Y39.79187817258883 I-0.35025380710659904 J0.8426395939086294
G3 X23.873096446700508 Y40.08629441624365 I-0.6446700507614213 J0.6446700507614213
G3 X23.941624365482234 Y40.43654822335025 I-0.8426395939086294 J0.35025380710659904
G3 X23.873096446700508 Y40.786802030456855 I-0.9137055837563451 J0
G3 X23.6751269035533 Y41.08121827411168 I-0.8426395939086294 J-0.35025380710659904
G3 X23.378172588832488 Y41.27918781725889 I-0.6446700507614213 J-0.6446700507614213
G3 X23.030456852791875 Y41.34771573604061 I-0.35025380710659904 J-0.8426395939086294
G3 X22.680203045685282 Y41.27918781725889 I0 J-0.9137055837563451
G3 X22.38578680203046 Y41.08121827411168 I0.35025380710659904 J-0.8426395939086294
G3 X22.18781725888325 Y40.786802030456855 I0.6446700507614213 J-0.6446700507614213
G3 X22.116751269035536 Y40.43654822335025 I0.8426395939086294 J-0.35025380710659904
G3 X22.18781725888325 Y40.08629441624365 I0.9137055837563451 J0
G3 X22.38578680203046 Y39.79187817258883 I0.8426395939086294 J0.35025380710659904
G3 X22.680203045685282 Y39.59390862944162 I0.6446700507614213 J0.6446700507614213
G3 X23.030456852791875 Y39.52284263959391 I0.35025380710659904 J0.8426395939086294
G0 Z2
G0 X23.02994923857868 Y39.52385786802031
G1 Z-3.4 F200
G3 X23.378172588832488 Y39.59390862944162 I0 J0.9137055837563451 F400
G3 X23.6751269035533 Y39.79187817258883 I-0.35025380710659904 J0.8426395939086294
G3 X23.873096446700508 Y40.08629441624365 I-0.6446700507614213 J0.6446700507614213
G3 X23.941624365482234 Y40.43654822335025 I-0.8426395939086294 J0.35025380710659904
G3 X23.873096446700508 Y40.786802030456855 I-0.9137055837563451 J0
G3 X23.6751269035533 Y41.08121827411168 I-0.8426395939086294 J-0.35025380710659904
G3 X23.378172588832488 Y41.27918781725889 I-0.6446700507614213 J-0.6446700507614213
G3 X23.030456852791875 Y41.34771573604061 I-0.35025380710659904 J-0.8426395939086294
G3 X22.680203045685282 Y41.27918781725889 I0 J-0.9137055837563451
G3 X22.38578680203046 Y41.08121827411168 I0.35025380710659904 J-0.8426395939086294
G3 X22.18781725888325 Y40.786802030456855 I0.6446700507614213 J-0.6446700507614213
G3 X22.116751269035536 Y40.43654822335025 I0.8426395939086294 J-0.35025380710659904
G3 X22.18781725888325 Y40.08629441624365 I0.9137055837563451 J0
G3 X22.38578680203046 Y39.79187817258883 I0.8426395939086294 J0.35025380710659904
G3 X22.680203045685282 Y39.59390862944162 I0.6446700507614213 J0.6446700507614213
G3 X23.030456852791875 Y39.52284263959391 I0.35025380710659904 J0.8426395939086294
G0 Z2
G0 X23.02994923857868 Y39.52385786802031
G1 Z-3.5 F200
G3 X23.378172588832488 Y39.59390862944162 I0 J0.9137055837563451 F400
G3 X23.6751269035533 Y39.79187817258883 I-0.35025380710659904 J0.8426395939086294
G3 X23.873096446700508 Y40.08629441624365 I-0.6446700507614213 J0.6446700507614213
G3 X23.941624365482234 Y40.43654822335025 I-0.8426395939086294 J0.35025380710659904
G3 X23.873096446700508 Y40.786802030456855 I-0.9137055837563451 J0
G3 X23.6751269035533 Y41.08121827411168 I-0.8426395939086294 J-0.35025380710659904
G3 X23.378172588832488 Y41.27918781725889 I-0.6446700507614213 J-0.6446700507614213
G3 X23.030456852791875 Y41.34771573604061 I-0.35025380710659904 J-0.8426395939086294
G3 X22.680203045685282 Y41.27918781725889 I0 J-0.9137055837563451
G3 X22.38578680203046 Y41.08121827411168 I0.35025380710659904 J-0.8426395939086294
G3 X22.18781725888325 Y40.786802030456855 I0.6446700507614213 J-0.6446700507614213
G3 X22.116751269035536 Y40.43654822335025 I0.8426395939086294 J-0.35025380710659904
G3 X22.18781725888325 Y40.08629441624365 I0.9137055837563451 J0
G3 X22.38578680203046 Y39.79187817258883 I0.8426395939086294 J0.35025380710659904
G3 X22.680203045685282 Y39.59390862944162 I0.6446700507614213 J0.6446700507614213
G3 X23.030456852791875 Y39.52284263959391 I0.35025380710659904 J0.8426395939086294
G0 Z2
G0 X23.02994923857868 Y39.52385786802031
G1 Z-3.6 F200
G3 X23.378172588832488 Y39.59390862944162 I0 J0.9137055837563451 F400
G3 X23.6751269035533 Y39.79187817258883 I-0.35025380710659904 J0.8426395939086294
G3 X23.873096446700508 Y40.08629441624365 I-0.6446700507614213 J0.6446700507614213
G3 X23.941624365482234 Y40.43654822335025 I-0.8426395939086294 J0.35025380710659904
G3 X23.873096446700508 Y40.786802030456855 I-0.9137055837563451 J0
G3 X23.6751269035533 Y41.08121827411168 I-0.8426395939086294 J-0.35025380710659904
G3 X23.378172588832488 Y41.27918781725889 I-0.6446700507614213 J-0.6446700507614213
G3 X23.030456852791875 Y41.34771573604061 I-0.35025380710659904 J-0.8426395939086294
G3 X22.680203045685282 Y41.27918781725889 I0 J-0.9137055837563451
G3 X22.38578680203046 Y41.08121827411168 I0.35025380710659904 J-0.8426395939086294
G3 X22.18781725888325 Y40.786802030456855 I0.6446700507614213 J-0.6446700507614213
G3 X22.116751269035536 Y40.43654822335025 I0.8426395939086294 J-0.35025380710659904
G3 X22.18781725888325 Y40.08629441624365 I0.9137055837563451 J0
G3 X22.38578680203046 Y39.79187817258883 I0.8426395939086294 J0.35025380710659904
G3 X22.680203045685282 Y39.59390862944162 I0.6446700507614213 J0.6446700507614213
G3 X23.030456852791875 Y39.52284263959391 I0.35025380710659904 J0.8426395939086294
G0 Z2
G0 X23.02994923857868 Y39.52385786802031
G1 Z-3.7 F200
G3 X23.378172588832488 Y39.59390862944162 I0 J0.9137055837563451 F400
G3 X23.6751269035533 Y39.79187817258883 I-0.35025380710659904 J0.8426395939086294
G3 X23.873096446700508 Y40.08629441624365 I-0.6446700507614213 J0.6446700507614213
G3 X23.941624365482234 Y40.43654822335025 I-0.8426395939086294 J0.35025380710659904
G3 X23.873096446700508 Y40.786802030456855 I-0.9137055837563451 J0
G3 X23.6751269035533 Y41.08121827411168 I-0.8426395939086294 J-0.35025380710659904
G3 X23.378172588832488 Y41.27918781725889 I-0.6446700507614213 J-0.6446700507614213
G3 X23.030456852791875 Y41.34771573604061 I-0.35025380710659904 J-0.8426395939086294
G3 X22.680203045685282 Y41.27918781725889 I0 J-0.9137055837563451
G3 X22.38578680203046 Y41.08121827411168 I0.35025380710659904 J-0.8426395939086294
G3 X22.18781725888325 Y40.786802030456855 I0.6446700507614213 J-0.6446700507614213
G3 X22.116751269035536 Y40.43654822335025 I0.8426395939086294 J-0.35025380710659904
G3 X22.18781725888325 Y40.08629441624365 I0.9137055837563451 J0
G3 X22.38578680203046 Y39.79187817258883 I0.8426395939086294 J0.35025380710659904
G3 X22.680203045685282 Y39.59390862944162 I0.6446700507614213 J0.6446700507614213
G3 X23.030456852791875 Y39.52284263959391 I0.35025380710659904 J0.8426395939086294
G0 Z2
G0 X23.02994923857868 Y39.52385786802031
G1 Z-3.8 F200
G3 X23.378172588832488 Y39.59390862944162 I0 J0.9137055837563451 F400
G3 X23.6751269035533 Y39.79187817258883 I-0.35025380710659904 J0.8426395939086294
G3 X23.873096446700508 Y40.08629441624365 I-0.6446700507614213 J0.6446700507614213
G3 X23.941624365482234 Y40.43654822335025 I-0.8426395939086294 J0.35025380710659904
G3 X23.873096446700508 Y40.786802030456855 I-0.9137055837563451 J0
G3 X23.6751269035533 Y41.08121827411168 I-0.8426395939086294 J-0.35025380710659904
G3 X23.378172588832488 Y41.27918781725889 I-0.6446700507614213 J-0.6446700507614213
G3 X23.030456852791875 Y41.34771573604061 I-0.35025380710659904 J-0.8426395939086294
G3 X22.680203045685282 Y41.27918781725889 I0 J-0.9137055837563451
G3 X22.38578680203046 Y41.08121827411168 I0.35025380710659904 J-0.8426395939086294
G3 X22.18781725888325 Y40.786802030456855 I0.6446700507614213 J-0.6446700507614213
G3 X22.116751269035536 Y40.43654822335025 I0.8426395939086294 J-0.35025380710659904
G3 X22.18781725888325 Y40.08629441624365 I0.9137055837563451 J0
G3 X22.38578680203046 Y39.79187817258883 I0.8426395939086294 J0.35025380710659904
G3 X22.680203045685282 Y39.59390862944162 I0.6446700507614213 J0.6446700507614213
G3 X23.030456852791875 Y39.52284263959391 I0.35025380710659904 J0.8426395939086294
G0 Z2
G0 X23.02994923857868 Y39.52385786802031
G1 Z-3.9 F200
G3 X23.378172588832488 Y39.59390862944162 I0 J0.9137055837563451 F400
G3 X23.6751269035533 Y39.79187817258883 I-0.35025380710659904 J0.8426395939086294
G3 X23.873096446700508 Y40.08629441624365 I-0.6446700507614213 J0.6446700507614213
G3 X23.941624365482234 Y40.43654822335025 I-0.8426395939086294 J0.35025380710659904
G3 X23.873096446700508 Y40.786802030456855 I-0.9137055837563451 J0
G3 X23.6751269035533 Y41.08121827411168 I-0.8426395939086294 J-0.35025380710659904
G3 X23.378172588832488 Y41.27918781725889 I-0.6446700507614213 J-0.6446700507614213
G3 X23.030456852791875 Y41.34771573604061 I-0.35025380710659904 J-0.8426395939086294
G3 X22.680203045685282 Y41.27918781725889 I0 J-0.9137055837563451
G3 X22.38578680203046 Y41.08121827411168 I0.35025380710659904 J-0.8426395939086294
G3 X22.18781725888325 Y40.786802030456855 I0.6446700507614213 J-0.6446700507614213
G3 X22.116751269035536 Y40.43654822335025 I0.8426395939086294 J-0.35025380710659904
G3 X22.18781725888325 Y40.08629441624365 I0.9137055837563451 J0
G3 X22.38578680203046 Y39.79187817258883 I0.8426395939086294 J0.35025380710659904
G3 X22.680203045685282 Y39.59390862944162 I0.6446700507614213 J0.6446700507614213
G3 X23.030456852791875 Y39.52284263959391 I0.35025380710659904 J0.8426395939086294
G0 Z2
G0 X23.02994923857868 Y39.52385786802031
G1 Z-4 F200
G3 X23.378172588832488 Y39.59390862944162 I0 J0.9137055837563451 F400
G3 X23.6751269035533 Y39.79187817258883 I-0.35025380710659904 J0.8426395939086294
G3 X23.873096446700508 Y40.08629441624365 I-0.6446700507614213 J0.6446700507614213
G3 X23.941624365482234 Y40.43654822335025 I-0.8426395939086294 J0.35025380710659904
G3 X23.873096446700508 Y40.786802030456855 I-0.9137055837563451 J0
G3 X23.6751269035533 Y41.08121827411168 I-0.8426395939086294 J-0.35025380710659904
G3 X23.378172588832488 Y41.27918781725889 I-0.6446700507614213 J-0.6446700507614213
G3 X23.030456852791875 Y41.34771573604061 I-0.35025380710659904 J-0.8426395939086294
G3 X22.680203045685282 Y41.27918781725889 I0 J-0.9137055837563451
G3 X22.38578680203046 Y41.08121827411168 I0.35025380710659904 J-0.8426395939086294
G3 X22.18781725888325 Y40.786802030456855 I0.6446700507614213 J-0.6446700507614213
G3 X22.116751269035536 Y40.43654822335025 I0.8426395939086294 J-0.35025380710659904
G3 X22.18781725888325 Y40.08629441624365 I0.9137055837563451 J0
G3 X22.38578680203046 Y39.79187817258883 I0.8426395939086294 J0.35025380710659904
G3 X22.680203045685282 Y39.59390862944162 I0.6446700507614213 J0.6446700507614213
G3 X23.030456852791875 Y39.52284263959391 I0.35025380710659904 J0.8426395939086294
G0 Z2
G0 X23.02994923857868 Y39.52385786802031
G1 Z-4.1 F200
G3 X23.378172588832488 Y39.59390862944162 I0 J0.9137055837563451 F400
G3 X23.6751269035533 Y39.79187817258883 I-0.35025380710659904 J0.8426395939086294
G3 X23.873096446700508 Y40.08629441624365 I-0.6446700507614213 J0.6446700507614213
G3 X23.941624365482234 Y40.43654822335025 I-0.8426395939086294 J0.35025380710659904
G3 X23.873096446700508 Y40.786802030456855 I-0.9137055837563451 J0
G3 X23.6751269035533 Y41.08121827411168 I-0.8426395939086294 J-0.35025380710659904
G3 X23.378172588832488 Y41.27918781725889 I-0.6446700507614213 J-0.6446700507614213
G3 X23.030456852791875 Y41.34771573604061 I-0.35025380710659904 J-0.8426395939086294
G3 X22.680203045685282 Y41.27918781725889 I0 J-0.9137055837563451
G3 X22.38578680203046 Y41.08121827411168 I0.35025380710659904 J-0.8426395939086294
G3 X22.18781725888325 Y40.786802030456855 I0.6446700507614213 J-0.6446700507614213
G3 X22.116751269035536 Y40.43654822335025 I0.8426395939086294 J-0.35025380710659904
G3 X22.18781725888325 Y40.08629441624365 I0.9137055837563451 J0
G3 X22.38578680203046 Y39.79187817258883 I0.8426395939086294 J0.35025380710659904
G3 X22.680203045685282 Y39.59390862944162 I0.6446700507614213 J0.6446700507614213
G3 X23.030456852791875 Y39.52284263959391 I0.35025380710659904 J0.8426395939086294
G0 Z2
G0 X23.02994923857868 Y39.52385786802031
G1 Z-4.2 F200
G3 X23.378172588832488 Y39.59390862944162 I0 J0.9137055837563451 F400
G3 X23.6751269035533 Y39.79187817258883 I-0.35025380710659904 J0.8426395939086294
G3 X23.873096446700508 Y40.08629441624365 I-0.6446700507614213 J0.6446700507614213
G3 X23.941624365482234 Y40.43654822335025 I-0.8426395939086294 J0.35025380710659904
G3 X23.873096446700508 Y40.786802030456855 I-0.9137055837563451 J0
G3 X23.6751269035533 Y41.08121827411168 I-0.8426395939086294 J-0.35025380710659904
G3 X23.378172588832488 Y41.27918781725889 I-0.6446700507614213 J-0.6446700507614213
G3 X23.030456852791875 Y41.34771573604061 I-0.35025380710659904 J-0.8426395939086294
G3 X22.680203045685282 Y41.27918781725889 I0 J-0.9137055837563451
G3 X22.38578680203046 Y41.08121827411168 I0.35025380710659904 J-0.8426395939086294
G3 X22.18781725888325 Y40.786802030456855 I0.6446700507614213 J-0.6446700507614213
G3 X22.116751269035536 Y40.43654822335025 I0.8426395939086294 J-0.35025380710659904
G3 X22.18781725888325 Y40.08629441624365 I0.9137055837563451 J0
G3 X22.38578680203046 Y39.79187817258883 I0.8426395939086294 J0.35025380710659904
G3 X22.680203045685282 Y39.59390862944162 I0.6446700507614213 J0.6446700507614213
G3 X23.030456852791875 Y39.52284263959391 I0.35025380710659904 J0.8426395939086294
G0 Z2
G0 X23.02994923857868 Y39.52385786802031
G1 Z-4.3 F200
G3 X23.378172588832488 Y39.59390862944162 I0 J0.9137055837563451 F400
G3 X23.6751269035533 Y39.79187817258883 I-0.35025380710659904 J0.8426395939086294
G3 X23.873096446700508 Y40.08629441624365 I-0.6446700507614213 J0.6446700507614213
G3 X23.941624365482234 Y40.43654822335025 I-0.8426395939086294 J0.35025380710659904
G3 X23.873096446700508 Y40.786802030456855 I-0.9137055837563451 J0
G3 X23.6751269035533 Y41.08121827411168 I-0.8426395939086294 J-0.35025380710659904
G3 X23.378172588832488 Y41.27918781725889 I-0.6446700507614213 J-0.6446700507614213
G3 X23.030456852791875 Y41.34771573604061 I-0.35025380710659904 J-0.8426395939086294
G3 X22.680203045685282 Y41.27918781725889 I0 J-0.9137055837563451
G3 X22.38578680203046 Y41.08121827411168 I0.35025380710659904 J-0.8426395939086294
G3 X22.18781725888325 Y40.786802030456855 I0.6446700507614213 J-0.6446700507614213
G3 X22.116751269035536 Y40.43654822335025 I0.8426395939086294 J-0.35025380710659904
G3 X22.18781725888325 Y40.08629441624365 I0.9137055837563451 J0
G3 X22.38578680203046 Y39.79187817258883 I0.8426395939086294 J0.35025380710659904
G3 X22.680203045685282 Y39.59390862944162 I0.6446700507614213 J0.6446700507614213
G3 X23.030456852791875 Y39.52284263959391 I0.35025380710659904 J0.8426395939086294
G0 Z2
G0 X23.02994923857868 Y39.52385786802031
G1 Z-4.4 F200
G3 X23.378172588832488 Y39.59390862944162 I0 J0.9137055837563451 F400
G3 X23.6751269035533 Y39.79187817258883 I-0.35025380710659904 J0.8426395939086294
G3 X23.873096446700508 Y40.08629441624365 I-0.6446700507614213 J0.6446700507614213
G3 X23.941624365482234 Y40.43654822335025 I-0.8426395939086294 J0.35025380710659904
G3 X23.873096446700508 Y40.786802030456855 I-0.9137055837563451 J0
G3 X23.6751269035533 Y41.08121827411168 I-0.8426395939086294 J-0.35025380710659904
G3 X23.378172588832488 Y41.27918781725889 I-0.6446700507614213 J-0.6446700507614213
G3 X23.030456852791875 Y41.34771573604061 I-0.35025380710659904 J-0.8426395939086294
G3 X22.680203045685282 Y41.27918781725889 I0 J-0.9137055837563451
G3 X22.38578680203046 Y41.08121827411168 I0.35025380710659904 J-0.8426395939086294
G3 X22.18781725888325 Y40.786802030456855 I0.6446700507614213 J-0.6446700507614213
G3 X22.116751269035536 Y40.43654822335025 I0.8426395939086294 J-0.35025380710659904
G3 X22.18781725888325 Y40.08629441624365 I0.9137055837563451 J0
G3 X22.38578680203046 Y39.79187817258883 I0.8426395939086294 J0.35025380710659904
G3 X22.680203045685282 Y39.59390862944162 I0.6446700507614213 J0.6446700507614213
G3 X23.030456852791875 Y39.52284263959391 I0.35025380710659904 J0.8426395939086294
G0 Z2
G0 X23.02994923857868 Y39.52385786802031
G1 Z-4.5 F200
G3 X23.378172588832488 Y39.59390862944162 I0 J0.9137055837563451 F400
G3 X23.6751269035533 Y39.79187817258883 I-0.35025380710659904 J0.8426395939086294
G3 X23.873096446700508 Y40.08629441624365 I-0.6446700507614213 J0.6446700507614213
G3 X23.941624365482234 Y40.43654822335025 I-0.8426395939086294 J0.35025380710659904
G3 X23.873096446700508 Y40.786802030456855 I-0.9137055837563451 J0
G3 X23.6751269035533 Y41.08121827411168 I-0.8426395939086294 J-0.35025380710659904
G3 X23.378172588832488 Y41.27918781725889 I-0.6446700507614213 J-0.6446700507614213
G3 X23.030456852791875 Y41.34771573604061 I-0.35025380710659904 J-0.8426395939086294
G3 X22.680203045685282 Y41.27918781725889 I0 J-0.9137055837563451
G3 X22.38578680203046 Y41.08121827411168 I0.35025380710659904 J-0.8426395939086294
G3 X22.18781725888325 Y40.786802030456855 I0.6446700507614213 J-0.6446700507614213
G3 X22.116751269035536 Y40.43654822335025 I0.8426395939086294 J-0.35025380710659904
G3 X22.18781725888325 Y40.08629441624365 I0.9137055837563451 J0
G3 X22.38578680203046 Y39.79187817258883 I0.8426395939086294 J0.35025380710659904
G3 X22.680203045685282 Y39.59390862944162 I0.6446700507614213 J0.6446700507614213
G3 X23.030456852791875 Y39.52284263959391 I0.35025380710659904 J0.8426395939086294
G0 Z2
G0 X23.02994923857868 Y39.52385786802031
G1 Z-4.6 F200
G3 X23.378172588832488 Y39.59390862944162 I0 J0.9137055837563451 F400
G3 X23.6751269035533 Y39.79187817258883 I-0.35025380710659904 J0.8426395939086294
G3 X23.873096446700508 Y40.08629441624365 I-0.6446700507614213 J0.6446700507614213
G3 X23.941624365482234 Y40.43654822335025 I-0.8426395939086294 J0.35025380710659904
G3 X23.873096446700508 Y40.786802030456855 I-0.9137055837563451 J0
G3 X23.6751269035533 Y41.08121827411168 I-0.8426395939086294 J-0.35025380710659904
G3 X23.378172588832488 Y41.27918781725889 I-0.6446700507614213 J-0.6446700507614213
G3 X23.030456852791875 Y41.34771573604061 I-0.35025380710659904 J-0.8426395939086294
G3 X22.680203045685282 Y41.27918781725889 I0 J-0.9137055837563451
G3 X22.38578680203046 Y41.08121827411168 I0.35025380710659904 J-0.8426395939086294
G3 X22.18781725888325 Y40.786802030456855 I0.6446700507614213 J-0.6446700507614213
G3 X22.116751269035536 Y40.43654822335025 I0.8426395939086294 J-0.35025380710659904
G3 X22.18781725888325 Y40.08629441624365 I0.9137055837563451 J0
G3 X22.38578680203046 Y39.79187817258883 I0.8426395939086294 J0.35025380710659904
G3 X22.680203045685282 Y39.59390862944162 I0.6446700507614213 J0.6446700507614213
G3 X23.030456852791875 Y39.52284263959391 I0.35025380710659904 J0.8426395939086294
G0 Z2
G0 X23.02994923857868 Y39.52385786802031
G1 Z-4.7 F200
G3 X23.378172588832488 Y39.59390862944162 I0 J0.9137055837563451 F400
G3 X23.6751269035533 Y39.79187817258883 I-0.35025380710659904 J0.8426395939086294
G3 X23.873096446700508 Y40.08629441624365 I-0.6446700507614213 J0.6446700507614213
G3 X23.941624365482234 Y40.43654822335025 I-0.8426395939086294 J0.35025380710659904
G3 X23.873096446700508 Y40.786802030456855 I-0.9137055837563451 J0
G3 X23.6751269035533 Y41.08121827411168 I-0.8426395939086294 J-0.35025380710659904
G3 X23.378172588832488 Y41.27918781725889 I-0.6446700507614213 J-0.6446700507614213
G3 X23.030456852791875 Y41.34771573604061 I-0.35025380710659904 J-0.8426395939086294
G3 X22.680203045685282 Y41.27918781725889 I0 J-0.9137055837563451
G3 X22.38578680203046 Y41.08121827411168 I0.35025380710659904 J-0.8426395939086294
G3 X22.18781725888325 Y40.786802030456855 I0.6446700507614213 J-0.6446700507614213
G3 X22.116751269035536 Y40.43654822335025 I0.8426395939086294 J-0.35025380710659904
G3 X22.18781725888325 Y40.08629441624365 I0.9137055837563451 J0
G3 X22.38578680203046 Y39.79187817258883 I0.8426395939086294 J0.35025380710659904
G3 X22.680203045685282 Y39.59390862944162 I0.6446700507614213 J0.6446700507614213
G3 X23.030456852791875 Y39.52284263959391 I0.35025380710659904 J0.8426395939086294
G0 Z2
G0 X23.02994923857868 Y39.52385786802031
G1 Z-4.8 F200
G3 X23.378172588832488 Y39.59390862944162 I0 J0.9137055837563451 F400
G3 X23.6751269035533 Y39.79187817258883 I-0.35025380710659904 J0.8426395939086294
G3 X23.873096446700508 Y40.08629441624365 I-0.6446700507614213 J0.6446700507614213
G3 X23.941624365482234 Y40.43654822335025 I-0.8426395939086294 J0.35025380710659904
G3 X23.873096446700508 Y40.786802030456855 I-0.9137055837563451 J0
G3 X23.6751269035533 Y41.08121827411168 I-0.8426395939086294 J-0.35025380710659904
G3 X23.378172588832488 Y41.27918781725889 I-0.6446700507614213 J-0.6446700507614213
G3 X23.030456852791875 Y41.34771573604061 I-0.35025380710659904 J-0.8426395939086294
G3 X22.680203045685282 Y41.27918781725889 I0 J-0.9137055837563451
G3 X22.38578680203046 Y41.08121827411168 I0.35025380710659904 J-0.8426395939086294
G3 X22.18781725888325 Y40.786802030456855 I0.6446700507614213 J-0.6446700507614213
G3 X22.116751269035536 Y40.43654822335025 I0.8426395939086294 J-0.35025380710659904
G3 X22.18781725888325 Y40.08629441624365 I0.9137055837563451 J0
G3 X22.38578680203046 Y39.79187817258883 I0.8426395939086294 J0.35025380710659904
G3 X22.680203045685282 Y39.59390862944162 I0.6446700507614213 J0.6446700507614213
G3 X23.030456852791875 Y39.52284263959391 I0.35025380710659904 J0.8426395939086294
G0 Z2
G0 X23.02994923857868 Y39.52385786802031
G1 Z-4.9 F200
G3 X23.378172588832488 Y39.59390862944162 I0 J0.9137055837563451 F400
G3 X23.6751269035533 Y39.79187817258883 I-0.35025380710659904 J0.8426395939086294
G3 X23.873096446700508 Y40.08629441624365 I-0.6446700507614213 J0.6446700507614213
G3 X23.941624365482234 Y40.43654822335025 I-0.8426395939086294 J0.35025380710659904
G3 X23.873096446700508 Y40.786802030456855 I-0.9137055837563451 J0
G3 X23.6751269035533 Y41.08121827411168 I-0.8426395939086294 J-0.35025380710659904
G3 X23.378172588832488 Y41.27918781725889 I-0.6446700507614213 J-0.6446700507614213
G3 X23.030456852791875 Y41.34771573604061 I-0.35025380710659904 J-0.8426395939086294
G3 X22.680203045685282 Y41.27918781725889 I0 J-0.9137055837563451
G3 X22.38578680203046 Y41.08121827411168 I0.35025380710659904 J-0.8426395939086294
G3 X22.18781725888325 Y40.786802030456855 I0.6446700507614213 J-0.6446700507614213
G3 X22.116751269035536 Y40.43654822335025 I0.8426395939086294 J-0.35025380710659904
G3 X22.18781725888325 Y40.08629441624365 I0.9137055837563451 J0
G3 X22.38578680203046 Y39.79187817258883 I0.8426395939086294 J0.35025380710659904
G3 X22.680203045685282 Y39.59390862944162 I0.6446700507614213 J0.6446700507614213
G3 X23.030456852791875 Y39.52284263959391 I0.35025380710659904 J0.8426395939086294
G0 Z2
G0 X23.02994923857868 Y39.52385786802031
G1 Z-5 F200
G3 X23.378172588832488 Y39.59390862944162 I0 J0.9137055837563451 F400
G3 X23.6751269035533 Y39.79187817258883 I-0.35025380710659904 J0.8426395939086294
G3 X23.873096446700508 Y40.08629441624365 I-0.6446700507614213 J0.6446700507614213
G3 X23.941624365482234 Y40.43654822335025 I-0.8426395939086294 J0.35025380710659904
G3 X23.873096446700508 Y40.786802030456855 I-0.9137055837563451 J0
G3 X23.6751269035533 Y41.08121827411168 I-0.8426395939086294 J-0.35025380710659904
G3 X23.378172588832488 Y41.27918781725889 I-0.6446700507614213 J-0.6446700507614213
G3 X23.030456852791875 Y41.34771573604061 I-0.35025380710659904 J-0.8426395939086294
G3 X22.680203045685282 Y41.27918781725889 I0 J-0.9137055837563451
G3 X22.38578680203046 Y41.08121827411168 I0.35025380710659904 J-0.8426395939086294
G3 X22.18781725888325 Y40.786802030456855 I0.6446700507614213 J-0.6446700507614213
G3 X22.116751269035536 Y40.43654822335025 I0.8426395939086294 J-0.35025380710659904
G3 X22.18781725888325 Y40.08629441624365 I0.9137055837563451 J0
G3 X22.38578680203046 Y39.79187817258883 I0.8426395939086294 J0.35025380710659904
G3 X22.680203045685282 Y39.59390862944162 I0.6446700507614213 J0.6446700507614213
G3 X23.030456852791875 Y39.52284263959391 I0.35025380710659904 J0.8426395939086294
G0 Z2
G0 X23.02994923857868 Y39.52385786802031
G1 Z-5.1 F200
G3 X23.378172588832488 Y39.59390862944162 I0 J0.9137055837563451 F400
G3 X23.6751269035533 Y39.79187817258883 I-0.35025380710659904 J0.8426395939086294
G3 X23.873096446700508 Y40.08629441624365 I-0.6446700507614213 J0.6446700507614213
G3 X23.941624365482234 Y40.43654822335025 I-0.8426395939086294 J0.35025380710659904
G3 X23.873096446700508 Y40.786802030456855 I-0.9137055837563451 J0
G3 X23.6751269035533 Y41.08121827411168 I-0.8426395939086294 J-0.35025380710659904
G3 X23.378172588832488 Y41.27918781725889 I-0.6446700507614213 J-0.6446700507614213
G3 X23.030456852791875 Y41.34771573604061 I-0.35025380710659904 J-0.8426395939086294
G3 X22.680203045685282 Y41.27918781725889 I0 J-0.9137055837563451
G3 X22.38578680203046 Y41.08121827411168 I0.35025380710659904 J-0.8426395939086294
G3 X22.18781725888325 Y40.786802030456855 I0.6446700507614213 J-0.6446700507614213
G3 X22.116751269035536 Y40.43654822335025 I0.8426395939086294 J-0.35025380710659904
G3 X22.18781725888325 Y40.08629441624365 I0.9137055837563451 J0
G3 X22.38578680203046 Y39.79187817258883 I0.8426395939086294 J0.35025380710659904
G3 X22.680203045685282 Y39.59390862944162 I0.6446700507614213 J0.6446700507614213
G3 X23.030456852791875 Y39.52284263959391 I0.35025380710659904 J0.8426395939086294
G0 Z2
G0 X23.02994923857868 Y39.52385786802031
G1 Z-5.2 F200
G3 X23.378172588832488 Y39.59390862944162 I0 J0.9137055837563451 F400
G3 X23.6751269035533 Y39.79187817258883 I-0.35025380710659904 J0.8426395939086294
G3 X23.873096446700508 Y40.08629441624365 I-0.6446700507614213 J0.6446700507614213
G3 X23.941624365482234 Y40.43654822335025 I-0.8426395939086294 J0.35025380710659904
G3 X23.873096446700508 Y40.786802030456855 I-0.9137055837563451 J0
G3 X23.6751269035533 Y41.08121827411168 I-0.8426395939086294 J-0.35025380710659904
G3 X23.378172588832488 Y41.27918781725889 I-0.6446700507614213 J-0.6446700507614213
G3 X23.030456852791875 Y41.34771573604061 I-0.35025380710659904 J-0.8426395939086294
G3 X22.680203045685282 Y41.27918781725889 I0 J-0.9137055837563451
G3 X22.38578680203046 Y41.08121827411168 I0.35025380710659904 J-0.8426395939086294
G3 X22.18781725888325 Y40.786802030456855 I0.6446700507614213 J-0.6446700507614213
G3 X22.116751269035536 Y40.43654822335025 I0.8426395939086294 J-0.35025380710659904
G3 X22.18781725888325 Y40.08629441624365 I0.9137055837563451 J0
G3 X22.38578680203046 Y39.79187817258883 I0.8426395939086294 J0.35025380710659904
G3 X22.680203045685282 Y39.59390862944162 I0.6446700507614213 J0.6446700507614213
G3 X23.030456852791875 Y39.52284263959391 I0.35025380710659904 J0.8426395939086294
G0 Z2
G0 X23.02994923857868 Y39.52385786802031
G1 Z-5.3 F200
G3 X23.378172588832488 Y39.59390862944162 I0 J0.9137055837563451 F400
G3 X23.6751269035533 Y39.79187817258883 I-0.35025380710659904 J0.8426395939086294
G3 X23.873096446700508 Y40.08629441624365 I-0.6446700507614213 J0.6446700507614213
G3 X23.941624365482234 Y40.43654822335025 I-0.8426395939086294 J0.35025380710659904
G3 X23.873096446700508 Y40.786802030456855 I-0.9137055837563451 J0
G3 X23.6751269035533 Y41.08121827411168 I-0.8426395939086294 J-0.35025380710659904
G3 X23.378172588832488 Y41.27918781725889 I-0.6446700507614213 J-0.6446700507614213
G3 X23.030456852791875 Y41.34771573604061 I-0.35025380710659904 J-0.8426395939086294
G3 X22.680203045685282 Y41.27918781725889 I0 J-0.9137055837563451
G3 X22.38578680203046 Y41.08121827411168 I0.35025380710659904 J-0.8426395939086294
G3 X22.18781725888325 Y40.786802030456855 I0.6446700507614213 J-0.6446700507614213
G3 X22.116751269035536 Y40.43654822335025 I0.8426395939086294 J-0.35025380710659904
G3 X22.18781725888325 Y40.08629441624365 I0.9137055837563451 J0
G3 X22.38578680203046 Y39.79187817258883 I0.8426395939086294 J0.35025380710659904
G3 X22.680203045685282 Y39.59390862944162 I0.6446700507614213 J0.6446700507614213
G3 X23.030456852791875 Y39.52284263959391 I0.35025380710659904 J0.8426395939086294
G0 Z2
G0 X23.02994923857868 Y39.52385786802031
G1 Z-5.4 F200
G3 X23.378172588832488 Y39.59390862944162 I0 J0.9137055837563451 F400
G3 X23.6751269035533 Y39.79187817258883 I-0.35025380710659904 J0.8426395939086294
G3 X23.873096446700508 Y40.08629441624365 I-0.6446700507614213 J0.6446700507614213
G3 X23.941624365482234 Y40.43654822335025 I-0.8426395939086294 J0.35025380710659904
G3 X23.873096446700508 Y40.786802030456855 I-0.9137055837563451 J0
G3 X23.6751269035533 Y41.08121827411168 I-0.8426395939086294 J-0.35025380710659904
G3 X23.378172588832488 Y41.27918781725889 I-0.6446700507614213 J-0.6446700507614213
G3 X23.030456852791875 Y41.34771573604061 I-0.35025380710659904 J-0.8426395939086294
G3 X22.680203045685282 Y41.27918781725889 I0 J-0.9137055837563451
G3 X22.38578680203046 Y41.08121827411168 I0.35025380710659904 J-0.8426395939086294
G3 X22.18781725888325 Y40.786802030456855 I0.6446700507614213 J-0.6446700507614213
G3 X22.116751269035536 Y40.43654822335025 I0.8426395939086294 J-0.35025380710659904
G3 X22.18781725888325 Y40.08629441624365 I0.9137055837563451 J0
G3 X22.38578680203046 Y39.79187817258883 I0.8426395939086294 J0.35025380710659904
G3 X22.680203045685282 Y39.59390862944162 I0.6446700507614213 J0.6446700507614213
G3 X23.030456852791875 Y39.52284263959391 I0.35025380710659904 J0.8426395939086294
G0 Z2
G0 X23.02994923857868 Y39.52385786802031
G1 Z-5.5 F200
G3 X23.378172588832488 Y39.59390862944162 I0 J0.9137055837563451 F400
G3 X23.6751269035533 Y39.79187817258883 I-0.35025380710659904 J0.8426395939086294
G3 X23.873096446700508 Y40.08629441624365 I-0.6446700507614213 J0.6446700507614213
G3 X23.941624365482234 Y40.43654822335025 I-0.8426395939086294 J0.35025380710659904
G3 X23.873096446700508 Y40.786802030456855 I-0.9137055837563451 J0
G3 X23.6751269035533 Y41.08121827411168 I-0.8426395939086294 J-0.35025380710659904
G3 X23.378172588832488 Y41.27918781725889 I-0.6446700507614213 J-0.6446700507614213
G3 X23.030456852791875 Y41.34771573604061 I-0.35025380710659904 J-0.8426395939086294
G3 X22.680203045685282 Y41.27918781725889 I0 J-0.9137055837563451
G3 X22.38578680203046 Y41.08121827411168 I0.35025380710659904 J-0.8426395939086294
G3 X22.18781725888325 Y40.786802030456855 I0.6446700507614213 J-0.6446700507614213
G3 X22.116751269035536 Y40.43654822335025 I0.8426395939086294 J-0.35025380710659904
G3 X22.18781725888325 Y40.08629441624365 I0.9137055837563451 J0
G3 X22.38578680203046 Y39.79187817258883 I0.8426395939086294 J0.35025380710659904
G3 X22.680203045685282 Y39.59390862944162 I0.6446700507614213 J0.6446700507614213
G3 X23.030456852791875 Y39.52284263959391 I0.35025380710659904 J0.8426395939086294
G0 Z2
G0 X23.02994923857868 Y39.52385786802031
G1 Z-5.6 F200
G3 X23.378172588832488 Y39.59390862944162 I0 J0.9137055837563451 F400
G3 X23.6751269035533 Y39.79187817258883 I-0.35025380710659904 J0.8426395939086294
G3 X23.873096446700508 Y40.08629441624365 I-0.6446700507614213 J0.6446700507614213
G3 X23.941624365482234 Y40.43654822335025 I-0.8426395939086294 J0.35025380710659904
G3 X23.873096446700508 Y40.786802030456855 I-0.9137055837563451 J0
G3 X23.6751269035533 Y41.08121827411168 I-0.8426395939086294 J-0.35025380710659904
G3 X23.378172588832488 Y41.27918781725889 I-0.6446700507614213 J-0.6446700507614213
G3 X23.030456852791875 Y41.34771573604061 I-0.35025380710659904 J-0.8426395939086294
G3 X22.680203045685282 Y41.27918781725889 I0 J-0.9137055837563451
G3 X22.38578680203046 Y41.08121827411168 I0.35025380710659904 J-0.8426395939086294
G3 X22.18781725888325 Y40.786802030456855 I0.6446700507614213 J-0.6446700507614213
G3 X22.116751269035536 Y40.43654822335025 I0.8426395939086294 J-0.35025380710659904
G3 X22.18781725888325 Y40.08629441624365 I0.9137055837563451 J0
G3 X22.38578680203046 Y39.79187817258883 I0.8426395939086294 J0.35025380710659904
G3 X22.680203045685282 Y39.59390862944162 I0.6446700507614213 J0.6446700507614213
G3 X23.030456852791875 Y39.52284263959391 I0.35025380710659904 J0.8426395939086294
G0 Z2
G0 X23.02994923857868 Y39.52385786802031
G1 Z-5.7 F200
G3 X23.378172588832488 Y39.59390862944162 I0 J0.9137055837563451 F400
G3 X23.6751269035533 Y39.79187817258883 I-0.35025380710659904 J0.8426395939086294
G3 X23.873096446700508 Y40.08629441624365 I-0.6446700507614213 J0.6446700507614213
G3 X23.941624365482234 Y40.43654822335025 I-0.8426395939086294 J0.35025380710659904
G3 X23.873096446700508 Y40.786802030456855 I-0.9137055837563451 J0
G3 X23.6751269035533 Y41.08121827411168 I-0.8426395939086294 J-0.35025380710659904
G3 X23.378172588832488 Y41.27918781725889 I-0.6446700507614213 J-0.6446700507614213
G3 X23.030456852791875 Y41.34771573604061 I-0.35025380710659904 J-0.8426395939086294
G3 X22.680203045685282 Y41.27918781725889 I0 J-0.9137055837563451
G3 X22.38578680203046 Y41.08121827411168 I0.35025380710659904 J-0.8426395939086294
G3 X22.18781725888325 Y40.786802030456855 I0.6446700507614213 J-0.6446700507614213
G3 X22.116751269035536 Y40.43654822335025 I0.8426395939086294 J-0.35025380710659904
G3 X22.18781725888325 Y40.08629441624365 I0.9137055837563451 J0
G3 X22.38578680203046 Y39.79187817258883 I0.8426395939086294 J0.35025380710659904
G3 X22.680203045685282 Y39.59390862944162 I0.6446700507614213 J0.6446700507614213
G3 X23.030456852791875 Y39.52284263959391 I0.35025380710659904 J0.8426395939086294
G0 Z2
G0 X23.02994923857868 Y39.52385786802031
G1 Z-5.8 F200
G3 X23.378172588832488 Y39.59390862944162 I0 J0.9137055837563451 F400
G3 X23.6751269035533 Y39.79187817258883 I-0.35025380710659904 J0.8426395939086294
G3 X23.873096446700508 Y40.08629441624365 I-0.6446700507614213 J0.6446700507614213
G3 X23.941624365482234 Y40.43654822335025 I-0.8426395939086294 J0.35025380710659904
G3 X23.873096446700508 Y40.786802030456855 I-0.9137055837563451 J0
G3 X23.6751269035533 Y41.08121827411168 I-0.8426395939086294 J-0.35025380710659904
G3 X23.378172588832488 Y41.27918781725889 I-0.6446700507614213 J-0.6446700507614213
G3 X23.030456852791875 Y41.34771573604061 I-0.35025380710659904 J-0.8426395939086294
G3 X22.680203045685282 Y41.27918781725889 I0 J-0.9137055837563451
G3 X22.38578680203046 Y41.08121827411168 I0.35025380710659904 J-0.8426395939086294
G3 X22.18781725888325 Y40.786802030456855 I0.6446700507614213 J-0.6446700507614213
G3 X22.116751269035536 Y40.43654822335025 I0.8426395939086294 J-0.35025380710659904
G3 X22.18781725888325 Y40.08629441624365 I0.9137055837563451 J0
G3 X22.38578680203046 Y39.79187817258883 I0.8426395939086294 J0.35025380710659904
G3 X22.680203045685282 Y39.59390862944162 I0.6446700507614213 J0.6446700507614213
G3 X23.030456852791875 Y39.52284263959391 I0.35025380710659904 J0.8426395939086294
G0 Z2
G0 X23.02994923857868 Y39.52385786802031
G1 Z-5.9 F200
G3 X23.378172588832488 Y39.59390862944162 I0 J0.9137055837563451 F400
G3 X23.6751269035533 Y39.79187817258883 I-0.35025380710659904 J0.8426395939086294
G3 X23.873096446700508 Y40.08629441624365 I-0.6446700507614213 J0.6446700507614213
G3 X23.941624365482234 Y40.43654822335025 I-0.8426395939086294 J0.35025380710659904
G3 X23.873096446700508 Y40.786802030456855 I-0.9137055837563451 J0
G3 X23.6751269035533 Y41.08121827411168 I-0.8426395939086294 J-0.35025380710659904
G3 X23.378172588832488 Y41.27918781725889 I-0.6446700507614213 J-0.6446700507614213
G3 X23.030456852791875 Y41.34771573604061 I-0.35025380710659904 J-0.8426395939086294
G3 X22.680203045685282 Y41.27918781725889 I0 J-0.9137055837563451
G3 X22.38578680203046 Y41.08121827411168 I0.35025380710659904 J-0.8426395939086294
G3 X22.18781725888325 Y40.786802030456855 I0.6446700507614213 J-0.6446700507614213
G3 X22.116751269035536 Y40.43654822335025 I0.8426395939086294 J-0.35025380710659904
G3 X22.18781725888325 Y40.08629441624365 I0.9137055837563451 J0
G3 X22.38578680203046 Y39.79187817258883 I0.8426395939086294 J0.35025380710659904
G3 X22.680203045685282 Y39.59390862944162 I0.6446700507614213 J0.6446700507614213
G3 X23.030456852791875 Y39.52284263959391 I0.35025380710659904 J0.8426395939086294
G0 Z2
G0 X23.02994923857868 Y39.52385786802031
G1 Z-6 F200
G3 X23.378172588832488 Y39.59390862944162 I0 J0.9137055837563451 F400
G3 X23.6751269035533 Y39.79187817258883 I-0.35025380710659904 J0.8426395939086294
G3 X23.873096446700508 Y40.08629441624365 I-0.6446700507614213 J0.6446700507614213
G3 X23.941624365482234 Y40.43654822335025 I-0.8426395939086294 J0.35025380710659904
G3 X23.873096446700508 Y40.786802030456855 I-0.9137055837563451 J0
G3 X23.6751269035533 Y41.08121827411168 I-0.8426395939086294 J-0.35025380710659904
G3 X23.378172588832488 Y41.27918781725889 I-0.6446700507614213 J-0.6446700507614213
G3 X23.030456852791875 Y41.34771573604061 I-0.35025380710659904 J-0.8426395939086294
G3 X22.680203045685282 Y41.27918781725889 I0 J-0.9137055837563451
G3 X22.38578680203046 Y41.08121827411168 I0.35025380710659904 J-0.8426395939086294
G3 X22.18781725888325 Y40.786802030456855 I0.6446700507614213 J-0.6446700507614213
G3 X22.116751269035536 Y40.43654822335025 I0.8426395939086294 J-0.35025380710659904
G3 X22.18781725888325 Y40.08629441624365 I0.9137055837563451 J0
G3 X22.38578680203046 Y39.79187817258883 I0.8426395939086294 J0.35025380710659904
G3 X22.680203045685282 Y39.59390862944162 I0.6446700507614213 J0.6446700507614213
G3 X23.030456852791875 Y39.52284263959391 I0.35025380710659904 J0.8426395939086294
G0 Z2
G0 X23.02994923857868 Y39.52385786802031
G1 Z-6.1 F200
G3 X23.378172588832488 Y39.59390862944162 I0 J0.9137055837563451 F400
G3 X23.6751269035533 Y39.79187817258883 I-0.35025380710659904 J0.8426395939086294
G3 X23.873096446700508 Y40.08629441624365 I-0.6446700507614213 J0.6446700507614213
G3 X23.941624365482234 Y40.43654822335025 I-0.8426395939086294 J0.35025380710659904
G3 X23.873096446700508 Y40.786802030456855 I-0.9137055837563451 J0
G3 X23.6751269035533 Y41.08121827411168 I-0.8426395939086294 J-0.35025380710659904
G3 X23.378172588832488 Y41.27918781725889 I-0.6446700507614213 J-0.6446700507614213
G3 X23.030456852791875 Y41.34771573604061 I-0.35025380710659904 J-0.8426395939086294
G3 X22.680203045685282 Y41.27918781725889 I0 J-0.9137055837563451
G3 X22.38578680203046 Y41.08121827411168 I0.35025380710659904 J-0.8426395939086294
G3 X22.18781725888325 Y40.786802030456855 I0.6446700507614213 J-0.6446700507614213
G3 X22.116751269035536 Y40.43654822335025 I0.8426395939086294 J-0.35025380710659904
G3 X22.18781725888325 Y40.08629441624365 I0.9137055837563451 J0
G3 X22.38578680203046 Y39.79187817258883 I0.8426395939086294 J0.35025380710659904
G3 X22.680203045685282 Y39.59390862944162 I0.6446700507614213 J0.6446700507614213
G3 X23.030456852791875 Y39.52284263959391 I0.35025380710659904 J0.8426395939086294
G0 Z2
G0 X23.02994923857868 Y39.52385786802031
G1 Z-6.2 F200
G3 X23.378172588832488 Y39.59390862944162 I0 J0.9137055837563451 F400
G3 X23.6751269035533 Y39.79187817258883 I-0.35025380710659904 J0.8426395939086294
G3 X23.873096446700508 Y40.08629441624365 I-0.6446700507614213 J0.6446700507614213
G3 X23.941624365482234 Y40.43654822335025 I-0.8426395939086294 J0.35025380710659904
G3 X23.873096446700508 Y40.786802030456855 I-0.9137055837563451 J0
G3 X23.6751269035533 Y41.08121827411168 I-0.8426395939086294 J-0.35025380710659904
G3 X23.378172588832488 Y41.27918781725889 I-0.6446700507614213 J-0.6446700507614213
G3 X23.030456852791875 Y41.34771573604061 I-0.35025380710659904 J-0.8426395939086294
G3 X22.680203045685282 Y41.27918781725889 I0 J-0.9137055837563451
G3 X22.38578680203046 Y41.08121827411168 I0.35025380710659904 J-0.8426395939086294
G3 X22.18781725888325 Y40.786802030456855 I0.6446700507614213 J-0.6446700507614213
G3 X22.116751269035536 Y40.43654822335025 I0.8426395939086294 J-0.35025380710659904
G3 X22.18781725888325 Y40.08629441624365 I0.9137055837563451 J0
G3 X22.38578680203046 Y39.79187817258883 I0.8426395939086294 J0.35025380710659904
G3 X22.680203045685282 Y39.59390862944162 I0.6446700507614213 J0.6446700507614213
G3 X23.030456852791875 Y39.52284263959391 I0.35025380710659904 J0.8426395939086294
G0 Z2
G0 X23.02994923857868 Y39.52385786802031
G1 Z-6.3 F200
G3 X23.378172588832488 Y39.59390862944162 I0 J0.9137055837563451 F400
G3 X23.6751269035533 Y39.79187817258883 I-0.35025380710659904 J0.8426395939086294
G3 X23.873096446700508 Y40.08629441624365 I-0.6446700507614213 J0.6446700507614213
G3 X23.941624365482234 Y40.43654822335025 I-0.8426395939086294 J0.35025380710659904
G3 X23.873096446700508 Y40.786802030456855 I-0.9137055837563451 J0
G3 X23.6751269035533 Y41.08121827411168 I-0.8426395939086294 J-0.35025380710659904
G3 X23.378172588832488 Y41.27918781725889 I-0.6446700507614213 J-0.6446700507614213
G3 X23.030456852791875 Y41.34771573604061 I-0.35025380710659904 J-0.8426395939086294
G3 X22.680203045685282 Y41.27918781725889 I0 J-0.9137055837563451
G3 X22.38578680203046 Y41.08121827411168 I0.35025380710659904 J-0.8426395939086294
G3 X22.18781725888325 Y40.786802030456855 I0.6446700507614213 J-0.6446700507614213
G3 X22.116751269035536 Y40.43654822335025 I0.8426395939086294 J-0.35025380710659904
G3 X22.18781725888325 Y40.08629441624365 I0.9137055837563451 J0
G3 X22.38578680203046 Y39.79187817258883 I0.8426395939086294 J0.35025380710659904
G3 X22.680203045685282 Y39.59390862944162 I0.6446700507614213 J0.6446700507614213
G3 X23.030456852791875 Y39.52284263959391 I0.35025380710659904 J0.8426395939086294
G0 Z2
G0 X23.02994923857868 Y39.52385786802031
G1 Z-6.4 F200
G3 X23.378172588832488 Y39.59390862944162 I0 J0.9137055837563451 F400
G3 X23.6751269035533 Y39.79187817258883 I-0.35025380710659904 J0.8426395939086294
G3 X23.873096446700508 Y40.08629441624365 I-0.6446700507614213 J0.6446700507614213
G3 X23.941624365482234 Y40.43654822335025 I-0.8426395939086294 J0.35025380710659904
G3 X23.873096446700508 Y40.786802030456855 I-0.9137055837563451 J0
G3 X23.6751269035533 Y41.08121827411168 I-0.8426395939086294 J-0.35025380710659904
G3 X23.378172588832488 Y41.27918781725889 I-0.6446700507614213 J-0.6446700507614213
G3 X23.030456852791875 Y41.34771573604061 I-0.35025380710659904 J-0.8426395939086294
G3 X22.680203045685282 Y41.27918781725889 I0 J-0.9137055837563451
G3 X22.38578680203046 Y41.08121827411168 I0.35025380710659904 J-0.8426395939086294
G3 X22.18781725888325 Y40.786802030456855 I0.6446700507614213 J-0.6446700507614213
G3 X22.116751269035536 Y40.43654822335025 I0.8426395939086294 J-0.35025380710659904
G3 X22.18781725888325 Y40.08629441624365 I0.9137055837563451 J0
G3 X22.38578680203046 Y39.79187817258883 I0.8426395939086294 J0.35025380710659904
G3 X22.680203045685282 Y39.59390862944162 I0.6446700507614213 J0.6446700507614213
G3 X23.030456852791875 Y39.52284263959391 I0.35025380710659904 J0.8426395939086294
G0 Z2
G0 X23.02994923857868 Y39.52385786802031
G1 Z-6.5 F200
G3 X23.378172588832488 Y39.59390862944162 I0 J0.9137055837563451 F400
G3 X23.6751269035533 Y39.79187817258883 I-0.35025380710659904 J0.8426395939086294
G3 X23.873096446700508 Y40.08629441624365 I-0.6446700507614213 J0.6446700507614213
G3 X23.941624365482234 Y40.43654822335025 I-0.8426395939086294 J0.35025380710659904
G3 X23.873096446700508 Y40.786802030456855 I-0.9137055837563451 J0
G3 X23.6751269035533 Y41.08121827411168 I-0.8426395939086294 J-0.35025380710659904
G3 X23.378172588832488 Y41.27918781725889 I-0.6446700507614213 J-0.6446700507614213
G3 X23.030456852791875 Y41.34771573604061 I-0.35025380710659904 J-0.8426395939086294
G3 X22.680203045685282 Y41.27918781725889 I0 J-0.9137055837563451
G3 X22.38578680203046 Y41.08121827411168 I0.35025380710659904 J-0.8426395939086294
G3 X22.18781725888325 Y40.786802030456855 I0.6446700507614213 J-0.6446700507614213
G3 X22.116751269035536 Y40.43654822335025 I0.8426395939086294 J-0.35025380710659904
G3 X22.18781725888325 Y40.08629441624365 I0.9137055837563451 J0
G3 X22.38578680203046 Y39.79187817258883 I0.8426395939086294 J0.35025380710659904
G3 X22.680203045685282 Y39.59390862944162 I0.6446700507614213 J0.6446700507614213
G3 X23.030456852791875 Y39.52284263959391 I0.35025380710659904 J0.8426395939086294
G0 Z2
G0 X23.02994923857868 Y39.52385786802031
G1 Z-6.6 F200
G3 X23.378172588832488 Y39.59390862944162 I0 J0.9137055837563451 F400
G3 X23.6751269035533 Y39.79187817258883 I-0.35025380710659904 J0.8426395939086294
G3 X23.873096446700508 Y40.08629441624365 I-0.6446700507614213 J0.6446700507614213
G3 X23.941624365482234 Y40.43654822335025 I-0.8426395939086294 J0.35025380710659904
G3 X23.873096446700508 Y40.786802030456855 I-0.9137055837563451 J0
G3 X23.6751269035533 Y41.08121827411168 I-0.8426395939086294 J-0.35025380710659904
G3 X23.378172588832488 Y41.27918781725889 I-0.6446700507614213 J-0.6446700507614213
G3 X23.030456852791875 Y41.34771573604061 I-0.35025380710659904 J-0.8426395939086294
G3 X22.680203045685282 Y41.27918781725889 I0 J-0.9137055837563451
G3 X22.38578680203046 Y41.08121827411168 I0.35025380710659904 J-0.8426395939086294
G3 X22.18781725888325 Y40.786802030456855 I0.6446700507614213 J-0.6446700507614213
G3 X22.116751269035536 Y40.43654822335025 I0.8426395939086294 J-0.35025380710659904
G3 X22.18781725888325 Y40.08629441624365 I0.9137055837563451 J0
G3 X22.38578680203046 Y39.79187817258883 I0.8426395939086294 J0.35025380710659904
G3 X22.680203045685282 Y39.59390862944162 I0.6446700507614213 J0.6446700507614213
G3 X23.030456852791875 Y39.52284263959391 I0.35025380710659904 J0.8426395939086294
G0 Z2
G0 X23.02994923857868 Y39.52385786802031
G1 Z-6.7 F200
G3 X23.378172588832488 Y39.59390862944162 I0 J0.9137055837563451 F400
G3 X23.6751269035533 Y39.79187817258883 I-0.35025380710659904 J0.8426395939086294
G3 X23.873096446700508 Y40.08629441624365 I-0.6446700507614213 J0.6446700507614213
G3 X23.941624365482234 Y40.43654822335025 I-0.8426395939086294 J0.35025380710659904
G3 X23.873096446700508 Y40.786802030456855 I-0.9137055837563451 J0
G3 X23.6751269035533 Y41.08121827411168 I-0.8426395939086294 J-0.35025380710659904
G3 X23.378172588832488 Y41.27918781725889 I-0.6446700507614213 J-0.6446700507614213
G3 X23.030456852791875 Y41.34771573604061 I-0.35025380710659904 J-0.8426395939086294
G3 X22.680203045685282 Y41.27918781725889 I0 J-0.9137055837563451
G3 X22.38578680203046 Y41.08121827411168 I0.35025380710659904 J-0.8426395939086294
G3 X22.18781725888325 Y40.786802030456855 I0.6446700507614213 J-0.6446700507614213
G3 X22.116751269035536 Y40.43654822335025 I0.8426395939086294 J-0.35025380710659904
G3 X22.18781725888325 Y40.08629441624365 I0.9137055837563451 J0
G3 X22.38578680203046 Y39.79187817258883 I0.8426395939086294 J0.35025380710659904
G3 X22.680203045685282 Y39.59390862944162 I0.6446700507614213 J0.6446700507614213
G3 X23.030456852791875 Y39.52284263959391 I0.35025380710659904 J0.8426395939086294
G0 Z2
G0 X23.02994923857868 Y39.52385786802031
G1 Z-6.8 F200
G3 X23.378172588832488 Y39.59390862944162 I0 J0.9137055837563451 F400
G3 X23.6751269035533 Y39.79187817258883 I-0.35025380710659904 J0.8426395939086294
G3 X23.873096446700508 Y40.08629441624365 I-0.6446700507614213 J0.6446700507614213
G3 X23.941624365482234 Y40.43654822335025 I-0.8426395939086294 J0.35025380710659904
G3 X23.873096446700508 Y40.786802030456855 I-0.9137055837563451 J0
G3 X23.6751269035533 Y41.08121827411168 I-0.8426395939086294 J-0.35025380710659904
G3 X23.378172588832488 Y41.27918781725889 I-0.6446700507614213 J-0.6446700507614213
G3 X23.030456852791875 Y41.34771573604061 I-0.35025380710659904 J-0.8426395939086294
G3 X22.680203045685282 Y41.27918781725889 I0 J-0.9137055837563451
G3 X22.38578680203046 Y41.08121827411168 I0.35025380710659904 J-0.8426395939086294
G3 X22.18781725888325 Y40.786802030456855 I0.6446700507614213 J-0.6446700507614213
G3 X22.116751269035536 Y40.43654822335025 I0.8426395939086294 J-0.35025380710659904
G3 X22.18781725888325 Y40.08629441624365 I0.9137055837563451 J0
G3 X22.38578680203046 Y39.79187817258883 I0.8426395939086294 J0.35025380710659904
G3 X22.680203045685282 Y39.59390862944162 I0.6446700507614213 J0.6446700507614213
G3 X23.030456852791875 Y39.52284263959391 I0.35025380710659904 J0.8426395939086294
G0 Z2
G0 X23.02994923857868 Y39.52385786802031
G1 Z-6.9 F200
G3 X23.378172588832488 Y39.59390862944162 I0 J0.9137055837563451 F400
G3 X23.6751269035533 Y39.79187817258883 I-0.35025380710659904 J0.8426395939086294
G3 X23.873096446700508 Y40.08629441624365 I-0.6446700507614213 J0.6446700507614213
G3 X23.941624365482234 Y40.43654822335025 I-0.8426395939086294 J0.35025380710659904
G3 X23.873096446700508 Y40.786802030456855 I-0.9137055837563451 J0
G3 X23.6751269035533 Y41.08121827411168 I-0.8426395939086294 J-0.35025380710659904
G3 X23.378172588832488 Y41.27918781725889 I-0.6446700507614213 J-0.6446700507614213
G3 X23.030456852791875 Y41.34771573604061 I-0.35025380710659904 J-0.8426395939086294
G3 X22.680203045685282 Y41.27918781725889 I0 J-0.9137055837563451
G3 X22.38578680203046 Y41.08121827411168 I0.35025380710659904 J-0.8426395939086294
G3 X22.18781725888325 Y40.786802030456855 I0.6446700507614213 J-0.6446700507614213
G3 X22.116751269035536 Y40.43654822335025 I0.8426395939086294 J-0.35025380710659904
G3 X22.18781725888325 Y40.08629441624365 I0.9137055837563451 J0
G3 X22.38578680203046 Y39.79187817258883 I0.8426395939086294 J0.35025380710659904
G3 X22.680203045685282 Y39.59390862944162 I0.6446700507614213 J0.6446700507614213
G3 X23.030456852791875 Y39.52284263959391 I0.35025380710659904 J0.8426395939086294
G0 Z2
G0 X23.02994923857868 Y39.52385786802031
G1 Z-7 F200
G3 X23.378172588832488 Y39.59390862944162 I0 J0.9137055837563451 F400
G3 X23.6751269035533 Y39.79187817258883 I-0.35025380710659904 J0.8426395939086294
G3 X23.873096446700508 Y40.08629441624365 I-0.6446700507614213 J0.6446700507614213
G3 X23.941624365482234 Y40.43654822335025 I-0.8426395939086294 J0.35025380710659904
G3 X23.873096446700508 Y40.786802030456855 I-0.9137055837563451 J0
G3 X23.6751269035533 Y41.08121827411168 I-0.8426395939086294 J-0.35025380710659904
G3 X23.378172588832488 Y41.27918781725889 I-0.6446700507614213 J-0.6446700507614213
G3 X23.030456852791875 Y41.34771573604061 I-0.35025380710659904 J-0.8426395939086294
G3 X22.680203045685282 Y41.27918781725889 I0 J-0.9137055837563451
G3 X22.38578680203046 Y41.08121827411168 I0.35025380710659904 J-0.8426395939086294
G3 X22.18781725888325 Y40.786802030456855 I0.6446700507614213 J-0.6446700507614213
