(Generated by PartKam Version 0.05)

G21 G90 G40

(pocket 2)
G0 Z1
T0 M6
G17
M3
G0 X39.5360 Y56.9827
G1 Z-0.0748 F200
G1 X39.5355 Y39.3172 F400
G1 X40.2005 Y39.3172
G1 X40.2005 Y56.9822
G1 X39.5355 Y56.9822
G1 X36.9959 Y59.5228 F400
G1 X36.9949 Y36.7766 F400
G1 X42.7411 Y36.7766
G1 X42.7411 Y59.5228
G1 X36.9949 Y59.5228
G1 X34.4560 Y60.4502 F400
G1 X34.4568 Y35.8502 F400
G3 X34.5786 Y35.2335 I1.6116 J0
G3 X34.9289 Y34.7106 I1.4898 J0.6167
G3 X35.4517 Y34.3604 I1.1395 J1.1395
G3 X36.0685 Y34.2385 I0.6167 J1.4898
G1 X43.6675 Y34.2385
G3 X44.2868 Y34.3604 I0 J1.6116
G3 X44.8096 Y34.7106 I-0.6167 J1.4898
G3 X45.1573 Y35.2335 I-1.1395 J1.1395
G3 X45.2817 Y35.8502 I-1.4898 J0.6167
G1 X45.2817 Y60.4492
G3 X45.1573 Y61.0685 I-1.6116 J0
G3 X44.8096 Y61.5913 I-1.4898 J-0.6167
G3 X44.2868 Y61.9390 I-1.1395 J-1.1395
G3 X43.6675 Y62.0634 I-0.6167 J-1.4898
G1 X36.0685 Y62.0634
G3 X35.4517 Y61.9390 I0 J-1.6116
G3 X34.9289 Y61.5913 I0.6167 J-1.4898
G3 X34.5786 Y61.0685 I1.1395 J-1.1395
G3 X34.4568 Y60.4492 I1.4898 J-0.6167
G0 Z1
G0 X39.5360 Y56.9827
G1 Z-0.1497 F200
G1 X39.5355 Y39.3172 F400
G1 X40.2005 Y39.3172
G1 X40.2005 Y56.9822
G1 X39.5355 Y56.9822
G1 X36.9959 Y59.5228 F400
G1 X36.9949 Y36.7766 F400
G1 X42.7411 Y36.7766
G1 X42.7411 Y59.5228
G1 X36.9949 Y59.5228
G1 X34.4560 Y60.4502 F400
G1 X34.4568 Y35.8502 F400
G3 X34.5786 Y35.2335 I1.6116 J0
G3 X34.9289 Y34.7106 I1.4898 J0.6167
G3 X35.4517 Y34.3604 I1.1395 J1.1395
G3 X36.0685 Y34.2385 I0.6167 J1.4898
G1 X43.6675 Y34.2385
G3 X44.2868 Y34.3604 I0 J1.6116
G3 X44.8096 Y34.7106 I-0.6167 J1.4898
G3 X45.1573 Y35.2335 I-1.1395 J1.1395
G3 X45.2817 Y35.8502 I-1.4898 J0.6167
G1 X45.2817 Y60.4492
G3 X45.1573 Y61.0685 I-1.6116 J0
G3 X44.8096 Y61.5913 I-1.4898 J-0.6167
G3 X44.2868 Y61.9390 I-1.1395 J-1.1395
G3 X43.6675 Y62.0634 I-0.6167 J-1.4898
G1 X36.0685 Y62.0634
G3 X35.4517 Y61.9390 I0 J-1.6116
G3 X34.9289 Y61.5913 I0.6167 J-1.4898
G3 X34.5786 Y61.0685 I1.1395 J-1.1395
G3 X34.4568 Y60.4492 I1.4898 J-0.6167
G0 Z1
G0 X39.5360 Y56.9827
G1 Z-0.2248 F200
G1 X39.5355 Y39.3172 F400
G1 X40.2005 Y39.3172
G1 X40.2005 Y56.9822
G1 X39.5355 Y56.9822
G1 X36.9959 Y59.5228 F400
G1 X36.9949 Y36.7766 F400
G1 X42.7411 Y36.7766
G1 X42.7411 Y59.5228
G1 X36.9949 Y59.5228
G1 X34.4560 Y60.4502 F400
G1 X34.4568 Y35.8502 F400
G3 X34.5786 Y35.2335 I1.6116 J0
G3 X34.9289 Y34.7106 I1.4898 J0.6167
G3 X35.4517 Y34.3604 I1.1395 J1.1395
G3 X36.0685 Y34.2385 I0.6167 J1.4898
G1 X43.6675 Y34.2385
G3 X44.2868 Y34.3604 I0 J1.6116
G3 X44.8096 Y34.7106 I-0.6167 J1.4898
G3 X45.1573 Y35.2335 I-1.1395 J1.1395
G3 X45.2817 Y35.8502 I-1.4898 J0.6167
G1 X45.2817 Y60.4492
G3 X45.1573 Y61.0685 I-1.6116 J0
G3 X44.8096 Y61.5913 I-1.4898 J-0.6167
G3 X44.2868 Y61.9390 I-1.1395 J-1.1395
G3 X43.6675 Y62.0634 I-0.6167 J-1.4898
G1 X36.0685 Y62.0634
G3 X35.4517 Y61.9390 I0 J-1.6116
G3 X34.9289 Y61.5913 I0.6167 J-1.4898
G3 X34.5786 Y61.0685 I1.1395 J-1.1395
G3 X34.4568 Y60.4492 I1.4898 J-0.6167
G0 Z1
G0 X39.5360 Y56.9827
G1 Z-0.2997 F200
G1 X39.5355 Y39.3172 F400
G1 X40.2005 Y39.3172
G1 X40.2005 Y56.9822
G1 X39.5355 Y56.9822
G1 X36.9959 Y59.5228 F400
G1 X36.9949 Y36.7766 F400
G1 X42.7411 Y36.7766
G1 X42.7411 Y59.5228
G1 X36.9949 Y59.5228
G1 X34.4560 Y60.4502 F400
G1 X34.4568 Y35.8502 F400
G3 X34.5786 Y35.2335 I1.6116 J0
G3 X34.9289 Y34.7106 I1.4898 J0.6167
G3 X35.4517 Y34.3604 I1.1395 J1.1395
G3 X36.0685 Y34.2385 I0.6167 J1.4898
G1 X43.6675 Y34.2385
G3 X44.2868 Y34.3604 I0 J1.6116
G3 X44.8096 Y34.7106 I-0.6167 J1.4898
G3 X45.1573 Y35.2335 I-1.1395 J1.1395
G3 X45.2817 Y35.8502 I-1.4898 J0.6167
G1 X45.2817 Y60.4492
G3 X45.1573 Y61.0685 I-1.6116 J0
G3 X44.8096 Y61.5913 I-1.4898 J-0.6167
G3 X44.2868 Y61.9390 I-1.1395 J-1.1395
G3 X43.6675 Y62.0634 I-0.6167 J-1.4898
G1 X36.0685 Y62.0634
G3 X35.4517 Y61.9390 I0 J-1.6116
G3 X34.9289 Y61.5913 I0.6167 J-1.4898
G3 X34.5786 Y61.0685 I1.1395 J-1.1395
G3 X34.4568 Y60.4492 I1.4898 J-0.6167
G0 Z1
G0 X39.5360 Y56.9827
G1 Z-0.3748 F200
G1 X39.5355 Y39.3172 F400
G1 X40.2005 Y39.3172
G1 X40.2005 Y56.9822
G1 X39.5355 Y56.9822
G1 X36.9959 Y59.5228 F400
G1 X36.9949 Y36.7766 F400
G1 X42.7411 Y36.7766
G1 X42.7411 Y59.5228
G1 X36.9949 Y59.5228
G1 X34.4560 Y60.4502 F400
G1 X34.4568 Y35.8502 F400
G3 X34.5786 Y35.2335 I1.6116 J0
G3 X34.9289 Y34.7106 I1.4898 J0.6167
G3 X35.4517 Y34.3604 I1.1395 J1.1395
G3 X36.0685 Y34.2385 I0.6167 J1.4898
G1 X43.6675 Y34.2385
G3 X44.2868 Y34.3604 I0 J1.6116
G3 X44.8096 Y34.7106 I-0.6167 J1.4898
G3 X45.1573 Y35.2335 I-1.1395 J1.1395
G3 X45.2817 Y35.8502 I-1.4898 J0.6167
G1 X45.2817 Y60.4492
G3 X45.1573 Y61.0685 I-1.6116 J0
G3 X44.8096 Y61.5913 I-1.4898 J-0.6167
G3 X44.2868 Y61.9390 I-1.1395 J-1.1395
G3 X43.6675 Y62.0634 I-0.6167 J-1.4898
G1 X36.0685 Y62.0634
G3 X35.4517 Y61.9390 I0 J-1.6116
G3 X34.9289 Y61.5913 I0.6167 J-1.4898
G3 X34.5786 Y61.0685 I1.1395 J-1.1395
G3 X34.4568 Y60.4492 I1.4898 J-0.6167
G0 Z1
G0 X39.5360 Y56.9827
G1 Z-0.45 F200
G1 X39.5355 Y39.3172 F400
G1 X40.2005 Y39.3172
G1 X40.2005 Y56.9822
G1 X39.5355 Y56.9822
G1 X36.9959 Y59.5228 F400
G1 X36.9949 Y36.7766 F400
G1 X42.7411 Y36.7766
G1 X42.7411 Y59.5228
G1 X36.9949 Y59.5228
G1 X34.4560 Y60.4502 F400
G1 X34.4568 Y35.8502 F400
G3 X34.5786 Y35.2335 I1.6116 J0
G3 X34.9289 Y34.7106 I1.4898 J0.6167
G3 X35.4517 Y34.3604 I1.1395 J1.1395
G3 X36.0685 Y34.2385 I0.6167 J1.4898
G1 X43.6675 Y34.2385
G3 X44.2868 Y34.3604 I0 J1.6116
G3 X44.8096 Y34.7106 I-0.6167 J1.4898
G3 X45.1573 Y35.2335 I-1.1395 J1.1395
G3 X45.2817 Y35.8502 I-1.4898 J0.6167
G1 X45.2817 Y60.4492
G3 X45.1573 Y61.0685 I-1.6116 J0
G3 X44.8096 Y61.5913 I-1.4898 J-0.6167
G3 X44.2868 Y61.9390 I-1.1395 J-1.1395
G3 X43.6675 Y62.0634 I-0.6167 J-1.4898
G1 X36.0685 Y62.0634
G3 X35.4517 Y61.9390 I0 J-1.6116
G3 X34.9289 Y61.5913 I0.6167 J-1.4898
G3 X34.5786 Y61.0685 I1.1395 J-1.1395
G3 X34.4568 Y60.4492 I1.4898 J-0.6167
G0 Z1
G0 X39.5360 Y56.9827
G1 Z-0.5248 F200
G1 X39.5355 Y39.3172 F400
G1 X40.2005 Y39.3172
G1 X40.2005 Y56.9822
G1 X39.5355 Y56.9822
G1 X36.9959 Y59.5228 F400
G1 X36.9949 Y36.7766 F400
G1 X42.7411 Y36.7766
G1 X42.7411 Y59.5228
G1 X36.9949 Y59.5228
G1 X34.4560 Y60.4502 F400
G1 X34.4568 Y35.8502 F400
G3 X34.5786 Y35.2335 I1.6116 J0
G3 X34.9289 Y34.7106 I1.4898 J0.6167
G3 X35.4517 Y34.3604 I1.1395 J1.1395
G3 X36.0685 Y34.2385 I0.6167 J1.4898
G1 X43.6675 Y34.2385
G3 X44.2868 Y34.3604 I0 J1.6116
G3 X44.8096 Y34.7106 I-0.6167 J1.4898
G3 X45.1573 Y35.2335 I-1.1395 J1.1395
G3 X45.2817 Y35.8502 I-1.4898 J0.6167
G1 X45.2817 Y60.4492
G3 X45.1573 Y61.0685 I-1.6116 J0
G3 X44.8096 Y61.5913 I-1.4898 J-0.6167
G3 X44.2868 Y61.9390 I-1.1395 J-1.1395
G3 X43.6675 Y62.0634 I-0.6167 J-1.4898
G1 X36.0685 Y62.0634
G3 X35.4517 Y61.9390 I0 J-1.6116
G3 X34.9289 Y61.5913 I0.6167 J-1.4898
G3 X34.5786 Y61.0685 I1.1395 J-1.1395
G3 X34.4568 Y60.4492 I1.4898 J-0.6167
G0 Z1
G0 X39.5360 Y56.9827
G1 Z-0.5997 F200
G1 X39.5355 Y39.3172 F400
G1 X40.2005 Y39.3172
G1 X40.2005 Y56.9822
G1 X39.5355 Y56.9822
G1 X36.9959 Y59.5228 F400
G1 X36.9949 Y36.7766 F400
G1 X42.7411 Y36.7766
G1 X42.7411 Y59.5228
G1 X36.9949 Y59.5228
G1 X34.4560 Y60.4502 F400
G1 X34.4568 Y35.8502 F400
G3 X34.5786 Y35.2335 I1.6116 J0
G3 X34.9289 Y34.7106 I1.4898 J0.6167
G3 X35.4517 Y34.3604 I1.1395 J1.1395
G3 X36.0685 Y34.2385 I0.6167 J1.4898
G1 X43.6675 Y34.2385
G3 X44.2868 Y34.3604 I0 J1.6116
G3 X44.8096 Y34.7106 I-0.6167 J1.4898
G3 X45.1573 Y35.2335 I-1.1395 J1.1395
G3 X45.2817 Y35.8502 I-1.4898 J0.6167
G1 X45.2817 Y60.4492
G3 X45.1573 Y61.0685 I-1.6116 J0
G3 X44.8096 Y61.5913 I-1.4898 J-0.6167
G3 X44.2868 Y61.9390 I-1.1395 J-1.1395
G3 X43.6675 Y62.0634 I-0.6167 J-1.4898
G1 X36.0685 Y62.0634
G3 X35.4517 Y61.9390 I0 J-1.6116
G3 X34.9289 Y61.5913 I0.6167 J-1.4898
G3 X34.5786 Y61.0685 I1.1395 J-1.1395
G3 X34.4568 Y60.4492 I1.4898 J-0.6167
G0 Z1
G0 X39.5360 Y56.9827
G1 Z-0.6746 F200
G1 X39.5355 Y39.3172 F400
G1 X40.2005 Y39.3172
G1 X40.2005 Y56.9822
G1 X39.5355 Y56.9822
G1 X36.9959 Y59.5228 F400
G1 X36.9949 Y36.7766 F400
G1 X42.7411 Y36.7766
G1 X42.7411 Y59.5228
G1 X36.9949 Y59.5228
G1 X34.4560 Y60.4502 F400
G1 X34.4568 Y35.8502 F400
G3 X34.5786 Y35.2335 I1.6116 J0
G3 X34.9289 Y34.7106 I1.4898 J0.6167
G3 X35.4517 Y34.3604 I1.1395 J1.1395
G3 X36.0685 Y34.2385 I0.6167 J1.4898
G1 X43.6675 Y34.2385
G3 X44.2868 Y34.3604 I0 J1.6116
G3 X44.8096 Y34.7106 I-0.6167 J1.4898
G3 X45.1573 Y35.2335 I-1.1395 J1.1395
G3 X45.2817 Y35.8502 I-1.4898 J0.6167
G1 X45.2817 Y60.4492
G3 X45.1573 Y61.0685 I-1.6116 J0
G3 X44.8096 Y61.5913 I-1.4898 J-0.6167
G3 X44.2868 Y61.9390 I-1.1395 J-1.1395
G3 X43.6675 Y62.0634 I-0.6167 J-1.4898
G1 X36.0685 Y62.0634
G3 X35.4517 Y61.9390 I0 J-1.6116
G3 X34.9289 Y61.5913 I0.6167 J-1.4898
G3 X34.5786 Y61.0685 I1.1395 J-1.1395
G3 X34.4568 Y60.4492 I1.4898 J-0.6167
G0 Z1
G0 X39.5360 Y56.9827
G1 Z-0.7494 F200
G1 X39.5355 Y39.3172 F400
G1 X40.2005 Y39.3172
G1 X40.2005 Y56.9822
G1 X39.5355 Y56.9822
G1 X36.9959 Y59.5228 F400
G1 X36.9949 Y36.7766 F400
G1 X42.7411 Y36.7766
G1 X42.7411 Y59.5228
G1 X36.9949 Y59.5228
G1 X34.4560 Y60.4502 F400
G1 X34.4568 Y35.8502 F400
G3 X34.5786 Y35.2335 I1.6116 J0
G3 X34.9289 Y34.7106 I1.4898 J0.6167
G3 X35.4517 Y34.3604 I1.1395 J1.1395
G3 X36.0685 Y34.2385 I0.6167 J1.4898
G1 X43.6675 Y34.2385
G3 X44.2868 Y34.3604 I0 J1.6116
G3 X44.8096 Y34.7106 I-0.6167 J1.4898
G3 X45.1573 Y35.2335 I-1.1395 J1.1395
G3 X45.2817 Y35.8502 I-1.4898 J0.6167
G1 X45.2817 Y60.4492
G3 X45.1573 Y61.0685 I-1.6116 J0
G3 X44.8096 Y61.5913 I-1.4898 J-0.6167
G3 X44.2868 Y61.9390 I-1.1395 J-1.1395
G3 X43.6675 Y62.0634 I-0.6167 J-1.4898
G1 X36.0685 Y62.0634
G3 X35.4517 Y61.9390 I0 J-1.6116
G3 X34.9289 Y61.5913 I0.6167 J-1.4898
G3 X34.5786 Y61.0685 I1.1395 J-1.1395
G3 X34.4568 Y60.4492 I1.4898 J-0.6167
G0 Z1
G0 X39.5360 Y56.9827
G1 Z-0.8243 F200
G1 X39.5355 Y39.3172 F400
G1 X40.2005 Y39.3172
G1 X40.2005 Y56.9822
G1 X39.5355 Y56.9822
G1 X36.9959 Y59.5228 F400
G1 X36.9949 Y36.7766 F400
G1 X42.7411 Y36.7766
G1 X42.7411 Y59.5228
G1 X36.9949 Y59.5228
G1 X34.4560 Y60.4502 F400
G1 X34.4568 Y35.8502 F400
G3 X34.5786 Y35.2335 I1.6116 J0
G3 X34.9289 Y34.7106 I1.4898 J0.6167
G3 X35.4517 Y34.3604 I1.1395 J1.1395
G3 X36.0685 Y34.2385 I0.6167 J1.4898
G1 X43.6675 Y34.2385
G3 X44.2868 Y34.3604 I0 J1.6116
G3 X44.8096 Y34.7106 I-0.6167 J1.4898
G3 X45.1573 Y35.2335 I-1.1395 J1.1395
G3 X45.2817 Y35.8502 I-1.4898 J0.6167
G1 X45.2817 Y60.4492
G3 X45.1573 Y61.0685 I-1.6116 J0
G3 X44.8096 Y61.5913 I-1.4898 J-0.6167
G3 X44.2868 Y61.9390 I-1.1395 J-1.1395
G3 X43.6675 Y62.0634 I-0.6167 J-1.4898
G1 X36.0685 Y62.0634
G3 X35.4517 Y61.9390 I0 J-1.6116
G3 X34.9289 Y61.5913 I0.6167 J-1.4898
G3 X34.5786 Y61.0685 I1.1395 J-1.1395
G3 X34.4568 Y60.4492 I1.4898 J-0.6167
G0 Z1
G0 X39.5360 Y56.9827
G1 Z-0.8992 F200
G1 X39.5355 Y39.3172 F400
G1 X40.2005 Y39.3172
G1 X40.2005 Y56.9822
G1 X39.5355 Y56.9822
G1 X36.9959 Y59.5228 F400
G1 X36.9949 Y36.7766 F400
G1 X42.7411 Y36.7766
G1 X42.7411 Y59.5228
G1 X36.9949 Y59.5228
G1 X34.4560 Y60.4502 F400
G1 X34.4568 Y35.8502 F400
G3 X34.5786 Y35.2335 I1.6116 J0
G3 X34.9289 Y34.7106 I1.4898 J0.6167
G3 X35.4517 Y34.3604 I1.1395 J1.1395
G3 X36.0685 Y34.2385 I0.6167 J1.4898
G1 X43.6675 Y34.2385
G3 X44.2868 Y34.3604 I0 J1.6116
G3 X44.8096 Y34.7106 I-0.6167 J1.4898
G3 X45.1573 Y35.2335 I-1.1395 J1.1395
G3 X45.2817 Y35.8502 I-1.4898 J0.6167
G1 X45.2817 Y60.4492
G3 X45.1573 Y61.0685 I-1.6116 J0
G3 X44.8096 Y61.5913 I-1.4898 J-0.6167
G3 X44.2868 Y61.9390 I-1.1395 J-1.1395
G3 X43.6675 Y62.0634 I-0.6167 J-1.4898
G1 X36.0685 Y62.0634
G3 X35.4517 Y61.9390 I0 J-1.6116
G3 X34.9289 Y61.5913 I0.6167 J-1.4898
G3 X34.5786 Y61.0685 I1.1395 J-1.1395
G3 X34.4568 Y60.4492 I1.4898 J-0.6167
G0 Z1
G0 X39.5360 Y56.9827
G1 Z-0.9741 F200
G1 X39.5355 Y39.3172 F400
G1 X40.2005 Y39.3172
G1 X40.2005 Y56.9822
G1 X39.5355 Y56.9822
G1 X36.9959 Y59.5228 F400
G1 X36.9949 Y36.7766 F400
G1 X42.7411 Y36.7766
G1 X42.7411 Y59.5228
G1 X36.9949 Y59.5228
G1 X34.4560 Y60.4502 F400
G1 X34.4568 Y35.8502 F400
G3 X34.5786 Y35.2335 I1.6116 J0
G3 X34.9289 Y34.7106 I1.4898 J0.6167
G3 X35.4517 Y34.3604 I1.1395 J1.1395
G3 X36.0685 Y34.2385 I0.6167 J1.4898
G1 X43.6675 Y34.2385
G3 X44.2868 Y34.3604 I0 J1.6116
G3 X44.8096 Y34.7106 I-0.6167 J1.4898
G3 X45.1573 Y35.2335 I-1.1395 J1.1395
G3 X45.2817 Y35.8502 I-1.4898 J0.6167
G1 X45.2817 Y60.4492
G3 X45.1573 Y61.0685 I-1.6116 J0
G3 X44.8096 Y61.5913 I-1.4898 J-0.6167
G3 X44.2868 Y61.9390 I-1.1395 J-1.1395
G3 X43.6675 Y62.0634 I-0.6167 J-1.4898
G1 X36.0685 Y62.0634
G3 X35.4517 Y61.9390 I0 J-1.6116
G3 X34.9289 Y61.5913 I0.6167 J-1.4898
G3 X34.5786 Y61.0685 I1.1395 J-1.1395
G3 X34.4568 Y60.4492 I1.4898 J-0.6167
G0 Z1
G0 X39.5360 Y56.9827
G1 Z-1.0489 F200
G1 X39.5355 Y39.3172 F400
G1 X40.2005 Y39.3172
G1 X40.2005 Y56.9822
G1 X39.5355 Y56.9822
G1 X36.9959 Y59.5228 F400
G1 X36.9949 Y36.7766 F400
G1 X42.7411 Y36.7766
G1 X42.7411 Y59.5228
G1 X36.9949 Y59.5228
G1 X34.4560 Y60.4502 F400
G1 X34.4568 Y35.8502 F400
G3 X34.5786 Y35.2335 I1.6116 J0
G3 X34.9289 Y34.7106 I1.4898 J0.6167
G3 X35.4517 Y34.3604 I1.1395 J1.1395
G3 X36.0685 Y34.2385 I0.6167 J1.4898
G1 X43.6675 Y34.2385
G3 X44.2868 Y34.3604 I0 J1.6116
G3 X44.8096 Y34.7106 I-0.6167 J1.4898
G3 X45.1573 Y35.2335 I-1.1395 J1.1395
G3 X45.2817 Y35.8502 I-1.4898 J0.6167
G1 X45.2817 Y60.4492
G3 X45.1573 Y61.0685 I-1.6116 J0
G3 X44.8096 Y61.5913 I-1.4898 J-0.6167
G3 X44.2868 Y61.9390 I-1.1395 J-1.1395
G3 X43.6675 Y62.0634 I-0.6167 J-1.4898
G1 X36.0685 Y62.0634
G3 X35.4517 Y61.9390 I0 J-1.6116
G3 X34.9289 Y61.5913 I0.6167 J-1.4898
G3 X34.5786 Y61.0685 I1.1395 J-1.1395
G3 X34.4568 Y60.4492 I1.4898 J-0.6167
G0 Z1
G0 X39.5360 Y56.9827
G1 Z-1.1238 F200
G1 X39.5355 Y39.3172 F400
G1 X40.2005 Y39.3172
G1 X40.2005 Y56.9822
G1 X39.5355 Y56.9822
G1 X36.9959 Y59.5228 F400
G1 X36.9949 Y36.7766 F400
G1 X42.7411 Y36.7766
G1 X42.7411 Y59.5228
G1 X36.9949 Y59.5228
G1 X34.4560 Y60.4502 F400
G1 X34.4568 Y35.8502 F400
G3 X34.5786 Y35.2335 I1.6116 J0
G3 X34.9289 Y34.7106 I1.4898 J0.6167
G3 X35.4517 Y34.3604 I1.1395 J1.1395
G3 X36.0685 Y34.2385 I0.6167 J1.4898
G1 X43.6675 Y34.2385
G3 X44.2868 Y34.3604 I0 J1.6116
G3 X44.8096 Y34.7106 I-0.6167 J1.4898
G3 X45.1573 Y35.2335 I-1.1395 J1.1395
G3 X45.2817 Y35.8502 I-1.4898 J0.6167
G1 X45.2817 Y60.4492
G3 X45.1573 Y61.0685 I-1.6116 J0
G3 X44.8096 Y61.5913 I-1.4898 J-0.6167
G3 X44.2868 Y61.9390 I-1.1395 J-1.1395
G3 X43.6675 Y62.0634 I-0.6167 J-1.4898
G1 X36.0685 Y62.0634
G3 X35.4517 Y61.9390 I0 J-1.6116
G3 X34.9289 Y61.5913 I0.6167 J-1.4898
G3 X34.5786 Y61.0685 I1.1395 J-1.1395
G3 X34.4568 Y60.4492 I1.4898 J-0.6167
G0 Z1
G0 X39.5360 Y56.9827
G1 Z-1.1987 F200
G1 X39.5355 Y39.3172 F400
G1 X40.2005 Y39.3172
G1 X40.2005 Y56.9822
G1 X39.5355 Y56.9822
G1 X36.9959 Y59.5228 F400
G1 X36.9949 Y36.7766 F400
G1 X42.7411 Y36.7766
G1 X42.7411 Y59.5228
G1 X36.9949 Y59.5228
G1 X34.4560 Y60.4502 F400
G1 X34.4568 Y35.8502 F400
G3 X34.5786 Y35.2335 I1.6116 J0
G3 X34.9289 Y34.7106 I1.4898 J0.6167
G3 X35.4517 Y34.3604 I1.1395 J1.1395
G3 X36.0685 Y34.2385 I0.6167 J1.4898
G1 X43.6675 Y34.2385
G3 X44.2868 Y34.3604 I0 J1.6116
G3 X44.8096 Y34.7106 I-0.6167 J1.4898
G3 X45.1573 Y35.2335 I-1.1395 J1.1395
G3 X45.2817 Y35.8502 I-1.4898 J0.6167
G1 X45.2817 Y60.4492
G3 X45.1573 Y61.0685 I-1.6116 J0
G3 X44.8096 Y61.5913 I-1.4898 J-0.6167
G3 X44.2868 Y61.9390 I-1.1395 J-1.1395
G3 X43.6675 Y62.0634 I-0.6167 J-1.4898
G1 X36.0685 Y62.0634
G3 X35.4517 Y61.9390 I0 J-1.6116
G3 X34.9289 Y61.5913 I0.6167 J-1.4898
G3 X34.5786 Y61.0685 I1.1395 J-1.1395
G3 X34.4568 Y60.4492 I1.4898 J-0.6167
G0 Z1
G0 X39.5360 Y56.9827
G1 Z-1.2736 F200
G1 X39.5355 Y39.3172 F400
G1 X40.2005 Y39.3172
G1 X40.2005 Y56.9822
G1 X39.5355 Y56.9822
G1 X36.9959 Y59.5228 F400
G1 X36.9949 Y36.7766 F400
G1 X42.7411 Y36.7766
G1 X42.7411 Y59.5228
G1 X36.9949 Y59.5228
G1 X34.4560 Y60.4502 F400
G1 X34.4568 Y35.8502 F400
G3 X34.5786 Y35.2335 I1.6116 J0
G3 X34.9289 Y34.7106 I1.4898 J0.6167
G3 X35.4517 Y34.3604 I1.1395 J1.1395
G3 X36.0685 Y34.2385 I0.6167 J1.4898
G1 X43.6675 Y34.2385
G3 X44.2868 Y34.3604 I0 J1.6116
G3 X44.8096 Y34.7106 I-0.6167 J1.4898
G3 X45.1573 Y35.2335 I-1.1395 J1.1395
G3 X45.2817 Y35.8502 I-1.4898 J0.6167
G1 X45.2817 Y60.4492
G3 X45.1573 Y61.0685 I-1.6116 J0
G3 X44.8096 Y61.5913 I-1.4898 J-0.6167
G3 X44.2868 Y61.9390 I-1.1395 J-1.1395
G3 X43.6675 Y62.0634 I-0.6167 J-1.4898
G1 X36.0685 Y62.0634
G3 X35.4517 Y61.9390 I0 J-1.6116
G3 X34.9289 Y61.5913 I0.6167 J-1.4898
G3 X34.5786 Y61.0685 I1.1395 J-1.1395
G3 X34.4568 Y60.4492 I1.4898 J-0.6167
G0 Z1
G0 X39.5360 Y56.9827
G1 Z-1.3484 F200
G1 X39.5355 Y39.3172 F400
G1 X40.2005 Y39.3172
G1 X40.2005 Y56.9822
G1 X39.5355 Y56.9822
G1 X36.9959 Y59.5228 F400
G1 X36.9949 Y36.7766 F400
G1 X42.7411 Y36.7766
G1 X42.7411 Y59.5228
G1 X36.9949 Y59.5228
G1 X34.4560 Y60.4502 F400
G1 X34.4568 Y35.8502 F400
G3 X34.5786 Y35.2335 I1.6116 J0
G3 X34.9289 Y34.7106 I1.4898 J0.6167
G3 X35.4517 Y34.3604 I1.1395 J1.1395
G3 X36.0685 Y34.2385 I0.6167 J1.4898
G1 X43.6675 Y34.2385
G3 X44.2868 Y34.3604 I0 J1.6116
G3 X44.8096 Y34.7106 I-0.6167 J1.4898
G3 X45.1573 Y35.2335 I-1.1395 J1.1395
G3 X45.2817 Y35.8502 I-1.4898 J0.6167
G1 X45.2817 Y60.4492
G3 X45.1573 Y61.0685 I-1.6116 J0
G3 X44.8096 Y61.5913 I-1.4898 J-0.6167
G3 X44.2868 Y61.9390 I-1.1395 J-1.1395
G3 X43.6675 Y62.0634 I-0.6167 J-1.4898
G1 X36.0685 Y62.0634
G3 X35.4517 Y61.9390 I0 J-1.6116
G3 X34.9289 Y61.5913 I0.6167 J-1.4898
G3 X34.5786 Y61.0685 I1.1395 J-1.1395
G3 X34.4568 Y60.4492 I1.4898 J-0.6167
G0 Z1
G0 X39.5360 Y56.9827
G1 Z-1.4233 F200
G1 X39.5355 Y39.3172 F400
G1 X40.2005 Y39.3172
G1 X40.2005 Y56.9822
G1 X39.5355 Y56.9822
G1 X36.9959 Y59.5228 F400
G1 X36.9949 Y36.7766 F400
G1 X42.7411 Y36.7766
G1 X42.7411 Y59.5228
G1 X36.9949 Y59.5228
G1 X34.4560 Y60.4502 F400
G1 X34.4568 Y35.8502 F400
G3 X34.5786 Y35.2335 I1.6116 J0
G3 X34.9289 Y34.7106 I1.4898 J0.6167
G3 X35.4517 Y34.3604 I1.1395 J1.1395
G3 X36.0685 Y34.2385 I0.6167 J1.4898
G1 X43.6675 Y34.2385
G3 X44.2868 Y34.3604 I0 J1.6116
G3 X44.8096 Y34.7106 I-0.6167 J1.4898
G3 X45.1573 Y35.2335 I-1.1395 J1.1395
G3 X45.2817 Y35.8502 I-1.4898 J0.6167
G1 X45.2817 Y60.4492
G3 X45.1573 Y61.0685 I-1.6116 J0
G3 X44.8096 Y61.5913 I-1.4898 J-0.6167
G3 X44.2868 Y61.9390 I-1.1395 J-1.1395
G3 X43.6675 Y62.0634 I-0.6167 J-1.4898
G1 X36.0685 Y62.0634
G3 X35.4517 Y61.9390 I0 J-1.6116
G3 X34.9289 Y61.5913 I0.6167 J-1.4898
G3 X34.5786 Y61.0685 I1.1395 J-1.1395
G3 X34.4568 Y60.4492 I1.4898 J-0.6167
G0 Z1
G0 X39.5360 Y56.9827
G1 Z-1.4982 F200
G1 X39.5355 Y39.3172 F400
G1 X40.2005 Y39.3172
G1 X40.2005 Y56.9822
G1 X39.5355 Y56.9822
G1 X36.9959 Y59.5228 F400
G1 X36.9949 Y36.7766 F400
G1 X42.7411 Y36.7766
G1 X42.7411 Y59.5228
G1 X36.9949 Y59.5228
G1 X34.4560 Y60.4502 F400
G1 X34.4568 Y35.8502 F400
G3 X34.5786 Y35.2335 I1.6116 J0
G3 X34.9289 Y34.7106 I1.4898 J0.6167
G3 X35.4517 Y34.3604 I1.1395 J1.1395
G3 X36.0685 Y34.2385 I0.6167 J1.4898
G1 X43.6675 Y34.2385
G3 X44.2868 Y34.3604 I0 J1.6116
G3 X44.8096 Y34.7106 I-0.6167 J1.4898
G3 X45.1573 Y35.2335 I-1.1395 J1.1395
G3 X45.2817 Y35.8502 I-1.4898 J0.6167
G1 X45.2817 Y60.4492
G3 X45.1573 Y61.0685 I-1.6116 J0
G3 X44.8096 Y61.5913 I-1.4898 J-0.6167
G3 X44.2868 Y61.9390 I-1.1395 J-1.1395
G3 X43.6675 Y62.0634 I-0.6167 J-1.4898
G1 X36.0685 Y62.0634
G3 X35.4517 Y61.9390 I0 J-1.6116
G3 X34.9289 Y61.5913 I0.6167 J-1.4898
G3 X34.5786 Y61.0685 I1.1395 J-1.1395
G3 X34.4568 Y60.4492 I1.4898 J-0.6167
G0 Z1
G0 X39.5360 Y56.9827
G1 Z-1.5730 F200
G1 X39.5355 Y39.3172 F400
G1 X40.2005 Y39.3172
G1 X40.2005 Y56.9822
G1 X39.5355 Y56.9822
G1 X36.9959 Y59.5228 F400
G1 X36.9949 Y36.7766 F400
G1 X42.7411 Y36.7766
G1 X42.7411 Y59.5228
G1 X36.9949 Y59.5228
G1 X34.4560 Y60.4502 F400
G1 X34.4568 Y35.8502 F400
G3 X34.5786 Y35.2335 I1.6116 J0
G3 X34.9289 Y34.7106 I1.4898 J0.6167
G3 X35.4517 Y34.3604 I1.1395 J1.1395
G3 X36.0685 Y34.2385 I0.6167 J1.4898
G1 X43.6675 Y34.2385
G3 X44.2868 Y34.3604 I0 J1.6116
G3 X44.8096 Y34.7106 I-0.6167 J1.4898
G3 X45.1573 Y35.2335 I-1.1395 J1.1395
G3 X45.2817 Y35.8502 I-1.4898 J0.6167
G1 X45.2817 Y60.4492
G3 X45.1573 Y61.0685 I-1.6116 J0
G3 X44.8096 Y61.5913 I-1.4898 J-0.6167
G3 X44.2868 Y61.9390 I-1.1395 J-1.1395
G3 X43.6675 Y62.0634 I-0.6167 J-1.4898
G1 X36.0685 Y62.0634
G3 X35.4517 Y61.9390 I0 J-1.6116
G3 X34.9289 Y61.5913 I0.6167 J-1.4898
G3 X34.5786 Y61.0685 I1.1395 J-1.1395
G3 X34.4568 Y60.4492 I1.4898 J-0.6167
G0 Z1
G0 X39.5360 Y56.9827
G1 Z-1.6479 F200
G1 X39.5355 Y39.3172 F400
G1 X40.2005 Y39.3172
G1 X40.2005 Y56.9822
G1 X39.5355 Y56.9822
G1 X36.9959 Y59.5228 F400
G1 X36.9949 Y36.7766 F400
G1 X42.7411 Y36.7766
G1 X42.7411 Y59.5228
G1 X36.9949 Y59.5228
G1 X34.4560 Y60.4502 F400
G1 X34.4568 Y35.8502 F400
G3 X34.5786 Y35.2335 I1.6116 J0
G3 X34.9289 Y34.7106 I1.4898 J0.6167
G3 X35.4517 Y34.3604 I1.1395 J1.1395
G3 X36.0685 Y34.2385 I0.6167 J1.4898
G1 X43.6675 Y34.2385
G3 X44.2868 Y34.3604 I0 J1.6116
G3 X44.8096 Y34.7106 I-0.6167 J1.4898
G3 X45.1573 Y35.2335 I-1.1395 J1.1395
G3 X45.2817 Y35.8502 I-1.4898 J0.6167
G1 X45.2817 Y60.4492
G3 X45.1573 Y61.0685 I-1.6116 J0
G3 X44.8096 Y61.5913 I-1.4898 J-0.6167
G3 X44.2868 Y61.9390 I-1.1395 J-1.1395
G3 X43.6675 Y62.0634 I-0.6167 J-1.4898
G1 X36.0685 Y62.0634
G3 X35.4517 Y61.9390 I0 J-1.6116
G3 X34.9289 Y61.5913 I0.6167 J-1.4898
G3 X34.5786 Y61.0685 I1.1395 J-1.1395
G3 X34.4568 Y60.4492 I1.4898 J-0.6167
G0 Z1
G0 X39.5360 Y56.9827
G1 Z-1.7228 F200
G1 X39.5355 Y39.3172 F400
G1 X40.2005 Y39.3172
G1 X40.2005 Y56.9822
G1 X39.5355 Y56.9822
G1 X36.9959 Y59.5228 F400
G1 X36.9949 Y36.7766 F400
G1 X42.7411 Y36.7766
G1 X42.7411 Y59.5228
G1 X36.9949 Y59.5228
G1 X34.4560 Y60.4502 F400
G1 X34.4568 Y35.8502 F400
G3 X34.5786 Y35.2335 I1.6116 J0
G3 X34.9289 Y34.7106 I1.4898 J0.6167
G3 X35.4517 Y34.3604 I1.1395 J1.1395
G3 X36.0685 Y34.2385 I0.6167 J1.4898
G1 X43.6675 Y34.2385
G3 X44.2868 Y34.3604 I0 J1.6116
G3 X44.8096 Y34.7106 I-0.6167 J1.4898
G3 X45.1573 Y35.2335 I-1.1395 J1.1395
G3 X45.2817 Y35.8502 I-1.4898 J0.6167
G1 X45.2817 Y60.4492
G3 X45.1573 Y61.0685 I-1.6116 J0
G3 X44.8096 Y61.5913 I-1.4898 J-0.6167
G3 X44.2868 Y61.9390 I-1.1395 J-1.1395
G3 X43.6675 Y62.0634 I-0.6167 J-1.4898
G1 X36.0685 Y62.0634
G3 X35.4517 Y61.9390 I0 J-1.6116
G3 X34.9289 Y61.5913 I0.6167 J-1.4898
G3 X34.5786 Y61.0685 I1.1395 J-1.1395
G3 X34.4568 Y60.4492 I1.4898 J-0.6167
G0 Z1
G0 X39.5360 Y56.9827
G1 Z-1.7977 F200
G1 X39.5355 Y39.3172 F400
G1 X40.2005 Y39.3172
G1 X40.2005 Y56.9822
G1 X39.5355 Y56.9822
G1 X36.9959 Y59.5228 F400
G1 X36.9949 Y36.7766 F400
G1 X42.7411 Y36.7766
G1 X42.7411 Y59.5228
G1 X36.9949 Y59.5228
G1 X34.4560 Y60.4502 F400
G1 X34.4568 Y35.8502 F400
G3 X34.5786 Y35.2335 I1.6116 J0
G3 X34.9289 Y34.7106 I1.4898 J0.6167
G3 X35.4517 Y34.3604 I1.1395 J1.1395
G3 X36.0685 Y34.2385 I0.6167 J1.4898
G1 X43.6675 Y34.2385
G3 X44.2868 Y34.3604 I0 J1.6116
G3 X44.8096 Y34.7106 I-0.6167 J1.4898
G3 X45.1573 Y35.2335 I-1.1395 J1.1395
G3 X45.2817 Y35.8502 I-1.4898 J0.6167
G1 X45.2817 Y60.4492
G3 X45.1573 Y61.0685 I-1.6116 J0
G3 X44.8096 Y61.5913 I-1.4898 J-0.6167
G3 X44.2868 Y61.9390 I-1.1395 J-1.1395
G3 X43.6675 Y62.0634 I-0.6167 J-1.4898
G1 X36.0685 Y62.0634
G3 X35.4517 Y61.9390 I0 J-1.6116
G3 X34.9289 Y61.5913 I0.6167 J-1.4898
G3 X34.5786 Y61.0685 I1.1395 J-1.1395
G3 X34.4568 Y60.4492 I1.4898 J-0.6167
G0 Z1
G0 X39.5360 Y56.9827
G1 Z-1.8725 F200
G1 X39.5355 Y39.3172 F400
G1 X40.2005 Y39.3172
G1 X40.2005 Y56.9822
G1 X39.5355 Y56.9822
G1 X36.9959 Y59.5228 F400
G1 X36.9949 Y36.7766 F400
G1 X42.7411 Y36.7766
G1 X42.7411 Y59.5228
G1 X36.9949 Y59.5228
G1 X34.4560 Y60.4502 F400
G1 X34.4568 Y35.8502 F400
G3 X34.5786 Y35.2335 I1.6116 J0
G3 X34.9289 Y34.7106 I1.4898 J0.6167
G3 X35.4517 Y34.3604 I1.1395 J1.1395
G3 X36.0685 Y34.2385 I0.6167 J1.4898
G1 X43.6675 Y34.2385
G3 X44.2868 Y34.3604 I0 J1.6116
G3 X44.8096 Y34.7106 I-0.6167 J1.4898
G3 X45.1573 Y35.2335 I-1.1395 J1.1395
G3 X45.2817 Y35.8502 I-1.4898 J0.6167
G1 X45.2817 Y60.4492
G3 X45.1573 Y61.0685 I-1.6116 J0
G3 X44.8096 Y61.5913 I-1.4898 J-0.6167
G3 X44.2868 Y61.9390 I-1.1395 J-1.1395
G3 X43.6675 Y62.0634 I-0.6167 J-1.4898
G1 X36.0685 Y62.0634
G3 X35.4517 Y61.9390 I0 J-1.6116
G3 X34.9289 Y61.5913 I0.6167 J-1.4898
G3 X34.5786 Y61.0685 I1.1395 J-1.1395
G3 X34.4568 Y60.4492 I1.4898 J-0.6167
G0 Z1
G0 X39.5360 Y56.9827
G1 Z-1.9474 F200
G1 X39.5355 Y39.3172 F400
G1 X40.2005 Y39.3172
G1 X40.2005 Y56.9822
G1 X39.5355 Y56.9822
G1 X36.9959 Y59.5228 F400
G1 X36.9949 Y36.7766 F400
G1 X42.7411 Y36.7766
G1 X42.7411 Y59.5228
G1 X36.9949 Y59.5228
G1 X34.4560 Y60.4502 F400
G1 X34.4568 Y35.8502 F400
G3 X34.5786 Y35.2335 I1.6116 J0
G3 X34.9289 Y34.7106 I1.4898 J0.6167
G3 X35.4517 Y34.3604 I1.1395 J1.1395
G3 X36.0685 Y34.2385 I0.6167 J1.4898
G1 X43.6675 Y34.2385
G3 X44.2868 Y34.3604 I0 J1.6116
G3 X44.8096 Y34.7106 I-0.6167 J1.4898
G3 X45.1573 Y35.2335 I-1.1395 J1.1395
G3 X45.2817 Y35.8502 I-1.4898 J0.6167
G1 X45.2817 Y60.4492
G3 X45.1573 Y61.0685 I-1.6116 J0
G3 X44.8096 Y61.5913 I-1.4898 J-0.6167
G3 X44.2868 Y61.9390 I-1.1395 J-1.1395
G3 X43.6675 Y62.0634 I-0.6167 J-1.4898
G1 X36.0685 Y62.0634
G3 X35.4517 Y61.9390 I0 J-1.6116
G3 X34.9289 Y61.5913 I0.6167 J-1.4898
G3 X34.5786 Y61.0685 I1.1395 J-1.1395
G3 X34.4568 Y60.4492 I1.4898 J-0.6167
G0 Z1
G0 X39.5360 Y56.9827
G1 Z-2.0223 F200
G1 X39.5355 Y39.3172 F400
G1 X40.2005 Y39.3172
G1 X40.2005 Y56.9822
G1 X39.5355 Y56.9822
G1 X36.9959 Y59.5228 F400
G1 X36.9949 Y36.7766 F400
G1 X42.7411 Y36.7766
G1 X42.7411 Y59.5228
G1 X36.9949 Y59.5228
G1 X34.4560 Y60.4502 F400
G1 X34.4568 Y35.8502 F400
G3 X34.5786 Y35.2335 I1.6116 J0
G3 X34.9289 Y34.7106 I1.4898 J0.6167
G3 X35.4517 Y34.3604 I1.1395 J1.1395
G3 X36.0685 Y34.2385 I0.6167 J1.4898
G1 X43.6675 Y34.2385
G3 X44.2868 Y34.3604 I0 J1.6116
G3 X44.8096 Y34.7106 I-0.6167 J1.4898
G3 X45.1573 Y35.2335 I-1.1395 J1.1395
G3 X45.2817 Y35.8502 I-1.4898 J0.6167
G1 X45.2817 Y60.4492
G3 X45.1573 Y61.0685 I-1.6116 J0
G3 X44.8096 Y61.5913 I-1.4898 J-0.6167
G3 X44.2868 Y61.9390 I-1.1395 J-1.1395
G3 X43.6675 Y62.0634 I-0.6167 J-1.4898
G1 X36.0685 Y62.0634
G3 X35.4517 Y61.9390 I0 J-1.6116
G3 X34.9289 Y61.5913 I0.6167 J-1.4898
G3 X34.5786 Y61.0685 I1.1395 J-1.1395
G3 X34.4568 Y60.4492 I1.4898 J-0.6167
G0 Z1
G0 X39.5360 Y56.9827
G1 Z-2.0974 F200
G1 X39.5355 Y39.3172 F400
G1 X40.2005 Y39.3172
G1 X40.2005 Y56.9822
G1 X39.5355 Y56.9822
G1 X36.9959 Y59.5228 F400
G1 X36.9949 Y36.7766 F400
G1 X42.7411 Y36.7766
G1 X42.7411 Y59.5228
G1 X36.9949 Y59.5228
G1 X34.4560 Y60.4502 F400
G1 X34.4568 Y35.8502 F400
G3 X34.5786 Y35.2335 I1.6116 J0
G3 X34.9289 Y34.7106 I1.4898 J0.6167
G3 X35.4517 Y34.3604 I1.1395 J1.1395
G3 X36.0685 Y34.2385 I0.6167 J1.4898
G1 X43.6675 Y34.2385
G3 X44.2868 Y34.3604 I0 J1.6116
G3 X44.8096 Y34.7106 I-0.6167 J1.4898
G3 X45.1573 Y35.2335 I-1.1395 J1.1395
G3 X45.2817 Y35.8502 I-1.4898 J0.6167
G1 X45.2817 Y60.4492
G3 X45.1573 Y61.0685 I-1.6116 J0
G3 X44.8096 Y61.5913 I-1.4898 J-0.6167
G3 X44.2868 Y61.9390 I-1.1395 J-1.1395
G3 X43.6675 Y62.0634 I-0.6167 J-1.4898
G1 X36.0685 Y62.0634
G3 X35.4517 Y61.9390 I0 J-1.6116
G3 X34.9289 Y61.5913 I0.6167 J-1.4898
G3 X34.5786 Y61.0685 I1.1395 J-1.1395
G3 X34.4568 Y60.4492 I1.4898 J-0.6167
G0 Z1
G0 X39.5360 Y56.9827
G1 Z-2.1723 F200
G1 X39.5355 Y39.3172 F400
G1 X40.2005 Y39.3172
G1 X40.2005 Y56.9822
G1 X39.5355 Y56.9822
G1 X36.9959 Y59.5228 F400
G1 X36.9949 Y36.7766 F400
G1 X42.7411 Y36.7766
G1 X42.7411 Y59.5228
G1 X36.9949 Y59.5228
G1 X34.4560 Y60.4502 F400
G1 X34.4568 Y35.8502 F400
G3 X34.5786 Y35.2335 I1.6116 J0
G3 X34.9289 Y34.7106 I1.4898 J0.6167
G3 X35.4517 Y34.3604 I1.1395 J1.1395
G3 X36.0685 Y34.2385 I0.6167 J1.4898
G1 X43.6675 Y34.2385
G3 X44.2868 Y34.3604 I0 J1.6116
G3 X44.8096 Y34.7106 I-0.6167 J1.4898
G3 X45.1573 Y35.2335 I-1.1395 J1.1395
G3 X45.2817 Y35.8502 I-1.4898 J0.6167
G1 X45.2817 Y60.4492
G3 X45.1573 Y61.0685 I-1.6116 J0
G3 X44.8096 Y61.5913 I-1.4898 J-0.6167
G3 X44.2868 Y61.9390 I-1.1395 J-1.1395
G3 X43.6675 Y62.0634 I-0.6167 J-1.4898
G1 X36.0685 Y62.0634
G3 X35.4517 Y61.9390 I0 J-1.6116
G3 X34.9289 Y61.5913 I0.6167 J-1.4898
G3 X34.5786 Y61.0685 I1.1395 J-1.1395
G3 X34.4568 Y60.4492 I1.4898 J-0.6167
G0 Z1
G0 X39.5360 Y56.9827
G1 Z-2.2474 F200
G1 X39.5355 Y39.3172 F400
G1 X40.2005 Y39.3172
G1 X40.2005 Y56.9822
G1 X39.5355 Y56.9822
G1 X36.9959 Y59.5228 F400
G1 X36.9949 Y36.7766 F400
G1 X42.7411 Y36.7766
G1 X42.7411 Y59.5228
G1 X36.9949 Y59.5228
G1 X34.4560 Y60.4502 F400
G1 X34.4568 Y35.8502 F400
G3 X34.5786 Y35.2335 I1.6116 J0
G3 X34.9289 Y34.7106 I1.4898 J0.6167
G3 X35.4517 Y34.3604 I1.1395 J1.1395
G3 X36.0685 Y34.2385 I0.6167 J1.4898
G1 X43.6675 Y34.2385
G3 X44.2868 Y34.3604 I0 J1.6116
G3 X44.8096 Y34.7106 I-0.6167 J1.4898
G3 X45.1573 Y35.2335 I-1.1395 J1.1395
G3 X45.2817 Y35.8502 I-1.4898 J0.6167
G1 X45.2817 Y60.4492
G3 X45.1573 Y61.0685 I-1.6116 J0
G3 X44.8096 Y61.5913 I-1.4898 J-0.6167
G3 X44.2868 Y61.9390 I-1.1395 J-1.1395
G3 X43.6675 Y62.0634 I-0.6167 J-1.4898
G1 X36.0685 Y62.0634
G3 X35.4517 Y61.9390 I0 J-1.6116
G3 X34.9289 Y61.5913 I0.6167 J-1.4898
G3 X34.5786 Y61.0685 I1.1395 J-1.1395
G3 X34.4568 Y60.4492 I1.4898 J-0.6167
G0 Z1
G0 X39.5360 Y56.9827
G1 Z-2.3223 F200
G1 X39.5355 Y39.3172 F400
G1 X40.2005 Y39.3172
G1 X40.2005 Y56.9822
G1 X39.5355 Y56.9822
G1 X36.9959 Y59.5228 F400
G1 X36.9949 Y36.7766 F400
G1 X42.7411 Y36.7766
G1 X42.7411 Y59.5228
G1 X36.9949 Y59.5228
G1 X34.4560 Y60.4502 F400
G1 X34.4568 Y35.8502 F400
G3 X34.5786 Y35.2335 I1.6116 J0
G3 X34.9289 Y34.7106 I1.4898 J0.6167
G3 X35.4517 Y34.3604 I1.1395 J1.1395
G3 X36.0685 Y34.2385 I0.6167 J1.4898
G1 X43.6675 Y34.2385
G3 X44.2868 Y34.3604 I0 J1.6116
G3 X44.8096 Y34.7106 I-0.6167 J1.4898
G3 X45.1573 Y35.2335 I-1.1395 J1.1395
G3 X45.2817 Y35.8502 I-1.4898 J0.6167
G1 X45.2817 Y60.4492
G3 X45.1573 Y61.0685 I-1.6116 J0
G3 X44.8096 Y61.5913 I-1.4898 J-0.6167
G3 X44.2868 Y61.9390 I-1.1395 J-1.1395
G3 X43.6675 Y62.0634 I-0.6167 J-1.4898
G1 X36.0685 Y62.0634
G3 X35.4517 Y61.9390 I0 J-1.6116
G3 X34.9289 Y61.5913 I0.6167 J-1.4898
G3 X34.5786 Y61.0685 I1.1395 J-1.1395
G3 X34.4568 Y60.4492 I1.4898 J-0.6167
G0 Z1
G0 X39.5360 Y56.9827
G1 Z-2.3972 F200
G1 X39.5355 Y39.3172 F400
G1 X40.2005 Y39.3172
G1 X40.2005 Y56.9822
G1 X39.5355 Y56.9822
G1 X36.9959 Y59.5228 F400
G1 X36.9949 Y36.7766 F400
G1 X42.7411 Y36.7766
G1 X42.7411 Y59.5228
G1 X36.9949 Y59.5228
G1 X34.4560 Y60.4502 F400
G1 X34.4568 Y35.8502 F400
G3 X34.5786 Y35.2335 I1.6116 J0
G3 X34.9289 Y34.7106 I1.4898 J0.6167
G3 X35.4517 Y34.3604 I1.1395 J1.1395
G3 X36.0685 Y34.2385 I0.6167 J1.4898
G1 X43.6675 Y34.2385
G3 X44.2868 Y34.3604 I0 J1.6116
G3 X44.8096 Y34.7106 I-0.6167 J1.4898
G3 X45.1573 Y35.2335 I-1.1395 J1.1395
G3 X45.2817 Y35.8502 I-1.4898 J0.6167
G1 X45.2817 Y60.4492
G3 X45.1573 Y61.0685 I-1.6116 J0
G3 X44.8096 Y61.5913 I-1.4898 J-0.6167
G3 X44.2868 Y61.9390 I-1.1395 J-1.1395
G3 X43.6675 Y62.0634 I-0.6167 J-1.4898
G1 X36.0685 Y62.0634
G3 X35.4517 Y61.9390 I0 J-1.6116
G3 X34.9289 Y61.5913 I0.6167 J-1.4898
G3 X34.5786 Y61.0685 I1.1395 J-1.1395
G3 X34.4568 Y60.4492 I1.4898 J-0.6167
G0 Z1
G0 X39.5360 Y56.9827
G1 Z-2.4723 F200
G1 X39.5355 Y39.3172 F400
G1 X40.2005 Y39.3172
G1 X40.2005 Y56.9822
G1 X39.5355 Y56.9822
G1 X36.9959 Y59.5228 F400
G1 X36.9949 Y36.7766 F400
G1 X42.7411 Y36.7766
G1 X42.7411 Y59.5228
G1 X36.9949 Y59.5228
G1 X34.4560 Y60.4502 F400
G1 X34.4568 Y35.8502 F400
G3 X34.5786 Y35.2335 I1.6116 J0
G3 X34.9289 Y34.7106 I1.4898 J0.6167
G3 X35.4517 Y34.3604 I1.1395 J1.1395
G3 X36.0685 Y34.2385 I0.6167 J1.4898
G1 X43.6675 Y34.2385
G3 X44.2868 Y34.3604 I0 J1.6116
G3 X44.8096 Y34.7106 I-0.6167 J1.4898
G3 X45.1573 Y35.2335 I-1.1395 J1.1395
G3 X45.2817 Y35.8502 I-1.4898 J0.6167
G1 X45.2817 Y60.4492
G3 X45.1573 Y61.0685 I-1.6116 J0
G3 X44.8096 Y61.5913 I-1.4898 J-0.6167
G3 X44.2868 Y61.9390 I-1.1395 J-1.1395
G3 X43.6675 Y62.0634 I-0.6167 J-1.4898
G1 X36.0685 Y62.0634
G3 X35.4517 Y61.9390 I0 J-1.6116
G3 X34.9289 Y61.5913 I0.6167 J-1.4898
G3 X34.5786 Y61.0685 I1.1395 J-1.1395
G3 X34.4568 Y60.4492 I1.4898 J-0.6167
G0 Z1
G0 X39.5360 Y56.9827
G1 Z-2.5472 F200
G1 X39.5355 Y39.3172 F400
G1 X40.2005 Y39.3172
G1 X40.2005 Y56.9822
G1 X39.5355 Y56.9822
G1 X36.9959 Y59.5228 F400
G1 X36.9949 Y36.7766 F400
G1 X42.7411 Y36.7766
G1 X42.7411 Y59.5228
G1 X36.9949 Y59.5228
G1 X34.4560 Y60.4502 F400
G1 X34.4568 Y35.8502 F400
G3 X34.5786 Y35.2335 I1.6116 J0
G3 X34.9289 Y34.7106 I1.4898 J0.6167
G3 X35.4517 Y34.3604 I1.1395 J1.1395
G3 X36.0685 Y34.2385 I0.6167 J1.4898
G1 X43.6675 Y34.2385
G3 X44.2868 Y34.3604 I0 J1.6116
G3 X44.8096 Y34.7106 I-0.6167 J1.4898
G3 X45.1573 Y35.2335 I-1.1395 J1.1395
G3 X45.2817 Y35.8502 I-1.4898 J0.6167
G1 X45.2817 Y60.4492
G3 X45.1573 Y61.0685 I-1.6116 J0
G3 X44.8096 Y61.5913 I-1.4898 J-0.6167
G3 X44.2868 Y61.9390 I-1.1395 J-1.1395
G3 X43.6675 Y62.0634 I-0.6167 J-1.4898
G1 X36.0685 Y62.0634
G3 X35.4517 Y61.9390 I0 J-1.6116
G3 X34.9289 Y61.5913 I0.6167 J-1.4898
G3 X34.5786 Y61.0685 I1.1395 J-1.1395
G3 X34.4568 Y60.4492 I1.4898 J-0.6167
G0 Z1
G0 X39.5360 Y56.9827
G1 Z-2.6220 F200
G1 X39.5355 Y39.3172 F400
G1 X40.2005 Y39.3172
G1 X40.2005 Y56.9822
G1 X39.5355 Y56.9822
G1 X36.9959 Y59.5228 F400
G1 X36.9949 Y36.7766 F400
G1 X42.7411 Y36.7766
G1 X42.7411 Y59.5228
G1 X36.9949 Y59.5228
G1 X34.4560 Y60.4502 F400
G1 X34.4568 Y35.8502 F400
G3 X34.5786 Y35.2335 I1.6116 J0
G3 X34.9289 Y34.7106 I1.4898 J0.6167
G3 X35.4517 Y34.3604 I1.1395 J1.1395
G3 X36.0685 Y34.2385 I0.6167 J1.4898
G1 X43.6675 Y34.2385
G3 X44.2868 Y34.3604 I0 J1.6116
G3 X44.8096 Y34.7106 I-0.6167 J1.4898
G3 X45.1573 Y35.2335 I-1.1395 J1.1395
G3 X45.2817 Y35.8502 I-1.4898 J0.6167
G1 X45.2817 Y60.4492
G3 X45.1573 Y61.0685 I-1.6116 J0
G3 X44.8096 Y61.5913 I-1.4898 J-0.6167
G3 X44.2868 Y61.9390 I-1.1395 J-1.1395
G3 X43.6675 Y62.0634 I-0.6167 J-1.4898
G1 X36.0685 Y62.0634
G3 X35.4517 Y61.9390 I0 J-1.6116
G3 X34.9289 Y61.5913 I0.6167 J-1.4898
G3 X34.5786 Y61.0685 I1.1395 J-1.1395
G3 X34.4568 Y60.4492 I1.4898 J-0.6167
G0 Z1
G0 X39.5360 Y56.9827
G1 Z-2.6972 F200
G1 X39.5355 Y39.3172 F400
G1 X40.2005 Y39.3172
G1 X40.2005 Y56.9822
G1 X39.5355 Y56.9822
G1 X36.9959 Y59.5228 F400
G1 X36.9949 Y36.7766 F400
G1 X42.7411 Y36.7766
G1 X42.7411 Y59.5228
G1 X36.9949 Y59.5228
G1 X34.4560 Y60.4502 F400
G1 X34.4568 Y35.8502 F400
G3 X34.5786 Y35.2335 I1.6116 J0
G3 X34.9289 Y34.7106 I1.4898 J0.6167
G3 X35.4517 Y34.3604 I1.1395 J1.1395
G3 X36.0685 Y34.2385 I0.6167 J1.4898
G1 X43.6675 Y34.2385
G3 X44.2868 Y34.3604 I0 J1.6116
G3 X44.8096 Y34.7106 I-0.6167 J1.4898
G3 X45.1573 Y35.2335 I-1.1395 J1.1395
G3 X45.2817 Y35.8502 I-1.4898 J0.6167
G1 X45.2817 Y60.4492
G3 X45.1573 Y61.0685 I-1.6116 J0
G3 X44.8096 Y61.5913 I-1.4898 J-0.6167
G3 X44.2868 Y61.9390 I-1.1395 J-1.1395
G3 X43.6675 Y62.0634 I-0.6167 J-1.4898
G1 X36.0685 Y62.0634
G3 X35.4517 Y61.9390 I0 J-1.6116
G3 X34.9289 Y61.5913 I0.6167 J-1.4898
G3 X34.5786 Y61.0685 I1.1395 J-1.1395
G3 X34.4568 Y60.4492 I1.4898 J-0.6167
G0 Z1
G0 X39.5360 Y56.9827
G1 Z-2.7720 F200
G1 X39.5355 Y39.3172 F400
G1 X40.2005 Y39.3172
G1 X40.2005 Y56.9822
G1 X39.5355 Y56.9822
G1 X36.9959 Y59.5228 F400
G1 X36.9949 Y36.7766 F400
G1 X42.7411 Y36.7766
G1 X42.7411 Y59.5228
G1 X36.9949 Y59.5228
G1 X34.4560 Y60.4502 F400
G1 X34.4568 Y35.8502 F400
G3 X34.5786 Y35.2335 I1.6116 J0
G3 X34.9289 Y34.7106 I1.4898 J0.6167
G3 X35.4517 Y34.3604 I1.1395 J1.1395
G3 X36.0685 Y34.2385 I0.6167 J1.4898
G1 X43.6675 Y34.2385
G3 X44.2868 Y34.3604 I0 J1.6116
G3 X44.8096 Y34.7106 I-0.6167 J1.4898
G3 X45.1573 Y35.2335 I-1.1395 J1.1395
G3 X45.2817 Y35.8502 I-1.4898 J0.6167
G1 X45.2817 Y60.4492
G3 X45.1573 Y61.0685 I-1.6116 J0
G3 X44.8096 Y61.5913 I-1.4898 J-0.6167
G3 X44.2868 Y61.9390 I-1.1395 J-1.1395
G3 X43.6675 Y62.0634 I-0.6167 J-1.4898
G1 X36.0685 Y62.0634
G3 X35.4517 Y61.9390 I0 J-1.6116
G3 X34.9289 Y61.5913 I0.6167 J-1.4898
G3 X34.5786 Y61.0685 I1.1395 J-1.1395
G3 X34.4568 Y60.4492 I1.4898 J-0.6167
G0 Z1
G0 X39.5360 Y56.9827
G1 Z-2.8469 F200
G1 X39.5355 Y39.3172 F400
G1 X40.2005 Y39.3172
G1 X40.2005 Y56.9822
G1 X39.5355 Y56.9822
G1 X36.9959 Y59.5228 F400
G1 X36.9949 Y36.7766 F400
G1 X42.7411 Y36.7766
G1 X42.7411 Y59.5228
G1 X36.9949 Y59.5228
G1 X34.4560 Y60.4502 F400
G1 X34.4568 Y35.8502 F400
G3 X34.5786 Y35.2335 I1.6116 J0
G3 X34.9289 Y34.7106 I1.4898 J0.6167
G3 X35.4517 Y34.3604 I1.1395 J1.1395
G3 X36.0685 Y34.2385 I0.6167 J1.4898
G1 X43.6675 Y34.2385
G3 X44.2868 Y34.3604 I0 J1.6116
G3 X44.8096 Y34.7106 I-0.6167 J1.4898
G3 X45.1573 Y35.2335 I-1.1395 J1.1395
G3 X45.2817 Y35.8502 I-1.4898 J0.6167
G1 X45.2817 Y60.4492
G3 X45.1573 Y61.0685 I-1.6116 J0
G3 X44.8096 Y61.5913 I-1.4898 J-0.6167
G3 X44.2868 Y61.9390 I-1.1395 J-1.1395
G3 X43.6675 Y62.0634 I-0.6167 J-1.4898
G1 X36.0685 Y62.0634
G3 X35.4517 Y61.9390 I0 J-1.6116
G3 X34.9289 Y61.5913 I0.6167 J-1.4898
G3 X34.5786 Y61.0685 I1.1395 J-1.1395
G3 X34.4568 Y60.4492 I1.4898 J-0.6167
G0 Z1
G0 X39.5360 Y56.9827
G1 Z-2.9220 F200
G1 X39.5355 Y39.3172 F400
G1 X40.2005 Y39.3172
G1 X40.2005 Y56.9822
G1 X39.5355 Y56.9822
G1 X36.9959 Y59.5228 F400
G1 X36.9949 Y36.7766 F400
G1 X42.7411 Y36.7766
G1 X42.7411 Y59.5228
G1 X36.9949 Y59.5228
G1 X34.4560 Y60.4502 F400
G1 X34.4568 Y35.8502 F400
G3 X34.5786 Y35.2335 I1.6116 J0
G3 X34.9289 Y34.7106 I1.4898 J0.6167
G3 X35.4517 Y34.3604 I1.1395 J1.1395
G3 X36.0685 Y34.2385 I0.6167 J1.4898
G1 X43.6675 Y34.2385
G3 X44.2868 Y34.3604 I0 J1.6116
G3 X44.8096 Y34.7106 I-0.6167 J1.4898
G3 X45.1573 Y35.2335 I-1.1395 J1.1395
G3 X45.2817 Y35.8502 I-1.4898 J0.6167
G1 X45.2817 Y60.4492
G3 X45.1573 Y61.0685 I-1.6116 J0
G3 X44.8096 Y61.5913 I-1.4898 J-0.6167
G3 X44.2868 Y61.9390 I-1.1395 J-1.1395
G3 X43.6675 Y62.0634 I-0.6167 J-1.4898
G1 X36.0685 Y62.0634
G3 X35.4517 Y61.9390 I0 J-1.6116
G3 X34.9289 Y61.5913 I0.6167 J-1.4898
G3 X34.5786 Y61.0685 I1.1395 J-1.1395
G3 X34.4568 Y60.4492 I1.4898 J-0.6167
G0 Z1
G0 X39.5360 Y56.9827
G1 Z-2.9969 F200
G1 X39.5355 Y39.3172 F400
G1 X40.2005 Y39.3172
G1 X40.2005 Y56.9822
G1 X39.5355 Y56.9822
G1 X36.9959 Y59.5228 F400
G1 X36.9949 Y36.7766 F400
G1 X42.7411 Y36.7766
G1 X42.7411 Y59.5228
G1 X36.9949 Y59.5228
G1 X34.4560 Y60.4502 F400
G1 X34.4568 Y35.8502 F400
G3 X34.5786 Y35.2335 I1.6116 J0
G3 X34.9289 Y34.7106 I1.4898 J0.6167
G3 X35.4517 Y34.3604 I1.1395 J1.1395
G3 X36.0685 Y34.2385 I0.6167 J1.4898
G1 X43.6675 Y34.2385
G3 X44.2868 Y34.3604 I0 J1.6116
G3 X44.8096 Y34.7106 I-0.6167 J1.4898
G3 X45.1573 Y35.2335 I-1.1395 J1.1395
G3 X45.2817 Y35.8502 I-1.4898 J0.6167
G1 X45.2817 Y60.4492
G3 X45.1573 Y61.0685 I-1.6116 J0
G3 X44.8096 Y61.5913 I-1.4898 J-0.6167
G3 X44.2868 Y61.9390 I-1.1395 J-1.1395
G3 X43.6675 Y62.0634 I-0.6167 J-1.4898
G1 X36.0685 Y62.0634
G3 X35.4517 Y61.9390 I0 J-1.6116
G3 X34.9289 Y61.5913 I0.6167 J-1.4898
G3 X34.5786 Y61.0685 I1.1395 J-1.1395
G3 X34.4568 Y60.4492 I1.4898 J-0.6167
G0 Z1
G0 X39.5360 Y56.9827
G1 Z-3.0718 F200
G1 X39.5355 Y39.3172 F400
G1 X40.2005 Y39.3172
G1 X40.2005 Y56.9822
G1 X39.5355 Y56.9822
G1 X36.9959 Y59.5228 F400
G1 X36.9949 Y36.7766 F400
G1 X42.7411 Y36.7766
G1 X42.7411 Y59.5228
G1 X36.9949 Y59.5228
G1 X34.4560 Y60.4502 F400
G1 X34.4568 Y35.8502 F400
G3 X34.5786 Y35.2335 I1.6116 J0
G3 X34.9289 Y34.7106 I1.4898 J0.6167
G3 X35.4517 Y34.3604 I1.1395 J1.1395
G3 X36.0685 Y34.2385 I0.6167 J1.4898
G1 X43.6675 Y34.2385
G3 X44.2868 Y34.3604 I0 J1.6116
G3 X44.8096 Y34.7106 I-0.6167 J1.4898
G3 X45.1573 Y35.2335 I-1.1395 J1.1395
G3 X45.2817 Y35.8502 I-1.4898 J0.6167
G1 X45.2817 Y60.4492
G3 X45.1573 Y61.0685 I-1.6116 J0
G3 X44.8096 Y61.5913 I-1.4898 J-0.6167
G3 X44.2868 Y61.9390 I-1.1395 J-1.1395
G3 X43.6675 Y62.0634 I-0.6167 J-1.4898
G1 X36.0685 Y62.0634
G3 X35.4517 Y61.9390 I0 J-1.6116
G3 X34.9289 Y61.5913 I0.6167 J-1.4898
G3 X34.5786 Y61.0685 I1.1395 J-1.1395
G3 X34.4568 Y60.4492 I1.4898 J-0.6167
G0 Z1
G0 X39.5360 Y56.9827
G1 Z-3.1469 F200
G1 X39.5355 Y39.3172 F400
G1 X40.2005 Y39.3172
G1 X40.2005 Y56.9822
G1 X39.5355 Y56.9822
G1 X36.9959 Y59.5228 F400
G1 X36.9949 Y36.7766 F400
G1 X42.7411 Y36.7766
G1 X42.7411 Y59.5228
G1 X36.9949 Y59.5228
G1 X34.4560 Y60.4502 F400
G1 X34.4568 Y35.8502 F400
G3 X34.5786 Y35.2335 I1.6116 J0
G3 X34.9289 Y34.7106 I1.4898 J0.6167
G3 X35.4517 Y34.3604 I1.1395 J1.1395
G3 X36.0685 Y34.2385 I0.6167 J1.4898
G1 X43.6675 Y34.2385
G3 X44.2868 Y34.3604 I0 J1.6116
G3 X44.8096 Y34.7106 I-0.6167 J1.4898
G3 X45.1573 Y35.2335 I-1.1395 J1.1395
G3 X45.2817 Y35.8502 I-1.4898 J0.6167
G1 X45.2817 Y60.4492
G3 X45.1573 Y61.0685 I-1.6116 J0
G3 X44.8096 Y61.5913 I-1.4898 J-0.6167
G3 X44.2868 Y61.9390 I-1.1395 J-1.1395
G3 X43.6675 Y62.0634 I-0.6167 J-1.4898
G1 X36.0685 Y62.0634
G3 X35.4517 Y61.9390 I0 J-1.6116
G3 X34.9289 Y61.5913 I0.6167 J-1.4898
G3 X34.5786 Y61.0685 I1.1395 J-1.1395
G3 X34.4568 Y60.4492 I1.4898 J-0.6167
G0 Z1
G0 X39.5360 Y56.9827
G1 Z-3.2218 F200
G1 X39.5355 Y39.3172 F400
G1 X40.2005 Y39.3172
G1 X40.2005 Y56.9822
G1 X39.5355 Y56.9822
G1 X36.9959 Y59.5228 F400
G1 X36.9949 Y36.7766 F400
G1 X42.7411 Y36.7766
G1 X42.7411 Y59.5228
G1 X36.9949 Y59.5228
G1 X34.4560 Y60.4502 F400
G1 X34.4568 Y35.8502 F400
G3 X34.5786 Y35.2335 I1.6116 J0
G3 X34.9289 Y34.7106 I1.4898 J0.6167
G3 X35.4517 Y34.3604 I1.1395 J1.1395
G3 X36.0685 Y34.2385 I0.6167 J1.4898
G1 X43.6675 Y34.2385
G3 X44.2868 Y34.3604 I0 J1.6116
G3 X44.8096 Y34.7106 I-0.6167 J1.4898
G3 X45.1573 Y35.2335 I-1.1395 J1.1395
G3 X45.2817 Y35.8502 I-1.4898 J0.6167
G1 X45.2817 Y60.4492
G3 X45.1573 Y61.0685 I-1.6116 J0
G3 X44.8096 Y61.5913 I-1.4898 J-0.6167
G3 X44.2868 Y61.9390 I-1.1395 J-1.1395
G3 X43.6675 Y62.0634 I-0.6167 J-1.4898
G1 X36.0685 Y62.0634
G3 X35.4517 Y61.9390 I0 J-1.6116
G3 X34.9289 Y61.5913 I0.6167 J-1.4898
G3 X34.5786 Y61.0685 I1.1395 J-1.1395
G3 X34.4568 Y60.4492 I1.4898 J-0.6167
G0 Z1
G0 X39.5360 Y56.9827
G1 Z-3.2967 F200
G1 X39.5355 Y39.3172 F400
G1 X40.2005 Y39.3172
G1 X40.2005 Y56.9822
G1 X39.5355 Y56.9822
G1 X36.9959 Y59.5228 F400
G1 X36.9949 Y36.7766 F400
G1 X42.7411 Y36.7766
G1 X42.7411 Y59.5228
G1 X36.9949 Y59.5228
G1 X34.4560 Y60.4502 F400
G1 X34.4568 Y35.8502 F400
G3 X34.5786 Y35.2335 I1.6116 J0
G3 X34.9289 Y34.7106 I1.4898 J0.6167
G3 X35.4517 Y34.3604 I1.1395 J1.1395
G3 X36.0685 Y34.2385 I0.6167 J1.4898
G1 X43.6675 Y34.2385
G3 X44.2868 Y34.3604 I0 J1.6116
G3 X44.8096 Y34.7106 I-0.6167 J1.4898
G3 X45.1573 Y35.2335 I-1.1395 J1.1395
G3 X45.2817 Y35.8502 I-1.4898 J0.6167
G1 X45.2817 Y60.4492
G3 X45.1573 Y61.0685 I-1.6116 J0
G3 X44.8096 Y61.5913 I-1.4898 J-0.6167
G3 X44.2868 Y61.9390 I-1.1395 J-1.1395
G3 X43.6675 Y62.0634 I-0.6167 J-1.4898
G1 X36.0685 Y62.0634
G3 X35.4517 Y61.9390 I0 J-1.6116
G3 X34.9289 Y61.5913 I0.6167 J-1.4898
G3 X34.5786 Y61.0685 I1.1395 J-1.1395
G3 X34.4568 Y60.4492 I1.4898 J-0.6167
G0 Z1
G0 X39.5360 Y56.9827
G1 Z-3.3718 F200
G1 X39.5355 Y39.3172 F400
G1 X40.2005 Y39.3172
G1 X40.2005 Y56.9822
G1 X39.5355 Y56.9822
G1 X36.9959 Y59.5228 F400
G1 X36.9949 Y36.7766 F400
G1 X42.7411 Y36.7766
G1 X42.7411 Y59.5228
G1 X36.9949 Y59.5228
G1 X34.4560 Y60.4502 F400
G1 X34.4568 Y35.8502 F400
G3 X34.5786 Y35.2335 I1.6116 J0
G3 X34.9289 Y34.7106 I1.4898 J0.6167
G3 X35.4517 Y34.3604 I1.1395 J1.1395
G3 X36.0685 Y34.2385 I0.6167 J1.4898
G1 X43.6675 Y34.2385
G3 X44.2868 Y34.3604 I0 J1.6116
G3 X44.8096 Y34.7106 I-0.6167 J1.4898
G3 X45.1573 Y35.2335 I-1.1395 J1.1395
G3 X45.2817 Y35.8502 I-1.4898 J0.6167
G1 X45.2817 Y60.4492
G3 X45.1573 Y61.0685 I-1.6116 J0
G3 X44.8096 Y61.5913 I-1.4898 J-0.6167
G3 X44.2868 Y61.9390 I-1.1395 J-1.1395
G3 X43.6675 Y62.0634 I-0.6167 J-1.4898
G1 X36.0685 Y62.0634
G3 X35.4517 Y61.9390 I0 J-1.6116
G3 X34.9289 Y61.5913 I0.6167 J-1.4898
G3 X34.5786 Y61.0685 I1.1395 J-1.1395
G3 X34.4568 Y60.4492 I1.4898 J-0.6167
G0 Z1
G0 X39.5360 Y56.9827
G1 Z-3.4467 F200
G1 X39.5355 Y39.3172 F400
G1 X40.2005 Y39.3172
G1 X40.2005 Y56.9822
G1 X39.5355 Y56.9822
G1 X36.9959 Y59.5228 F400
G1 X36.9949 Y36.7766 F400
G1 X42.7411 Y36.7766
G1 X42.7411 Y59.5228
G1 X36.9949 Y59.5228
G1 X34.4560 Y60.4502 F400
G1 X34.4568 Y35.8502 F400
G3 X34.5786 Y35.2335 I1.6116 J0
G3 X34.9289 Y34.7106 I1.4898 J0.6167
G3 X35.4517 Y34.3604 I1.1395 J1.1395
G3 X36.0685 Y34.2385 I0.6167 J1.4898
G1 X43.6675 Y34.2385
G3 X44.2868 Y34.3604 I0 J1.6116
G3 X44.8096 Y34.7106 I-0.6167 J1.4898
G3 X45.1573 Y35.2335 I-1.1395 J1.1395
G3 X45.2817 Y35.8502 I-1.4898 J0.6167
G1 X45.2817 Y60.4492
G3 X45.1573 Y61.0685 I-1.6116 J0
G3 X44.8096 Y61.5913 I-1.4898 J-0.6167
G3 X44.2868 Y61.9390 I-1.1395 J-1.1395
G3 X43.6675 Y62.0634 I-0.6167 J-1.4898
G1 X36.0685 Y62.0634
G3 X35.4517 Y61.9390 I0 J-1.6116
G3 X34.9289 Y61.5913 I0.6167 J-1.4898
G3 X34.5786 Y61.0685 I1.1395 J-1.1395
G3 X34.4568 Y60.4492 I1.4898 J-0.6167
G0 Z1
G0 X39.5360 Y56.9827
G1 Z-3.5215 F200
G1 X39.5355 Y39.3172 F400
G1 X40.2005 Y39.3172
G1 X40.2005 Y56.9822
G1 X39.5355 Y56.9822
G1 X36.9959 Y59.5228 F400
G1 X36.9949 Y36.7766 F400
G1 X42.7411 Y36.7766
G1 X42.7411 Y59.5228
G1 X36.9949 Y59.5228
G1 X34.4560 Y60.4502 F400
G1 X34.4568 Y35.8502 F400
G3 X34.5786 Y35.2335 I1.6116 J0
G3 X34.9289 Y34.7106 I1.4898 J0.6167
G3 X35.4517 Y34.3604 I1.1395 J1.1395
G3 X36.0685 Y34.2385 I0.6167 J1.4898
G1 X43.6675 Y34.2385
G3 X44.2868 Y34.3604 I0 J1.6116
G3 X44.8096 Y34.7106 I-0.6167 J1.4898
G3 X45.1573 Y35.2335 I-1.1395 J1.1395
G3 X45.2817 Y35.8502 I-1.4898 J0.6167
G1 X45.2817 Y60.4492
G3 X45.1573 Y61.0685 I-1.6116 J0
G3 X44.8096 Y61.5913 I-1.4898 J-0.6167
G3 X44.2868 Y61.9390 I-1.1395 J-1.1395
G3 X43.6675 Y62.0634 I-0.6167 J-1.4898
G1 X36.0685 Y62.0634
G3 X35.4517 Y61.9390 I0 J-1.6116
G3 X34.9289 Y61.5913 I0.6167 J-1.4898
G3 X34.5786 Y61.0685 I1.1395 J-1.1395
G3 X34.4568 Y60.4492 I1.4898 J-0.6167
G0 Z1
G0 X39.5360 Y56.9827
G1 Z-3.5967 F200
G1 X39.5355 Y39.3172 F400
G1 X40.2005 Y39.3172
G1 X40.2005 Y56.9822
G1 X39.5355 Y56.9822
G1 X36.9959 Y59.5228 F400
G1 X36.9949 Y36.7766 F400
G1 X42.7411 Y36.7766
G1 X42.7411 Y59.5228
G1 X36.9949 Y59.5228
G1 X34.4560 Y60.4502 F400
G1 X34.4568 Y35.8502 F400
G3 X34.5786 Y35.2335 I1.6116 J0
G3 X34.9289 Y34.7106 I1.4898 J0.6167
G3 X35.4517 Y34.3604 I1.1395 J1.1395
G3 X36.0685 Y34.2385 I0.6167 J1.4898
G1 X43.6675 Y34.2385
G3 X44.2868 Y34.3604 I0 J1.6116
G3 X44.8096 Y34.7106 I-0.6167 J1.4898
G3 X45.1573 Y35.2335 I-1.1395 J1.1395
G3 X45.2817 Y35.8502 I-1.4898 J0.6167
G1 X45.2817 Y60.4492
G3 X45.1573 Y61.0685 I-1.6116 J0
G3 X44.8096 Y61.5913 I-1.4898 J-0.6167
G3 X44.2868 Y61.9390 I-1.1395 J-1.1395
G3 X43.6675 Y62.0634 I-0.6167 J-1.4898
G1 X36.0685 Y62.0634
G3 X35.4517 Y61.9390 I0 J-1.6116
G3 X34.9289 Y61.5913 I0.6167 J-1.4898
G3 X34.5786 Y61.0685 I1.1395 J-1.1395
G3 X34.4568 Y60.4492 I1.4898 J-0.6167
G0 Z1
G0 X39.5360 Y56.9827
G1 Z-3.6715 F200
G1 X39.5355 Y39.3172 F400
G1 X40.2005 Y39.3172
G1 X40.2005 Y56.9822
G1 X39.5355 Y56.9822
G1 X36.9959 Y59.5228 F400
G1 X36.9949 Y36.7766 F400
G1 X42.7411 Y36.7766
G1 X42.7411 Y59.5228
G1 X36.9949 Y59.5228
G1 X34.4560 Y60.4502 F400
G1 X34.4568 Y35.8502 F400
G3 X34.5786 Y35.2335 I1.6116 J0
G3 X34.9289 Y34.7106 I1.4898 J0.6167
G3 X35.4517 Y34.3604 I1.1395 J1.1395
G3 X36.0685 Y34.2385 I0.6167 J1.4898
G1 X43.6675 Y34.2385
G3 X44.2868 Y34.3604 I0 J1.6116
G3 X44.8096 Y34.7106 I-0.6167 J1.4898
G3 X45.1573 Y35.2335 I-1.1395 J1.1395
G3 X45.2817 Y35.8502 I-1.4898 J0.6167
G1 X45.2817 Y60.4492
G3 X45.1573 Y61.0685 I-1.6116 J0
G3 X44.8096 Y61.5913 I-1.4898 J-0.6167
G3 X44.2868 Y61.9390 I-1.1395 J-1.1395
G3 X43.6675 Y62.0634 I-0.6167 J-1.4898
G1 X36.0685 Y62.0634
G3 X35.4517 Y61.9390 I0 J-1.6116
G3 X34.9289 Y61.5913 I0.6167 J-1.4898
G3 X34.5786 Y61.0685 I1.1395 J-1.1395
G3 X34.4568 Y60.4492 I1.4898 J-0.6167
G0 Z1
G0 X39.5360 Y56.9827
G1 Z-3.7464 F200
G1 X39.5355 Y39.3172 F400
G1 X40.2005 Y39.3172
G1 X40.2005 Y56.9822
G1 X39.5355 Y56.9822
G1 X36.9959 Y59.5228 F400
G1 X36.9949 Y36.7766 F400
G1 X42.7411 Y36.7766
G1 X42.7411 Y59.5228
G1 X36.9949 Y59.5228
G1 X34.4560 Y60.4502 F400
G1 X34.4568 Y35.8502 F400
G3 X34.5786 Y35.2335 I1.6116 J0
G3 X34.9289 Y34.7106 I1.4898 J0.6167
G3 X35.4517 Y34.3604 I1.1395 J1.1395
G3 X36.0685 Y34.2385 I0.6167 J1.4898
G1 X43.6675 Y34.2385
G3 X44.2868 Y34.3604 I0 J1.6116
G3 X44.8096 Y34.7106 I-0.6167 J1.4898
G3 X45.1573 Y35.2335 I-1.1395 J1.1395
G3 X45.2817 Y35.8502 I-1.4898 J0.6167
G1 X45.2817 Y60.4492
G3 X45.1573 Y61.0685 I-1.6116 J0
G3 X44.8096 Y61.5913 I-1.4898 J-0.6167
G3 X44.2868 Y61.9390 I-1.1395 J-1.1395
G3 X43.6675 Y62.0634 I-0.6167 J-1.4898
G1 X36.0685 Y62.0634
G3 X35.4517 Y61.9390 I0 J-1.6116
G3 X34.9289 Y61.5913 I0.6167 J-1.4898
G3 X34.5786 Y61.0685 I1.1395 J-1.1395
G3 X34.4568 Y60.4492 I1.4898 J-0.6167
G0 Z1
G0 X39.5360 Y56.9827
G1 Z-3.8215 F200
G1 X39.5355 Y39.3172 F400
G1 X40.2005 Y39.3172
G1 X40.2005 Y56.9822
G1 X39.5355 Y56.9822
G1 X36.9959 Y59.5228 F400
G1 X36.9949 Y36.7766 F400
G1 X42.7411 Y36.7766
G1 X42.7411 Y59.5228
G1 X36.9949 Y59.5228
G1 X34.4560 Y60.4502 F400
G1 X34.4568 Y35.8502 F400
G3 X34.5786 Y35.2335 I1.6116 J0
G3 X34.9289 Y34.7106 I1.4898 J0.6167
G3 X35.4517 Y34.3604 I1.1395 J1.1395
G3 X36.0685 Y34.2385 I0.6167 J1.4898
G1 X43.6675 Y34.2385
G3 X44.2868 Y34.3604 I0 J1.6116
G3 X44.8096 Y34.7106 I-0.6167 J1.4898
G3 X45.1573 Y35.2335 I-1.1395 J1.1395
G3 X45.2817 Y35.8502 I-1.4898 J0.6167
G1 X45.2817 Y60.4492
G3 X45.1573 Y61.0685 I-1.6116 J0
G3 X44.8096 Y61.5913 I-1.4898 J-0.6167
G3 X44.2868 Y61.9390 I-1.1395 J-1.1395
G3 X43.6675 Y62.0634 I-0.6167 J-1.4898
G1 X36.0685 Y62.0634
G3 X35.4517 Y61.9390 I0 J-1.6116
G3 X34.9289 Y61.5913 I0.6167 J-1.4898
G3 X34.5786 Y61.0685 I1.1395 J-1.1395
G3 X34.4568 Y60.4492 I1.4898 J-0.6167
G0 Z1
G0 X39.5360 Y56.9827
G1 Z-3.8964 F200
G1 X39.5355 Y39.3172 F400
G1 X40.2005 Y39.3172
G1 X40.2005 Y56.9822
G1 X39.5355 Y56.9822
G1 X36.9959 Y59.5228 F400
G1 X36.9949 Y36.7766 F400
G1 X42.7411 Y36.7766
G1 X42.7411 Y59.5228
G1 X36.9949 Y59.5228
G1 X34.4560 Y60.4502 F400
G1 X34.4568 Y35.8502 F400
G3 X34.5786 Y35.2335 I1.6116 J0
G3 X34.9289 Y34.7106 I1.4898 J0.6167
G3 X35.4517 Y34.3604 I1.1395 J1.1395
G3 X36.0685 Y34.2385 I0.6167 J1.4898
G1 X43.6675 Y34.2385
G3 X44.2868 Y34.3604 I0 J1.6116
G3 X44.8096 Y34.7106 I-0.6167 J1.4898
G3 X45.1573 Y35.2335 I-1.1395 J1.1395
G3 X45.2817 Y35.8502 I-1.4898 J0.6167
G1 X45.2817 Y60.4492
G3 X45.1573 Y61.0685 I-1.6116 J0
G3 X44.8096 Y61.5913 I-1.4898 J-0.6167
G3 X44.2868 Y61.9390 I-1.1395 J-1.1395
G3 X43.6675 Y62.0634 I-0.6167 J-1.4898
G1 X36.0685 Y62.0634
G3 X35.4517 Y61.9390 I0 J-1.6116
G3 X34.9289 Y61.5913 I0.6167 J-1.4898
G3 X34.5786 Y61.0685 I1.1395 J-1.1395
G3 X34.4568 Y60.4492 I1.4898 J-0.6167
G0 Z1
G0 X39.5360 Y56.9827
G1 Z-3.9713 F200
G1 X39.5355 Y39.3172 F400
G1 X40.2005 Y39.3172
G1 X40.2005 Y56.9822
G1 X39.5355 Y56.9822
G1 X36.9959 Y59.5228 F400
G1 X36.9949 Y36.7766 F400
G1 X42.7411 Y36.7766
G1 X42.7411 Y59.5228
G1 X36.9949 Y59.5228
G1 X34.4560 Y60.4502 F400
G1 X34.4568 Y35.8502 F400
G3 X34.5786 Y35.2335 I1.6116 J0
G3 X34.9289 Y34.7106 I1.4898 J0.6167
G3 X35.4517 Y34.3604 I1.1395 J1.1395
G3 X36.0685 Y34.2385 I0.6167 J1.4898
G1 X43.6675 Y34.2385
G3 X44.2868 Y34.3604 I0 J1.6116
G3 X44.8096 Y34.7106 I-0.6167 J1.4898
G3 X45.1573 Y35.2335 I-1.1395 J1.1395
G3 X45.2817 Y35.8502 I-1.4898 J0.6167
G1 X45.2817 Y60.4492
G3 X45.1573 Y61.0685 I-1.6116 J0
G3 X44.8096 Y61.5913 I-1.4898 J-0.6167
G3 X44.2868 Y61.9390 I-1.1395 J-1.1395
G3 X43.6675 Y62.0634 I-0.6167 J-1.4898
G1 X36.0685 Y62.0634
G3 X35.4517 Y61.9390 I0 J-1.6116
G3 X34.9289 Y61.5913 I0.6167 J-1.4898
G3 X34.5786 Y61.0685 I1.1395 J-1.1395
G3 X34.4568 Y60.4492 I1.4898 J-0.6167
G0 Z1
G0 X39.5360 Y56.9827
G1 Z-4.0461 F200
G1 X39.5355 Y39.3172 F400
G1 X40.2005 Y39.3172
G1 X40.2005 Y56.9822
G1 X39.5355 Y56.9822
G1 X36.9959 Y59.5228 F400
G1 X36.9949 Y36.7766 F400
G1 X42.7411 Y36.7766
G1 X42.7411 Y59.5228
G1 X36.9949 Y59.5228
G1 X34.4560 Y60.4502 F400
G1 X34.4568 Y35.8502 F400
G3 X34.5786 Y35.2335 I1.6116 J0
G3 X34.9289 Y34.7106 I1.4898 J0.6167
G3 X35.4517 Y34.3604 I1.1395 J1.1395
G3 X36.0685 Y34.2385 I0.6167 J1.4898
G1 X43.6675 Y34.2385
G3 X44.2868 Y34.3604 I0 J1.6116
G3 X44.8096 Y34.7106 I-0.6167 J1.4898
G3 X45.1573 Y35.2335 I-1.1395 J1.1395
G3 X45.2817 Y35.8502 I-1.4898 J0.6167
G1 X45.2817 Y60.4492
G3 X45.1573 Y61.0685 I-1.6116 J0
G3 X44.8096 Y61.5913 I-1.4898 J-0.6167
G3 X44.2868 Y61.9390 I-1.1395 J-1.1395
G3 X43.6675 Y62.0634 I-0.6167 J-1.4898
G1 X36.0685 Y62.0634
G3 X35.4517 Y61.9390 I0 J-1.6116
G3 X34.9289 Y61.5913 I0.6167 J-1.4898
G3 X34.5786 Y61.0685 I1.1395 J-1.1395
G3 X34.4568 Y60.4492 I1.4898 J-0.6167
G0 Z1
G0 X39.5360 Y56.9827
G1 Z-4.1210 F200
G1 X39.5355 Y39.3172 F400
G1 X40.2005 Y39.3172
G1 X40.2005 Y56.9822
G1 X39.5355 Y56.9822
G1 X36.9959 Y59.5228 F400
G1 X36.9949 Y36.7766 F400
G1 X42.7411 Y36.7766
G1 X42.7411 Y59.5228
G1 X36.9949 Y59.5228
G1 X34.4560 Y60.4502 F400
G1 X34.4568 Y35.8502 F400
G3 X34.5786 Y35.2335 I1.6116 J0
G3 X34.9289 Y34.7106 I1.4898 J0.6167
G3 X35.4517 Y34.3604 I1.1395 J1.1395
G3 X36.0685 Y34.2385 I0.6167 J1.4898
G1 X43.6675 Y34.2385
G3 X44.2868 Y34.3604 I0 J1.6116
G3 X44.8096 Y34.7106 I-0.6167 J1.4898
G3 X45.1573 Y35.2335 I-1.1395 J1.1395
G3 X45.2817 Y35.8502 I-1.4898 J0.6167
G1 X45.2817 Y60.4492
G3 X45.1573 Y61.0685 I-1.6116 J0
G3 X44.8096 Y61.5913 I-1.4898 J-0.6167
G3 X44.2868 Y61.9390 I-1.1395 J-1.1395
G3 X43.6675 Y62.0634 I-0.6167 J-1.4898
G1 X36.0685 Y62.0634
G3 X35.4517 Y61.9390 I0 J-1.6116
G3 X34.9289 Y61.5913 I0.6167 J-1.4898
G3 X34.5786 Y61.0685 I1.1395 J-1.1395
G3 X34.4568 Y60.4492 I1.4898 J-0.6167
G0 Z1
G0 X39.5360 Y56.9827
G1 Z-4.1959 F200
G1 X39.5355 Y39.3172 F400
G1 X40.2005 Y39.3172
G1 X40.2005 Y56.9822
G1 X39.5355 Y56.9822
G1 X36.9959 Y59.5228 F400
G1 X36.9949 Y36.7766 F400
G1 X42.7411 Y36.7766
G1 X42.7411 Y59.5228
G1 X36.9949 Y59.5228
G1 X34.4560 Y60.4502 F400
G1 X34.4568 Y35.8502 F400
G3 X34.5786 Y35.2335 I1.6116 J0
G3 X34.9289 Y34.7106 I1.4898 J0.6167
G3 X35.4517 Y34.3604 I1.1395 J1.1395
G3 X36.0685 Y34.2385 I0.6167 J1.4898
G1 X43.6675 Y34.2385
G3 X44.2868 Y34.3604 I0 J1.6116
G3 X44.8096 Y34.7106 I-0.6167 J1.4898
G3 X45.1573 Y35.2335 I-1.1395 J1.1395
G3 X45.2817 Y35.8502 I-1.4898 J0.6167
G1 X45.2817 Y60.4492
G3 X45.1573 Y61.0685 I-1.6116 J0
G3 X44.8096 Y61.5913 I-1.4898 J-0.6167
G3 X44.2868 Y61.9390 I-1.1395 J-1.1395
G3 X43.6675 Y62.0634 I-0.6167 J-1.4898
G1 X36.0685 Y62.0634
G3 X35.4517 Y61.9390 I0 J-1.6116
G3 X34.9289 Y61.5913 I0.6167 J-1.4898
G3 X34.5786 Y61.0685 I1.1395 J-1.1395
G3 X34.4568 Y60.4492 I1.4898 J-0.6167
G0 Z1
G0 X39.5360 Y56.9827
G1 Z-4.2708 F200
G1 X39.5355 Y39.3172 F400
G1 X40.2005 Y39.3172
G1 X40.2005 Y56.9822
G1 X39.5355 Y56.9822
G1 X36.9959 Y59.5228 F400
G1 X36.9949 Y36.7766 F400
G1 X42.7411 Y36.7766
G1 X42.7411 Y59.5228
G1 X36.9949 Y59.5228
G1 X34.4560 Y60.4502 F400
G1 X34.4568 Y35.8502 F400
G3 X34.5786 Y35.2335 I1.6116 J0
G3 X34.9289 Y34.7106 I1.4898 J0.6167
G3 X35.4517 Y34.3604 I1.1395 J1.1395
G3 X36.0685 Y34.2385 I0.6167 J1.4898
G1 X43.6675 Y34.2385
G3 X44.2868 Y34.3604 I0 J1.6116
G3 X44.8096 Y34.7106 I-0.6167 J1.4898
G3 X45.1573 Y35.2335 I-1.1395 J1.1395
G3 X45.2817 Y35.8502 I-1.4898 J0.6167
G1 X45.2817 Y60.4492
G3 X45.1573 Y61.0685 I-1.6116 J0
G3 X44.8096 Y61.5913 I-1.4898 J-0.6167
G3 X44.2868 Y61.9390 I-1.1395 J-1.1395
G3 X43.6675 Y62.0634 I-0.6167 J-1.4898
G1 X36.0685 Y62.0634
G3 X35.4517 Y61.9390 I0 J-1.6116
G3 X34.9289 Y61.5913 I0.6167 J-1.4898
G3 X34.5786 Y61.0685 I1.1395 J-1.1395
G3 X34.4568 Y60.4492 I1.4898 J-0.6167
G0 Z1
G0 X39.5360 Y56.9827
G1 Z-4.3456 F200
G1 X39.5355 Y39.3172 F400
G1 X40.2005 Y39.3172
G1 X40.2005 Y56.9822
G1 X39.5355 Y56.9822
G1 X36.9959 Y59.5228 F400
G1 X36.9949 Y36.7766 F400
G1 X42.7411 Y36.7766
G1 X42.7411 Y59.5228
G1 X36.9949 Y59.5228
G1 X34.4560 Y60.4502 F400
G1 X34.4568 Y35.8502 F400
G3 X34.5786 Y35.2335 I1.6116 J0
G3 X34.9289 Y34.7106 I1.4898 J0.6167
G3 X35.4517 Y34.3604 I1.1395 J1.1395
G3 X36.0685 Y34.2385 I0.6167 J1.4898
G1 X43.6675 Y34.2385
G3 X44.2868 Y34.3604 I0 J1.6116
G3 X44.8096 Y34.7106 I-0.6167 J1.4898
G3 X45.1573 Y35.2335 I-1.1395 J1.1395
G3 X45.2817 Y35.8502 I-1.4898 J0.6167
G1 X45.2817 Y60.4492
G3 X45.1573 Y61.0685 I-1.6116 J0
G3 X44.8096 Y61.5913 I-1.4898 J-0.6167
G3 X44.2868 Y61.9390 I-1.1395 J-1.1395
G3 X43.6675 Y62.0634 I-0.6167 J-1.4898
G1 X36.0685 Y62.0634
G3 X35.4517 Y61.9390 I0 J-1.6116
G3 X34.9289 Y61.5913 I0.6167 J-1.4898
G3 X34.5786 Y61.0685 I1.1395 J-1.1395
G3 X34.4568 Y60.4492 I1.4898 J-0.6167
G0 Z1
G0 X39.5360 Y56.9827
G1 Z-4.4205 F200
G1 X39.5355 Y39.3172 F400
G1 X40.2005 Y39.3172
G1 X40.2005 Y56.9822
G1 X39.5355 Y56.9822
G1 X36.9959 Y59.5228 F400
G1 X36.9949 Y36.7766 F400
G1 X42.7411 Y36.7766
G1 X42.7411 Y59.5228
G1 X36.9949 Y59.5228
G1 X34.4560 Y60.4502 F400
G1 X34.4568 Y35.8502 F400
G3 X34.5786 Y35.2335 I1.6116 J0
G3 X34.9289 Y34.7106 I1.4898 J0.6167
G3 X35.4517 Y34.3604 I1.1395 J1.1395
G3 X36.0685 Y34.2385 I0.6167 J1.4898
G1 X43.6675 Y34.2385
G3 X44.2868 Y34.3604 I0 J1.6116
G3 X44.8096 Y34.7106 I-0.6167 J1.4898
G3 X45.1573 Y35.2335 I-1.1395 J1.1395
G3 X45.2817 Y35.8502 I-1.4898 J0.6167
G1 X45.2817 Y60.4492
G3 X45.1573 Y61.0685 I-1.6116 J0
G3 X44.8096 Y61.5913 I-1.4898 J-0.6167
G3 X44.2868 Y61.9390 I-1.1395 J-1.1395
G3 X43.6675 Y62.0634 I-0.6167 J-1.4898
G1 X36.0685 Y62.0634
G3 X35.4517 Y61.9390 I0 J-1.6116
G3 X34.9289 Y61.5913 I0.6167 J-1.4898
G3 X34.5786 Y61.0685 I1.1395 J-1.1395
G3 X34.4568 Y60.4492 I1.4898 J-0.6167
G0 Z1
G0 X39.5360 Y56.9827
G1 Z-4.4954 F200
G1 X39.5355 Y39.3172 F400
G1 X40.2005 Y39.3172
G1 X40.2005 Y56.9822
G1 X39.5355 Y56.9822
G1 X36.9959 Y59.5228 F400
G1 X36.9949 Y36.7766 F400
G1 X42.7411 Y36.7766
G1 X42.7411 Y59.5228
G1 X36.9949 Y59.5228
G1 X34.4560 Y60.4502 F400
G1 X34.4568 Y35.8502 F400
G3 X34.5786 Y35.2335 I1.6116 J0
G3 X34.9289 Y34.7106 I1.4898 J0.6167
G3 X35.4517 Y34.3604 I1.1395 J1.1395
G3 X36.0685 Y34.2385 I0.6167 J1.4898
G1 X43.6675 Y34.2385
G3 X44.2868 Y34.3604 I0 J1.6116
G3 X44.8096 Y34.7106 I-0.6167 J1.4898
G3 X45.1573 Y35.2335 I-1.1395 J1.1395
G3 X45.2817 Y35.8502 I-1.4898 J0.6167
G1 X45.2817 Y60.4492
G3 X45.1573 Y61.0685 I-1.6116 J0
G3 X44.8096 Y61.5913 I-1.4898 J-0.6167
G3 X44.2868 Y61.9390 I-1.1395 J-1.1395
G3 X43.6675 Y62.0634 I-0.6167 J-1.4898
G1 X36.0685 Y62.0634
G3 X35.4517 Y61.9390 I0 J-1.6116
G3 X34.9289 Y61.5913 I0.6167 J-1.4898
G3 X34.5786 Y61.0685 I1.1395 J-1.1395
G3 X34.4568 Y60.4492 I1.4898 J-0.6167
G0 Z1
G0 X39.5360 Y56.9827
G1 Z-4.5703 F200
G1 X39.5355 Y39.3172 F400
G1 X40.2005 Y39.3172
G1 X40.2005 Y56.9822
G1 X39.5355 Y56.9822
G1 X36.9959 Y59.5228 F400
G1 X36.9949 Y36.7766 F400
G1 X42.7411 Y36.7766
G1 X42.7411 Y59.5228
G1 X36.9949 Y59.5228
G1 X34.4560 Y60.4502 F400
G1 X34.4568 Y35.8502 F400
G3 X34.5786 Y35.2335 I1.6116 J0
G3 X34.9289 Y34.7106 I1.4898 J0.6167
G3 X35.4517 Y34.3604 I1.1395 J1.1395
G3 X36.0685 Y34.2385 I0.6167 J1.4898
G1 X43.6675 Y34.2385
G3 X44.2868 Y34.3604 I0 J1.6116
G3 X44.8096 Y34.7106 I-0.6167 J1.4898
G3 X45.1573 Y35.2335 I-1.1395 J1.1395
G3 X45.2817 Y35.8502 I-1.4898 J0.6167
G1 X45.2817 Y60.4492
G3 X45.1573 Y61.0685 I-1.6116 J0
G3 X44.8096 Y61.5913 I-1.4898 J-0.6167
G3 X44.2868 Y61.9390 I-1.1395 J-1.1395
G3 X43.6675 Y62.0634 I-0.6167 J-1.4898
G1 X36.0685 Y62.0634
G3 X35.4517 Y61.9390 I0 J-1.6116
G3 X34.9289 Y61.5913 I0.6167 J-1.4898
G3 X34.5786 Y61.0685 I1.1395 J-1.1395
G3 X34.4568 Y60.4492 I1.4898 J-0.6167
G0 Z1
G0 X39.5360 Y56.9827
G1 Z-4.6454 F200
G1 X39.5355 Y39.3172 F400
G1 X40.2005 Y39.3172
G1 X40.2005 Y56.9822
G1 X39.5355 Y56.9822
G1 X36.9959 Y59.5228 F400
G1 X36.9949 Y36.7766 F400
G1 X42.7411 Y36.7766
G1 X42.7411 Y59.5228
G1 X36.9949 Y59.5228
G1 X34.4560 Y60.4502 F400
G1 X34.4568 Y35.8502 F400
G3 X34.5786 Y35.2335 I1.6116 J0
G3 X34.9289 Y34.7106 I1.4898 J0.6167
G3 X35.4517 Y34.3604 I1.1395 J1.1395
G3 X36.0685 Y34.2385 I0.6167 J1.4898
G1 X43.6675 Y34.2385
G3 X44.2868 Y34.3604 I0 J1.6116
G3 X44.8096 Y34.7106 I-0.6167 J1.4898
G3 X45.1573 Y35.2335 I-1.1395 J1.1395
G3 X45.2817 Y35.8502 I-1.4898 J0.6167
G1 X45.2817 Y60.4492
G3 X45.1573 Y61.0685 I-1.6116 J0
G3 X44.8096 Y61.5913 I-1.4898 J-0.6167
G3 X44.2868 Y61.9390 I-1.1395 J-1.1395
G3 X43.6675 Y62.0634 I-0.6167 J-1.4898
G1 X36.0685 Y62.0634
G3 X35.4517 Y61.9390 I0 J-1.6116
G3 X34.9289 Y61.5913 I0.6167 J-1.4898
G3 X34.5786 Y61.0685 I1.1395 J-1.1395
G3 X34.4568 Y60.4492 I1.4898 J-0.6167
G0 Z1
G0 X39.5360 Y56.9827
G1 Z-4.7203 F200
G1 X39.5355 Y39.3172 F400
G1 X40.2005 Y39.3172
G1 X40.2005 Y56.9822
G1 X39.5355 Y56.9822
G1 X36.9959 Y59.5228 F400
G1 X36.9949 Y36.7766 F400
G1 X42.7411 Y36.7766
G1 X42.7411 Y59.5228
G1 X36.9949 Y59.5228
G1 X34.4560 Y60.4502 F400
G1 X34.4568 Y35.8502 F400
G3 X34.5786 Y35.2335 I1.6116 J0
G3 X34.9289 Y34.7106 I1.4898 J0.6167
G3 X35.4517 Y34.3604 I1.1395 J1.1395
G3 X36.0685 Y34.2385 I0.6167 J1.4898
G1 X43.6675 Y34.2385
G3 X44.2868 Y34.3604 I0 J1.6116
G3 X44.8096 Y34.7106 I-0.6167 J1.4898
G3 X45.1573 Y35.2335 I-1.1395 J1.1395
G3 X45.2817 Y35.8502 I-1.4898 J0.6167
G1 X45.2817 Y60.4492
G3 X45.1573 Y61.0685 I-1.6116 J0
G3 X44.8096 Y61.5913 I-1.4898 J-0.6167
G3 X44.2868 Y61.9390 I-1.1395 J-1.1395
G3 X43.6675 Y62.0634 I-0.6167 J-1.4898
G1 X36.0685 Y62.0634
G3 X35.4517 Y61.9390 I0 J-1.6116
G3 X34.9289 Y61.5913 I0.6167 J-1.4898
G3 X34.5786 Y61.0685 I1.1395 J-1.1395
G3 X34.4568 Y60.4492 I1.4898 J-0.6167
G0 Z1
G0 X39.5360 Y56.9827
G1 Z-4.7951 F200
G1 X39.5355 Y39.3172 F400
G1 X40.2005 Y39.3172
G1 X40.2005 Y56.9822
G1 X39.5355 Y56.9822
G1 X36.9959 Y59.5228 F400
G1 X36.9949 Y36.7766 F400
G1 X42.7411 Y36.7766
G1 X42.7411 Y59.5228
G1 X36.9949 Y59.5228
G1 X34.4560 Y60.4502 F400
G1 X34.4568 Y35.8502 F400
G3 X34.5786 Y35.2335 I1.6116 J0
G3 X34.9289 Y34.7106 I1.4898 J0.6167
G3 X35.4517 Y34.3604 I1.1395 J1.1395
G3 X36.0685 Y34.2385 I0.6167 J1.4898
G1 X43.6675 Y34.2385
G3 X44.2868 Y34.3604 I0 J1.6116
G3 X44.8096 Y34.7106 I-0.6167 J1.4898
G3 X45.1573 Y35.2335 I-1.1395 J1.1395
G3 X45.2817 Y35.8502 I-1.4898 J0.6167
G1 X45.2817 Y60.4492
G3 X45.1573 Y61.0685 I-1.6116 J0
G3 X44.8096 Y61.5913 I-1.4898 J-0.6167
G3 X44.2868 Y61.9390 I-1.1395 J-1.1395
G3 X43.6675 Y62.0634 I-0.6167 J-1.4898
G1 X36.0685 Y62.0634
G3 X35.4517 Y61.9390 I0 J-1.6116
G3 X34.9289 Y61.5913 I0.6167 J-1.4898
G3 X34.5786 Y61.0685 I1.1395 J-1.1395
G3 X34.4568 Y60.4492 I1.4898 J-0.6167
G0 Z1
G0 X39.5360 Y56.9827
G1 Z-4.8700 F200
G1 X39.5355 Y39.3172 F400
G1 X40.2005 Y39.3172
G1 X40.2005 Y56.9822
G1 X39.5355 Y56.9822
G1 X36.9959 Y59.5228 F400
G1 X36.9949 Y36.7766 F400
G1 X42.7411 Y36.7766
G1 X42.7411 Y59.5228
G1 X36.9949 Y59.5228
G1 X34.4560 Y60.4502 F400
G1 X34.4568 Y35.8502 F400
G3 X34.5786 Y35.2335 I1.6116 J0
G3 X34.9289 Y34.7106 I1.4898 J0.6167
G3 X35.4517 Y34.3604 I1.1395 J1.1395
G3 X36.0685 Y34.2385 I0.6167 J1.4898
G1 X43.6675 Y34.2385
G3 X44.2868 Y34.3604 I0 J1.6116
G3 X44.8096 Y34.7106 I-0.6167 J1.4898
G3 X45.1573 Y35.2335 I-1.1395 J1.1395
G3 X45.2817 Y35.8502 I-1.4898 J0.6167
G1 X45.2817 Y60.4492
G3 X45.1573 Y61.0685 I-1.6116 J0
G3 X44.8096 Y61.5913 I-1.4898 J-0.6167
G3 X44.2868 Y61.9390 I-1.1395 J-1.1395
G3 X43.6675 Y62.0634 I-0.6167 J-1.4898
G1 X36.0685 Y62.0634
G3 X35.4517 Y61.9390 I0 J-1.6116
G3 X34.9289 Y61.5913 I0.6167 J-1.4898
G3 X34.5786 Y61.0685 I1.1395 J-1.1395
G3 X34.4568 Y60.4492 I1.4898 J-0.6167
G0 Z1
G0 X39.5360 Y56.9827
G1 Z-4.9449 F200
G1 X39.5355 Y39.3172 F400
G1 X40.2005 Y39.3172
G1 X40.2005 Y56.9822
G1 X39.5355 Y56.9822
G1 X36.9959 Y59.5228 F400
G1 X36.9949 Y36.7766 F400
G1 X42.7411 Y36.7766
G1 X42.7411 Y59.5228
G1 X36.9949 Y59.5228
G1 X34.4560 Y60.4502 F400
G1 X34.4568 Y35.8502 F400
G3 X34.5786 Y35.2335 I1.6116 J0
G3 X34.9289 Y34.7106 I1.4898 J0.6167
G3 X35.4517 Y34.3604 I1.1395 J1.1395
G3 X36.0685 Y34.2385 I0.6167 J1.4898
G1 X43.6675 Y34.2385
G3 X44.2868 Y34.3604 I0 J1.6116
G3 X44.8096 Y34.7106 I-0.6167 J1.4898
G3 X45.1573 Y35.2335 I-1.1395 J1.1395
G3 X45.2817 Y35.8502 I-1.4898 J0.6167
G1 X45.2817 Y60.4492
G3 X45.1573 Y61.0685 I-1.6116 J0
G3 X44.8096 Y61.5913 I-1.4898 J-0.6167
G3 X44.2868 Y61.9390 I-1.1395 J-1.1395
G3 X43.6675 Y62.0634 I-0.6167 J-1.4898
G1 X36.0685 Y62.0634
G3 X35.4517 Y61.9390 I0 J-1.6116
G3 X34.9289 Y61.5913 I0.6167 J-1.4898
G3 X34.5786 Y61.0685 I1.1395 J-1.1395
G3 X34.4568 Y60.4492 I1.4898 J-0.6167
G0 Z1
G0 X39.5360 Y56.9827
G1 Z-5.0197 F200
G1 X39.5355 Y39.3172 F400
G1 X40.2005 Y39.3172
G1 X40.2005 Y56.9822
G1 X39.5355 Y56.9822
G1 X36.9959 Y59.5228 F400
G1 X36.9949 Y36.7766 F400
G1 X42.7411 Y36.7766
G1 X42.7411 Y59.5228
G1 X36.9949 Y59.5228
G1 X34.4560 Y60.4502 F400
G1 X34.4568 Y35.8502 F400
G3 X34.5786 Y35.2335 I1.6116 J0
G3 X34.9289 Y34.7106 I1.4898 J0.6167
G3 X35.4517 Y34.3604 I1.1395 J1.1395
G3 X36.0685 Y34.2385 I0.6167 J1.4898
G1 X43.6675 Y34.2385
G3 X44.2868 Y34.3604 I0 J1.6116
G3 X44.8096 Y34.7106 I-0.6167 J1.4898
G3 X45.1573 Y35.2335 I-1.1395 J1.1395
G3 X45.2817 Y35.8502 I-1.4898 J0.6167
G1 X45.2817 Y60.4492
G3 X45.1573 Y61.0685 I-1.6116 J0
G3 X44.8096 Y61.5913 I-1.4898 J-0.6167
G3 X44.2868 Y61.9390 I-1.1395 J-1.1395
G3 X43.6675 Y62.0634 I-0.6167 J-1.4898
G1 X36.0685 Y62.0634
G3 X35.4517 Y61.9390 I0 J-1.6116
G3 X34.9289 Y61.5913 I0.6167 J-1.4898
G3 X34.5786 Y61.0685 I1.1395 J-1.1395
G3 X34.4568 Y60.4492 I1.4898 J-0.6167
G0 Z1
G0 X39.5360 Y56.9827
G1 Z-5.0946 F200
G1 X39.5355 Y39.3172 F400
G1 X40.2005 Y39.3172
G1 X40.2005 Y56.9822
G1 X39.5355 Y56.9822
G1 X36.9959 Y59.5228 F400
G1 X36.9949 Y36.7766 F400
G1 X42.7411 Y36.7766
G1 X42.7411 Y59.5228
G1 X36.9949 Y59.5228
G1 X34.4560 Y60.4502 F400
G1 X34.4568 Y35.8502 F400
G3 X34.5786 Y35.2335 I1.6116 J0
G3 X34.9289 Y34.7106 I1.4898 J0.6167
G3 X35.4517 Y34.3604 I1.1395 J1.1395
G3 X36.0685 Y34.2385 I0.6167 J1.4898
G1 X43.6675 Y34.2385
G3 X44.2868 Y34.3604 I0 J1.6116
G3 X44.8096 Y34.7106 I-0.6167 J1.4898
G3 X45.1573 Y35.2335 I-1.1395 J1.1395
G3 X45.2817 Y35.8502 I-1.4898 J0.6167
G1 X45.2817 Y60.4492
G3 X45.1573 Y61.0685 I-1.6116 J0
G3 X44.8096 Y61.5913 I-1.4898 J-0.6167
G3 X44.2868 Y61.9390 I-1.1395 J-1.1395
G3 X43.6675 Y62.0634 I-0.6167 J-1.4898
G1 X36.0685 Y62.0634
G3 X35.4517 Y61.9390 I0 J-1.6116
G3 X34.9289 Y61.5913 I0.6167 J-1.4898
G3 X34.5786 Y61.0685 I1.1395 J-1.1395
G3 X34.4568 Y60.4492 I1.4898 J-0.6167
G0 Z1
G0 X39.5360 Y56.9827
G1 Z-5.1695 F200
G1 X39.5355 Y39.3172 F400
G1 X40.2005 Y39.3172
G1 X40.2005 Y56.9822
G1 X39.5355 Y56.9822
G1 X36.9959 Y59.5228 F400
G1 X36.9949 Y36.7766 F400
G1 X42.7411 Y36.7766
G1 X42.7411 Y59.5228
G1 X36.9949 Y59.5228
G1 X34.4560 Y60.4502 F400
G1 X34.4568 Y35.8502 F400
G3 X34.5786 Y35.2335 I1.6116 J0
G3 X34.9289 Y34.7106 I1.4898 J0.6167
G3 X35.4517 Y34.3604 I1.1395 J1.1395
G3 X36.0685 Y34.2385 I0.6167 J1.4898
G1 X43.6675 Y34.2385
G3 X44.2868 Y34.3604 I0 J1.6116
G3 X44.8096 Y34.7106 I-0.6167 J1.4898
G3 X45.1573 Y35.2335 I-1.1395 J1.1395
G3 X45.2817 Y35.8502 I-1.4898 J0.6167
G1 X45.2817 Y60.4492
G3 X45.1573 Y61.0685 I-1.6116 J0
G3 X44.8096 Y61.5913 I-1.4898 J-0.6167
G3 X44.2868 Y61.9390 I-1.1395 J-1.1395
G3 X43.6675 Y62.0634 I-0.6167 J-1.4898
G1 X36.0685 Y62.0634
G3 X35.4517 Y61.9390 I0 J-1.6116
G3 X34.9289 Y61.5913 I0.6167 J-1.4898
G3 X34.5786 Y61.0685 I1.1395 J-1.1395
G3 X34.4568 Y60.4492 I1.4898 J-0.6167
G0 Z1
G0 X39.5360 Y56.9827
G1 Z-5.2446 F200
G1 X39.5355 Y39.3172 F400
G1 X40.2005 Y39.3172
G1 X40.2005 Y56.9822
G1 X39.5355 Y56.9822
G1 X36.9959 Y59.5228 F400
G1 X36.9949 Y36.7766 F400
G1 X42.7411 Y36.7766
G1 X42.7411 Y59.5228
G1 X36.9949 Y59.5228
G1 X34.4560 Y60.4502 F400
G1 X34.4568 Y35.8502 F400
G3 X34.5786 Y35.2335 I1.6116 J0
G3 X34.9289 Y34.7106 I1.4898 J0.6167
G3 X35.4517 Y34.3604 I1.1395 J1.1395
G3 X36.0685 Y34.2385 I0.6167 J1.4898
G1 X43.6675 Y34.2385
G3 X44.2868 Y34.3604 I0 J1.6116
G3 X44.8096 Y34.7106 I-0.6167 J1.4898
G3 X45.1573 Y35.2335 I-1.1395 J1.1395
G3 X45.2817 Y35.8502 I-1.4898 J0.6167
G1 X45.2817 Y60.4492
G3 X45.1573 Y61.0685 I-1.6116 J0
G3 X44.8096 Y61.5913 I-1.4898 J-0.6167
G3 X44.2868 Y61.9390 I-1.1395 J-1.1395
G3 X43.6675 Y62.0634 I-0.6167 J-1.4898
G1 X36.0685 Y62.0634
G3 X35.4517 Y61.9390 I0 J-1.6116
G3 X34.9289 Y61.5913 I0.6167 J-1.4898
G3 X34.5786 Y61.0685 I1.1395 J-1.1395
G3 X34.4568 Y60.4492 I1.4898 J-0.6167
G0 Z1
G0 X39.5360 Y56.9827
G1 Z-5.3195 F200
G1 X39.5355 Y39.3172 F400
G1 X40.2005 Y39.3172
G1 X40.2005 Y56.9822
G1 X39.5355 Y56.9822
G1 X36.9959 Y59.5228 F400
G1 X36.9949 Y36.7766 F400
G1 X42.7411 Y36.7766
G1 X42.7411 Y59.5228
G1 X36.9949 Y59.5228
G1 X34.4560 Y60.4502 F400
G1 X34.4568 Y35.8502 F400
G3 X34.5786 Y35.2335 I1.6116 J0
G3 X34.9289 Y34.7106 I1.4898 J0.6167
G3 X35.4517 Y34.3604 I1.1395 J1.1395
G3 X36.0685 Y34.2385 I0.6167 J1.4898
G1 X43.6675 Y34.2385
G3 X44.2868 Y34.3604 I0 J1.6116
G3 X44.8096 Y34.7106 I-0.6167 J1.4898
G3 X45.1573 Y35.2335 I-1.1395 J1.1395
G3 X45.2817 Y35.8502 I-1.4898 J0.6167
G1 X45.2817 Y60.4492
G3 X45.1573 Y61.0685 I-1.6116 J0
G3 X44.8096 Y61.5913 I-1.4898 J-0.6167
G3 X44.2868 Y61.9390 I-1.1395 J-1.1395
G3 X43.6675 Y62.0634 I-0.6167 J-1.4898
G1 X36.0685 Y62.0634
G3 X35.4517 Y61.9390 I0 J-1.6116
G3 X34.9289 Y61.5913 I0.6167 J-1.4898
G3 X34.5786 Y61.0685 I1.1395 J-1.1395
G3 X34.4568 Y60.4492 I1.4898 J-0.6167
G0 Z1
G0 X39.5360 Y56.9827
G1 Z-5.3944 F200
G1 X39.5355 Y39.3172 F400
G1 X40.2005 Y39.3172
G1 X40.2005 Y56.9822
G1 X39.5355 Y56.9822
G1 X36.9959 Y59.5228 F400
G1 X36.9949 Y36.7766 F400
G1 X42.7411 Y36.7766
G1 X42.7411 Y59.5228
G1 X36.9949 Y59.5228
G1 X34.4560 Y60.4502 F400
G1 X34.4568 Y35.8502 F400
G3 X34.5786 Y35.2335 I1.6116 J0
G3 X34.9289 Y34.7106 I1.4898 J0.6167
G3 X35.4517 Y34.3604 I1.1395 J1.1395
G3 X36.0685 Y34.2385 I0.6167 J1.4898
G1 X43.6675 Y34.2385
G3 X44.2868 Y34.3604 I0 J1.6116
G3 X44.8096 Y34.7106 I-0.6167 J1.4898
G3 X45.1573 Y35.2335 I-1.1395 J1.1395
G3 X45.2817 Y35.8502 I-1.4898 J0.6167
G1 X45.2817 Y60.4492
G3 X45.1573 Y61.0685 I-1.6116 J0
G3 X44.8096 Y61.5913 I-1.4898 J-0.6167
G3 X44.2868 Y61.9390 I-1.1395 J-1.1395
G3 X43.6675 Y62.0634 I-0.6167 J-1.4898
G1 X36.0685 Y62.0634
G3 X35.4517 Y61.9390 I0 J-1.6116
G3 X34.9289 Y61.5913 I0.6167 J-1.4898
G3 X34.5786 Y61.0685 I1.1395 J-1.1395
G3 X34.4568 Y60.4492 I1.4898 J-0.6167
G0 Z1
G0 X39.5360 Y56.9827
G1 Z-5.4692 F200
G1 X39.5355 Y39.3172 F400
G1 X40.2005 Y39.3172
G1 X40.2005 Y56.9822
G1 X39.5355 Y56.9822
G1 X36.9959 Y59.5228 F400
G1 X36.9949 Y36.7766 F400
G1 X42.7411 Y36.7766
G1 X42.7411 Y59.5228
G1 X36.9949 Y59.5228
G1 X34.4560 Y60.4502 F400
G1 X34.4568 Y35.8502 F400
G3 X34.5786 Y35.2335 I1.6116 J0
G3 X34.9289 Y34.7106 I1.4898 J0.6167
G3 X35.4517 Y34.3604 I1.1395 J1.1395
G3 X36.0685 Y34.2385 I0.6167 J1.4898
G1 X43.6675 Y34.2385
G3 X44.2868 Y34.3604 I0 J1.6116
G3 X44.8096 Y34.7106 I-0.6167 J1.4898
G3 X45.1573 Y35.2335 I-1.1395 J1.1395
G3 X45.2817 Y35.8502 I-1.4898 J0.6167
G1 X45.2817 Y60.4492
G3 X45.1573 Y61.0685 I-1.6116 J0
G3 X44.8096 Y61.5913 I-1.4898 J-0.6167
G3 X44.2868 Y61.9390 I-1.1395 J-1.1395
G3 X43.6675 Y62.0634 I-0.6167 J-1.4898
G1 X36.0685 Y62.0634
G3 X35.4517 Y61.9390 I0 J-1.6116
G3 X34.9289 Y61.5913 I0.6167 J-1.4898
G3 X34.5786 Y61.0685 I1.1395 J-1.1395
G3 X34.4568 Y60.4492 I1.4898 J-0.6167
G0 Z1
G0 X39.5360 Y56.9827
G1 Z-5.5441 F200
G1 X39.5355 Y39.3172 F400
G1 X40.2005 Y39.3172
G1 X40.2005 Y56.9822
G1 X39.5355 Y56.9822
G1 X36.9959 Y59.5228 F400
G1 X36.9949 Y36.7766 F400
G1 X42.7411 Y36.7766
G1 X42.7411 Y59.5228
G1 X36.9949 Y59.5228
G1 X34.4560 Y60.4502 F400
G1 X34.4568 Y35.8502 F400
G3 X34.5786 Y35.2335 I1.6116 J0
G3 X34.9289 Y34.7106 I1.4898 J0.6167
G3 X35.4517 Y34.3604 I1.1395 J1.1395
G3 X36.0685 Y34.2385 I0.6167 J1.4898
G1 X43.6675 Y34.2385
G3 X44.2868 Y34.3604 I0 J1.6116
G3 X44.8096 Y34.7106 I-0.6167 J1.4898
G3 X45.1573 Y35.2335 I-1.1395 J1.1395
G3 X45.2817 Y35.8502 I-1.4898 J0.6167
G1 X45.2817 Y60.4492
G3 X45.1573 Y61.0685 I-1.6116 J0
G3 X44.8096 Y61.5913 I-1.4898 J-0.6167
G3 X44.2868 Y61.9390 I-1.1395 J-1.1395
G3 X43.6675 Y62.0634 I-0.6167 J-1.4898
G1 X36.0685 Y62.0634
G3 X35.4517 Y61.9390 I0 J-1.6116
G3 X34.9289 Y61.5913 I0.6167 J-1.4898
G3 X34.5786 Y61.0685 I1.1395 J-1.1395
G3 X34.4568 Y60.4492 I1.4898 J-0.6167
G0 Z1
G0 X39.5360 Y56.9827
G1 Z-5.6190 F200
G1 X39.5355 Y39.3172 F400
G1 X40.2005 Y39.3172
G1 X40.2005 Y56.9822
G1 X39.5355 Y56.9822
G1 X36.9959 Y59.5228 F400
G1 X36.9949 Y36.7766 F400
G1 X42.7411 Y36.7766
G1 X42.7411 Y59.5228
G1 X36.9949 Y59.5228
G1 X34.4560 Y60.4502 F400
G1 X34.4568 Y35.8502 F400
G3 X34.5786 Y35.2335 I1.6116 J0
G3 X34.9289 Y34.7106 I1.4898 J0.6167
G3 X35.4517 Y34.3604 I1.1395 J1.1395
G3 X36.0685 Y34.2385 I0.6167 J1.4898
G1 X43.6675 Y34.2385
G3 X44.2868 Y34.3604 I0 J1.6116
G3 X44.8096 Y34.7106 I-0.6167 J1.4898
G3 X45.1573 Y35.2335 I-1.1395 J1.1395
G3 X45.2817 Y35.8502 I-1.4898 J0.6167
G1 X45.2817 Y60.4492
G3 X45.1573 Y61.0685 I-1.6116 J0
G3 X44.8096 Y61.5913 I-1.4898 J-0.6167
G3 X44.2868 Y61.9390 I-1.1395 J-1.1395
G3 X43.6675 Y62.0634 I-0.6167 J-1.4898
G1 X36.0685 Y62.0634
G3 X35.4517 Y61.9390 I0 J-1.6116
G3 X34.9289 Y61.5913 I0.6167 J-1.4898
G3 X34.5786 Y61.0685 I1.1395 J-1.1395
G3 X34.4568 Y60.4492 I1.4898 J-0.6167
G0 Z1
G0 X39.5360 Y56.9827
G1 Z-5.6939 F200
G1 X39.5355 Y39.3172 F400
G1 X40.2005 Y39.3172
G1 X40.2005 Y56.9822
G1 X39.5355 Y56.9822
G1 X36.9959 Y59.5228 F400
G1 X36.9949 Y36.7766 F400
G1 X42.7411 Y36.7766
G1 X42.7411 Y59.5228
G1 X36.9949 Y59.5228
G1 X34.4560 Y60.4502 F400
G1 X34.4568 Y35.8502 F400
G3 X34.5786 Y35.2335 I1.6116 J0
G3 X34.9289 Y34.7106 I1.4898 J0.6167
G3 X35.4517 Y34.3604 I1.1395 J1.1395
G3 X36.0685 Y34.2385 I0.6167 J1.4898
G1 X43.6675 Y34.2385
G3 X44.2868 Y34.3604 I0 J1.6116
G3 X44.8096 Y34.7106 I-0.6167 J1.4898
G3 X45.1573 Y35.2335 I-1.1395 J1.1395
G3 X45.2817 Y35.8502 I-1.4898 J0.6167
G1 X45.2817 Y60.4492
G3 X45.1573 Y61.0685 I-1.6116 J0
G3 X44.8096 Y61.5913 I-1.4898 J-0.6167
G3 X44.2868 Y61.9390 I-1.1395 J-1.1395
G3 X43.6675 Y62.0634 I-0.6167 J-1.4898
G1 X36.0685 Y62.0634
G3 X35.4517 Y61.9390 I0 J-1.6116
G3 X34.9289 Y61.5913 I0.6167 J-1.4898
G3 X34.5786 Y61.0685 I1.1395 J-1.1395
G3 X34.4568 Y60.4492 I1.4898 J-0.6167
G0 Z1
G0 X39.5360 Y56.9827
G1 Z-5.7687 F200
G1 X39.5355 Y39.3172 F400
G1 X40.2005 Y39.3172
G1 X40.2005 Y56.9822
G1 X39.5355 Y56.9822
G1 X36.9959 Y59.5228 F400
G1 X36.9949 Y36.7766 F400
G1 X42.7411 Y36.7766
G1 X42.7411 Y59.5228
G1 X36.9949 Y59.5228
G1 X34.4560 Y60.4502 F400
G1 X34.4568 Y35.8502 F400
G3 X34.5786 Y35.2335 I1.6116 J0
G3 X34.9289 Y34.7106 I1.4898 J0.6167
G3 X35.4517 Y34.3604 I1.1395 J1.1395
G3 X36.0685 Y34.2385 I0.6167 J1.4898
G1 X43.6675 Y34.2385
G3 X44.2868 Y34.3604 I0 J1.6116
G3 X44.8096 Y34.7106 I-0.6167 J1.4898
G3 X45.1573 Y35.2335 I-1.1395 J1.1395
G3 X45.2817 Y35.8502 I-1.4898 J0.6167
G1 X45.2817 Y60.4492
G3 X45.1573 Y61.0685 I-1.6116 J0
G3 X44.8096 Y61.5913 I-1.4898 J-0.6167
G3 X44.2868 Y61.9390 I-1.1395 J-1.1395
G3 X43.6675 Y62.0634 I-0.6167 J-1.4898
G1 X36.0685 Y62.0634
G3 X35.4517 Y61.9390 I0 J-1.6116
G3 X34.9289 Y61.5913 I0.6167 J-1.4898
G3 X34.5786 Y61.0685 I1.1395 J-1.1395
G3 X34.4568 Y60.4492 I1.4898 J-0.6167
G0 Z1
G0 X39.5360 Y56.9827
G1 Z-5.8439 F200
G1 X39.5355 Y39.3172 F400
G1 X40.2005 Y39.3172
G1 X40.2005 Y56.9822
G1 X39.5355 Y56.9822
G1 X36.9959 Y59.5228 F400
G1 X36.9949 Y36.7766 F400
G1 X42.7411 Y36.7766
G1 X42.7411 Y59.5228
G1 X36.9949 Y59.5228
G1 X34.4560 Y60.4502 F400
G1 X34.4568 Y35.8502 F400
G3 X34.5786 Y35.2335 I1.6116 J0
G3 X34.9289 Y34.7106 I1.4898 J0.6167
G3 X35.4517 Y34.3604 I1.1395 J1.1395
G3 X36.0685 Y34.2385 I0.6167 J1.4898
G1 X43.6675 Y34.2385
G3 X44.2868 Y34.3604 I0 J1.6116
G3 X44.8096 Y34.7106 I-0.6167 J1.4898
G3 X45.1573 Y35.2335 I-1.1395 J1.1395
G3 X45.2817 Y35.8502 I-1.4898 J0.6167
G1 X45.2817 Y60.4492
G3 X45.1573 Y61.0685 I-1.6116 J0
G3 X44.8096 Y61.5913 I-1.4898 J-0.6167
G3 X44.2868 Y61.9390 I-1.1395 J-1.1395
G3 X43.6675 Y62.0634 I-0.6167 J-1.4898
G1 X36.0685 Y62.0634
G3 X35.4517 Y61.9390 I0 J-1.6116
G3 X34.9289 Y61.5913 I0.6167 J-1.4898
G3 X34.5786 Y61.0685 I1.1395 J-1.1395
G3 X34.4568 Y60.4492 I1.4898 J-0.6167
G0 Z1
G0 X39.5360 Y56.9827
G1 Z-5.9187 F200
G1 X39.5355 Y39.3172 F400
G1 X40.2005 Y39.3172
G1 X40.2005 Y56.9822
G1 X39.5355 Y56.9822
G1 X36.9959 Y59.5228 F400
G1 X36.9949 Y36.7766 F400
G1 X42.7411 Y36.7766
G1 X42.7411 Y59.5228
G1 X36.9949 Y59.5228
G1 X34.4560 Y60.4502 F400
G1 X34.4568 Y35.8502 F400
G3 X34.5786 Y35.2335 I1.6116 J0
G3 X34.9289 Y34.7106 I1.4898 J0.6167
G3 X35.4517 Y34.3604 I1.1395 J1.1395
G3 X36.0685 Y34.2385 I0.6167 J1.4898
G1 X43.6675 Y34.2385
G3 X44.2868 Y34.3604 I0 J1.6116
G3 X44.8096 Y34.7106 I-0.6167 J1.4898
G3 X45.1573 Y35.2335 I-1.1395 J1.1395
G3 X45.2817 Y35.8502 I-1.4898 J0.6167
G1 X45.2817 Y60.4492
G3 X45.1573 Y61.0685 I-1.6116 J0
G3 X44.8096 Y61.5913 I-1.4898 J-0.6167
G3 X44.2868 Y61.9390 I-1.1395 J-1.1395
G3 X43.6675 Y62.0634 I-0.6167 J-1.4898
G1 X36.0685 Y62.0634
G3 X35.4517 Y61.9390 I0 J-1.6116
G3 X34.9289 Y61.5913 I0.6167 J-1.4898
G3 X34.5786 Y61.0685 I1.1395 J-1.1395
G3 X34.4568 Y60.4492 I1.4898 J-0.6167
G0 Z1
G0 X39.5360 Y56.9827
G1 Z-5.9936 F200
G1 X39.5355 Y39.3172 F400
G1 X40.2005 Y39.3172
G1 X40.2005 Y56.9822
G1 X39.5355 Y56.9822
G1 X36.9959 Y59.5228 F400
G1 X36.9949 Y36.7766 F400
G1 X42.7411 Y36.7766
G1 X42.7411 Y59.5228
G1 X36.9949 Y59.5228
G1 X34.4560 Y60.4502 F400
G1 X34.4568 Y35.8502 F400
G3 X34.5786 Y35.2335 I1.6116 J0
G3 X34.9289 Y34.7106 I1.4898 J0.6167
G3 X35.4517 Y34.3604 I1.1395 J1.1395
G3 X36.0685 Y34.2385 I0.6167 J1.4898
G1 X43.6675 Y34.2385
G3 X44.2868 Y34.3604 I0 J1.6116
G3 X44.8096 Y34.7106 I-0.6167 J1.4898
G3 X45.1573 Y35.2335 I-1.1395 J1.1395
G3 X45.2817 Y35.8502 I-1.4898 J0.6167
G1 X45.2817 Y60.4492
G3 X45.1573 Y61.0685 I-1.6116 J0
G3 X44.8096 Y61.5913 I-1.4898 J-0.6167
G3 X44.2868 Y61.9390 I-1.1395 J-1.1395
G3 X43.6675 Y62.0634 I-0.6167 J-1.4898
G1 X36.0685 Y62.0634
G3 X35.4517 Y61.9390 I0 J-1.6116
G3 X34.9289 Y61.5913 I0.6167 J-1.4898
G3 X34.5786 Y61.0685 I1.1395 J-1.1395
G3 X34.4568 Y60.4492 I1.4898 J-0.6167
G0 Z1
G0 X39.5360 Y56.9827
G1 Z-6.0685 F200
G1 X39.5355 Y39.3172 F400
G1 X40.2005 Y39.3172
G1 X40.2005 Y56.9822
G1 X39.5355 Y56.9822
G1 X36.9959 Y59.5228 F400
G1 X36.9949 Y36.7766 F400
G1 X42.7411 Y36.7766
G1 X42.7411 Y59.5228
G1 X36.9949 Y59.5228
G1 X34.4560 Y60.4502 F400
G1 X34.4568 Y35.8502 F400
G3 X34.5786 Y35.2335 I1.6116 J0
G3 X34.9289 Y34.7106 I1.4898 J0.6167
G3 X35.4517 Y34.3604 I1.1395 J1.1395
G3 X36.0685 Y34.2385 I0.6167 J1.4898
G1 X43.6675 Y34.2385
G3 X44.2868 Y34.3604 I0 J1.6116
G3 X44.8096 Y34.7106 I-0.6167 J1.4898
G3 X45.1573 Y35.2335 I-1.1395 J1.1395
G3 X45.2817 Y35.8502 I-1.4898 J0.6167
G1 X45.2817 Y60.4492
G3 X45.1573 Y61.0685 I-1.6116 J0
G3 X44.8096 Y61.5913 I-1.4898 J-0.6167
G3 X44.2868 Y61.9390 I-1.1395 J-1.1395
G3 X43.6675 Y62.0634 I-0.6167 J-1.4898
G1 X36.0685 Y62.0634
G3 X35.4517 Y61.9390 I0 J-1.6116
G3 X34.9289 Y61.5913 I0.6167 J-1.4898
G3 X34.5786 Y61.0685 I1.1395 J-1.1395
G3 X34.4568 Y60.4492 I1.4898 J-0.6167
G0 Z1
G0 X39.5360 Y56.9827
G1 Z-6.1434 F200
G1 X39.5355 Y39.3172 F400
G1 X40.2005 Y39.3172
G1 X40.2005 Y56.9822
G1 X39.5355 Y56.9822
G1 X36.9959 Y59.5228 F400
G1 X36.9949 Y36.7766 F400
G1 X42.7411 Y36.7766
G1 X42.7411 Y59.5228
G1 X36.9949 Y59.5228
G1 X34.4560 Y60.4502 F400
G1 X34.4568 Y35.8502 F400
G3 X34.5786 Y35.2335 I1.6116 J0
G3 X34.9289 Y34.7106 I1.4898 J0.6167
G3 X35.4517 Y34.3604 I1.1395 J1.1395
G3 X36.0685 Y34.2385 I0.6167 J1.4898
G1 X43.6675 Y34.2385
G3 X44.2868 Y34.3604 I0 J1.6116
G3 X44.8096 Y34.7106 I-0.6167 J1.4898
G3 X45.1573 Y35.2335 I-1.1395 J1.1395
G3 X45.2817 Y35.8502 I-1.4898 J0.6167
G1 X45.2817 Y60.4492
G3 X45.1573 Y61.0685 I-1.6116 J0
G3 X44.8096 Y61.5913 I-1.4898 J-0.6167
G3 X44.2868 Y61.9390 I-1.1395 J-1.1395
G3 X43.6675 Y62.0634 I-0.6167 J-1.4898
G1 X36.0685 Y62.0634
G3 X35.4517 Y61.9390 I0 J-1.6116
G3 X34.9289 Y61.5913 I0.6167 J-1.4898
G3 X34.5786 Y61.0685 I1.1395 J-1.1395
G3 X34.4568 Y60.4492 I1.4898 J-0.6167
G0 Z1
G0 X39.5360 Y56.9827
G1 Z-6.2182 F200
G1 X39.5355 Y39.3172 F400
G1 X40.2005 Y39.3172
G1 X40.2005 Y56.9822
G1 X39.5355 Y56.9822
G1 X36.9959 Y59.5228 F400
G1 X36.9949 Y36.7766 F400
G1 X42.7411 Y36.7766
G1 X42.7411 Y59.5228
G1 X36.9949 Y59.5228
G1 X34.4560 Y60.4502 F400
G1 X34.4568 Y35.8502 F400
G3 X34.5786 Y35.2335 I1.6116 J0
G3 X34.9289 Y34.7106 I1.4898 J0.6167
G3 X35.4517 Y34.3604 I1.1395 J1.1395
G3 X36.0685 Y34.2385 I0.6167 J1.4898
G1 X43.6675 Y34.2385
G3 X44.2868 Y34.3604 I0 J1.6116
G3 X44.8096 Y34.7106 I-0.6167 J1.4898
G3 X45.1573 Y35.2335 I-1.1395 J1.1395
G3 X45.2817 Y35.8502 I-1.4898 J0.6167
G1 X45.2817 Y60.4492
G3 X45.1573 Y61.0685 I-1.6116 J0
G3 X44.8096 Y61.5913 I-1.4898 J-0.6167
G3 X44.2868 Y61.9390 I-1.1395 J-1.1395
G3 X43.6675 Y62.0634 I-0.6167 J-1.4898
G1 X36.0685 Y62.0634
G3 X35.4517 Y61.9390 I0 J-1.6116
G3 X34.9289 Y61.5913 I0.6167 J-1.4898
G3 X34.5786 Y61.0685 I1.1395 J-1.1395
G3 X34.4568 Y60.4492 I1.4898 J-0.6167
G0 Z1
G0 X39.5360 Y56.9827
G1 Z-6.2931 F200
G1 X39.5355 Y39.3172 F400
G1 X40.2005 Y39.3172
G1 X40.2005 Y56.9822
G1 X39.5355 Y56.9822
G1 X36.9959 Y59.5228 F400
G1 X36.9949 Y36.7766 F400
G1 X42.7411 Y36.7766
G1 X42.7411 Y59.5228
G1 X36.9949 Y59.5228
G1 X34.4560 Y60.4502 F400
G1 X34.4568 Y35.8502 F400
G3 X34.5786 Y35.2335 I1.6116 J0
G3 X34.9289 Y34.7106 I1.4898 J0.6167
G3 X35.4517 Y34.3604 I1.1395 J1.1395
G3 X36.0685 Y34.2385 I0.6167 J1.4898
G1 X43.6675 Y34.2385
G3 X44.2868 Y34.3604 I0 J1.6116
G3 X44.8096 Y34.7106 I-0.6167 J1.4898
G3 X45.1573 Y35.2335 I-1.1395 J1.1395
G3 X45.2817 Y35.8502 I-1.4898 J0.6167
G1 X45.2817 Y60.4492
G3 X45.1573 Y61.0685 I-1.6116 J0
G3 X44.8096 Y61.5913 I-1.4898 J-0.6167
G3 X44.2868 Y61.9390 I-1.1395 J-1.1395
G3 X43.6675 Y62.0634 I-0.6167 J-1.4898
G1 X36.0685 Y62.0634
G3 X35.4517 Y61.9390 I0 J-1.6116
G3 X34.9289 Y61.5913 I0.6167 J-1.4898
G3 X34.5786 Y61.0685 I1.1395 J-1.1395
G3 X34.4568 Y60.4492 I1.4898 J-0.6167
G0 Z1
G0 X39.5360 Y56.9827
G1 Z-6.3680 F200
G1 X39.5355 Y39.3172 F400
G1 X40.2005 Y39.3172
G1 X40.2005 Y56.9822
G1 X39.5355 Y56.9822
G1 X36.9959 Y59.5228 F400
G1 X36.9949 Y36.7766 F400
G1 X42.7411 Y36.7766
G1 X42.7411 Y59.5228
G1 X36.9949 Y59.5228
G1 X34.4560 Y60.4502 F400
G1 X34.4568 Y35.8502 F400
G3 X34.5786 Y35.2335 I1.6116 J0
G3 X34.9289 Y34.7106 I1.4898 J0.6167
G3 X35.4517 Y34.3604 I1.1395 J1.1395
G3 X36.0685 Y34.2385 I0.6167 J1.4898
G1 X43.6675 Y34.2385
G3 X44.2868 Y34.3604 I0 J1.6116
G3 X44.8096 Y34.7106 I-0.6167 J1.4898
G3 X45.1573 Y35.2335 I-1.1395 J1.1395
G3 X45.2817 Y35.8502 I-1.4898 J0.6167
G1 X45.2817 Y60.4492
G3 X45.1573 Y61.0685 I-1.6116 J0
G3 X44.8096 Y61.5913 I-1.4898 J-0.6167
G3 X44.2868 Y61.9390 I-1.1395 J-1.1395
G3 X43.6675 Y62.0634 I-0.6167 J-1.4898
G1 X36.0685 Y62.0634
G3 X35.4517 Y61.9390 I0 J-1.6116
G3 X34.9289 Y61.5913 I0.6167 J-1.4898
G3 X34.5786 Y61.0685 I1.1395 J-1.1395
G3 X34.4568 Y60.4492 I1.4898 J-0.6167
G0 Z1
G0 X39.5360 Y56.9827
G1 Z-6.4428 F200
G1 X39.5355 Y39.3172 F400
G1 X40.2005 Y39.3172
G1 X40.2005 Y56.9822
G1 X39.5355 Y56.9822
G1 X36.9959 Y59.5228 F400
G1 X36.9949 Y36.7766 F400
G1 X42.7411 Y36.7766
G1 X42.7411 Y59.5228
G1 X36.9949 Y59.5228
G1 X34.4560 Y60.4502 F400
G1 X34.4568 Y35.8502 F400
G3 X34.5786 Y35.2335 I1.6116 J0
G3 X34.9289 Y34.7106 I1.4898 J0.6167
G3 X35.4517 Y34.3604 I1.1395 J1.1395
G3 X36.0685 Y34.2385 I0.6167 J1.4898
G1 X43.6675 Y34.2385
G3 X44.2868 Y34.3604 I0 J1.6116
G3 X44.8096 Y34.7106 I-0.6167 J1.4898
G3 X45.1573 Y35.2335 I-1.1395 J1.1395
G3 X45.2817 Y35.8502 I-1.4898 J0.6167
G1 X45.2817 Y60.4492
G3 X45.1573 Y61.0685 I-1.6116 J0
G3 X44.8096 Y61.5913 I-1.4898 J-0.6167
G3 X44.2868 Y61.9390 I-1.1395 J-1.1395
G3 X43.6675 Y62.0634 I-0.6167 J-1.4898
G1 X36.0685 Y62.0634
G3 X35.4517 Y61.9390 I0 J-1.6116
G3 X34.9289 Y61.5913 I0.6167 J-1.4898
G3 X34.5786 Y61.0685 I1.1395 J-1.1395
G3 X34.4568 Y60.4492 I1.4898 J-0.6167
G0 Z1
G0 X39.5360 Y56.9827
G1 Z-6.5180 F200
G1 X39.5355 Y39.3172 F400
G1 X40.2005 Y39.3172
G1 X40.2005 Y56.9822
G1 X39.5355 Y56.9822
G1 X36.9959 Y59.5228 F400
G1 X36.9949 Y36.7766 F400
G1 X42.7411 Y36.7766
G1 X42.7411 Y59.5228
G1 X36.9949 Y59.5228
G1 X34.4560 Y60.4502 F400
G1 X34.4568 Y35.8502 F400
G3 X34.5786 Y35.2335 I1.6116 J0
G3 X34.9289 Y34.7106 I1.4898 J0.6167
G3 X35.4517 Y34.3604 I1.1395 J1.1395
G3 X36.0685 Y34.2385 I0.6167 J1.4898
G1 X43.6675 Y34.2385
G3 X44.2868 Y34.3604 I0 J1.6116
G3 X44.8096 Y34.7106 I-0.6167 J1.4898
G3 X45.1573 Y35.2335 I-1.1395 J1.1395
G3 X45.2817 Y35.8502 I-1.4898 J0.6167
G1 X45.2817 Y60.4492
G3 X45.1573 Y61.0685 I-1.6116 J0
G3 X44.8096 Y61.5913 I-1.4898 J-0.6167
G3 X44.2868 Y61.9390 I-1.1395 J-1.1395
G3 X43.6675 Y62.0634 I-0.6167 J-1.4898
G1 X36.0685 Y62.0634
G3 X35.4517 Y61.9390 I0 J-1.6116
G3 X34.9289 Y61.5913 I0.6167 J-1.4898
G3 X34.5786 Y61.0685 I1.1395 J-1.1395
G3 X34.4568 Y60.4492 I1.4898 J-0.6167
G0 Z1
G0 X39.5360 Y56.9827
G1 Z-6.5928 F200
G1 X39.5355 Y39.3172 F400
G1 X40.2005 Y39.3172
G1 X40.2005 Y56.9822
G1 X39.5355 Y56.9822
G1 X36.9959 Y59.5228 F400
G1 X36.9949 Y36.7766 F400
G1 X42.7411 Y36.7766
G1 X42.7411 Y59.5228
G1 X36.9949 Y59.5228
G1 X34.4560 Y60.4502 F400
G1 X34.4568 Y35.8502 F400
G3 X34.5786 Y35.2335 I1.6116 J0
G3 X34.9289 Y34.7106 I1.4898 J0.6167
G3 X35.4517 Y34.3604 I1.1395 J1.1395
G3 X36.0685 Y34.2385 I0.6167 J1.4898
G1 X43.6675 Y34.2385
G3 X44.2868 Y34.3604 I0 J1.6116
G3 X44.8096 Y34.7106 I-0.6167 J1.4898
G3 X45.1573 Y35.2335 I-1.1395 J1.1395
G3 X45.2817 Y35.8502 I-1.4898 J0.6167
G1 X45.2817 Y60.4492
G3 X45.1573 Y61.0685 I-1.6116 J0
G3 X44.8096 Y61.5913 I-1.4898 J-0.6167
G3 X44.2868 Y61.9390 I-1.1395 J-1.1395
G3 X43.6675 Y62.0634 I-0.6167 J-1.4898
G1 X36.0685 Y62.0634
G3 X35.4517 Y61.9390 I0 J-1.6116
G3 X34.9289 Y61.5913 I0.6167 J-1.4898
G3 X34.5786 Y61.0685 I1.1395 J-1.1395
G3 X34.4568 Y60.4492 I1.4898 J-0.6167
G0 Z1
G0 X39.5360 Y56.9827
G1 Z-6.6677 F200
G1 X39.5355 Y39.3172 F400
G1 X40.2005 Y39.3172
G1 X40.2005 Y56.9822
G1 X39.5355 Y56.9822
G1 X36.9959 Y59.5228 F400
G1 X36.9949 Y36.7766 F400
G1 X42.7411 Y36.7766
G1 X42.7411 Y59.5228
G1 X36.9949 Y59.5228
G1 X34.4560 Y60.4502 F400
G1 X34.4568 Y35.8502 F400
G3 X34.5786 Y35.2335 I1.6116 J0
G3 X34.9289 Y34.7106 I1.4898 J0.6167
G3 X35.4517 Y34.3604 I1.1395 J1.1395
G3 X36.0685 Y34.2385 I0.6167 J1.4898
G1 X43.6675 Y34.2385
G3 X44.2868 Y34.3604 I0 J1.6116
G3 X44.8096 Y34.7106 I-0.6167 J1.4898
G3 X45.1573 Y35.2335 I-1.1395 J1.1395
G3 X45.2817 Y35.8502 I-1.4898 J0.6167
G1 X45.2817 Y60.4492
G3 X45.1573 Y61.0685 I-1.6116 J0
G3 X44.8096 Y61.5913 I-1.4898 J-0.6167
G3 X44.2868 Y61.9390 I-1.1395 J-1.1395
G3 X43.6675 Y62.0634 I-0.6167 J-1.4898
G1 X36.0685 Y62.0634
G3 X35.4517 Y61.9390 I0 J-1.6116
G3 X34.9289 Y61.5913 I0.6167 J-1.4898
G3 X34.5786 Y61.0685 I1.1395 J-1.1395
G3 X34.4568 Y60.4492 I1.4898 J-0.6167
G0 Z1
G0 X39.5360 Y56.9827
G1 Z-6.7426 F200
G1 X39.5355 Y39.3172 F400
G1 X40.2005 Y39.3172
G1 X40.2005 Y56.9822
G1 X39.5355 Y56.9822
G1 X36.9959 Y59.5228 F400
G1 X36.9949 Y36.7766 F400
G1 X42.7411 Y36.7766
G1 X42.7411 Y59.5228
G1 X36.9949 Y59.5228
G1 X34.4560 Y60.4502 F400
G1 X34.4568 Y35.8502 F400
G3 X34.5786 Y35.2335 I1.6116 J0
G3 X34.9289 Y34.7106 I1.4898 J0.6167
G3 X35.4517 Y34.3604 I1.1395 J1.1395
G3 X36.0685 Y34.2385 I0.6167 J1.4898
G1 X43.6675 Y34.2385
G3 X44.2868 Y34.3604 I0 J1.6116
G3 X44.8096 Y34.7106 I-0.6167 J1.4898
G3 X45.1573 Y35.2335 I-1.1395 J1.1395
G3 X45.2817 Y35.8502 I-1.4898 J0.6167
G1 X45.2817 Y60.4492
G3 X45.1573 Y61.0685 I-1.6116 J0
G3 X44.8096 Y61.5913 I-1.4898 J-0.6167
G3 X44.2868 Y61.9390 I-1.1395 J-1.1395
G3 X43.6675 Y62.0634 I-0.6167 J-1.4898
G1 X36.0685 Y62.0634
G3 X35.4517 Y61.9390 I0 J-1.6116
G3 X34.9289 Y61.5913 I0.6167 J-1.4898
G3 X34.5786 Y61.0685 I1.1395 J-1.1395
G3 X34.4568 Y60.4492 I1.4898 J-0.6167
G0 Z1
G0 X39.5360 Y56.9827
G1 Z-6.8175 F200
G1 X39.5355 Y39.3172 F400
G1 X40.2005 Y39.3172
G1 X40.2005 Y56.9822
G1 X39.5355 Y56.9822
G1 X36.9959 Y59.5228 F400
G1 X36.9949 Y36.7766 F400
G1 X42.7411 Y36.7766
G1 X42.7411 Y59.5228
G1 X36.9949 Y59.5228
G1 X34.4560 Y60.4502 F400
G1 X34.4568 Y35.8502 F400
G3 X34.5786 Y35.2335 I1.6116 J0
G3 X34.9289 Y34.7106 I1.4898 J0.6167
G3 X35.4517 Y34.3604 I1.1395 J1.1395
G3 X36.0685 Y34.2385 I0.6167 J1.4898
G1 X43.6675 Y34.2385
G3 X44.2868 Y34.3604 I0 J1.6116
G3 X44.8096 Y34.7106 I-0.6167 J1.4898
G3 X45.1573 Y35.2335 I-1.1395 J1.1395
G3 X45.2817 Y35.8502 I-1.4898 J0.6167
G1 X45.2817 Y60.4492
G3 X45.1573 Y61.0685 I-1.6116 J0
G3 X44.8096 Y61.5913 I-1.4898 J-0.6167
G3 X44.2868 Y61.9390 I-1.1395 J-1.1395
G3 X43.6675 Y62.0634 I-0.6167 J-1.4898
G1 X36.0685 Y62.0634
G3 X35.4517 Y61.9390 I0 J-1.6116
G3 X34.9289 Y61.5913 I0.6167 J-1.4898
G3 X34.5786 Y61.0685 I1.1395 J-1.1395
G3 X34.4568 Y60.4492 I1.4898 J-0.6167
G0 Z1
G0 X39.5360 Y56.9827
G1 Z-6.8923 F200
G1 X39.5355 Y39.3172 F400
G1 X40.2005 Y39.3172
G1 X40.2005 Y56.9822
G1 X39.5355 Y56.9822
G1 X36.9959 Y59.5228 F400
G1 X36.9949 Y36.7766 F400
G1 X42.7411 Y36.7766
G1 X42.7411 Y59.5228
G1 X36.9949 Y59.5228
G1 X34.4560 Y60.4502 F400
G1 X34.4568 Y35.8502 F400
G3 X34.5786 Y35.2335 I1.6116 J0
G3 X34.9289 Y34.7106 I1.4898 J0.6167
G3 X35.4517 Y34.3604 I1.1395 J1.1395
G3 X36.0685 Y34.2385 I0.6167 J1.4898
G1 X43.6675 Y34.2385
G3 X44.2868 Y34.3604 I0 J1.6116
G3 X44.8096 Y34.7106 I-0.6167 J1.4898
G3 X45.1573 Y35.2335 I-1.1395 J1.1395
G3 X45.2817 Y35.8502 I-1.4898 J0.6167
G1 X45.2817 Y60.4492
G3 X45.1573 Y61.0685 I-1.6116 J0
G3 X44.8096 Y61.5913 I-1.4898 J-0.6167
G3 X44.2868 Y61.9390 I-1.1395 J-1.1395
G3 X43.6675 Y62.0634 I-0.6167 J-1.4898
G1 X36.0685 Y62.0634
G3 X35.4517 Y61.9390 I0 J-1.6116
G3 X34.9289 Y61.5913 I0.6167 J-1.4898
G3 X34.5786 Y61.0685 I1.1395 J-1.1395
G3 X34.4568 Y60.4492 I1.4898 J-0.6167
G0 Z1
G0 X39.5360 Y56.9827
G1 Z-6.9672 F200
G1 X39.5355 Y39.3172 F400
G1 X40.2005 Y39.3172
G1 X40.2005 Y56.9822
G1 X39.5355 Y56.9822
G1 X36.9959 Y59.5228 F400
G1 X36.9949 Y36.7766 F400
G1 X42.7411 Y36.7766
G1 X42.7411 Y59.5228
G1 X36.9949 Y59.5228
G1 X34.4560 Y60.4502 F400
G1 X34.4568 Y35.8502 F400
G3 X34.5786 Y35.2335 I1.6116 J0
G3 X34.9289 Y34.7106 I1.4898 J0.6167
G3 X35.4517 Y34.3604 I1.1395 J1.1395
G3 X36.0685 Y34.2385 I0.6167 J1.4898
G1 X43.6675 Y34.2385
G3 X44.2868 Y34.3604 I0 J1.6116
G3 X44.8096 Y34.7106 I-0.6167 J1.4898
G3 X45.1573 Y35.2335 I-1.1395 J1.1395
G3 X45.2817 Y35.8502 I-1.4898 J0.6167
G1 X45.2817 Y60.4492
G3 X45.1573 Y61.0685 I-1.6116 J0
G3 X44.8096 Y61.5913 I-1.4898 J-0.6167
G3 X44.2868 Y61.9390 I-1.1395 J-1.1395
G3 X43.6675 Y62.0634 I-0.6167 J-1.4898
G1 X36.0685 Y62.0634
G3 X35.4517 Y61.9390 I0 J-1.6116
G3 X34.9289 Y61.5913 I0.6167 J-1.4898
G3 X34.5786 Y61.0685 I1.1395 J-1.1395
G3 X34.4568 Y60.4492 I1.4898 J-0.6167
G0 Z1
G0 X39.5360 Y56.9827
G1 Z-7.0421 F200
G1 X39.5355 Y39.3172 F400
G1 X40.2005 Y39.3172
G1 X40.2005 Y56.9822
G1 X39.5355 Y56.9822
G1 X36.9959 Y59.5228 F400
G1 X36.9949 Y36.7766 F400
G1 X42.7411 Y36.7766
G1 X42.7411 Y59.5228
G1 X36.9949 Y59.5228
G1 X34.4560 Y60.4502 F400
G1 X34.4568 Y35.8502 F400
G3 X34.5786 Y35.2335 I1.6116 J0
G3 X34.9289 Y34.7106 I1.4898 J0.6167
G3 X35.4517 Y34.3604 I1.1395 J1.1395
G3 X36.0685 Y34.2385 I0.6167 J1.4898
G1 X43.6675 Y34.2385
G3 X44.2868 Y34.3604 I0 J1.6116
G3 X44.8096 Y34.7106 I-0.6167 J1.4898
G3 X45.1573 Y35.2335 I-1.1395 J1.1395
G3 X45.2817 Y35.8502 I-1.4898 J0.6167
G1 X45.2817 Y60.4492
G3 X45.1573 Y61.0685 I-1.6116 J0
G3 X44.8096 Y61.5913 I-1.4898 J-0.6167
G3 X44.2868 Y61.9390 I-1.1395 J-1.1395
G3 X43.6675 Y62.0634 I-0.6167 J-1.4898
G1 X36.0685 Y62.0634
G3 X35.4517 Y61.9390 I0 J-1.6116
G3 X34.9289 Y61.5913 I0.6167 J-1.4898
G3 X34.5786 Y61.0685 I1.1395 J-1.1395
G3 X34.4568 Y60.4492 I1.4898 J-0.6167
G0 Z1
G0 X39.5360 Y56.9827
G1 Z-7.1172 F200
G1 X39.5355 Y39.3172 F400
G1 X40.2005 Y39.3172
G1 X40.2005 Y56.9822
G1 X39.5355 Y56.9822
G1 X36.9959 Y59.5228 F400
G1 X36.9949 Y36.7766 F400
G1 X42.7411 Y36.7766
G1 X42.7411 Y59.5228
G1 X36.9949 Y59.5228
G1 X34.4560 Y60.4502 F400
G1 X34.4568 Y35.8502 F400
G3 X34.5786 Y35.2335 I1.6116 J0
G3 X34.9289 Y34.7106 I1.4898 J0.6167
G3 X35.4517 Y34.3604 I1.1395 J1.1395
G3 X36.0685 Y34.2385 I0.6167 J1.4898
G1 X43.6675 Y34.2385
G3 X44.2868 Y34.3604 I0 J1.6116
G3 X44.8096 Y34.7106 I-0.6167 J1.4898
G3 X45.1573 Y35.2335 I-1.1395 J1.1395
G3 X45.2817 Y35.8502 I-1.4898 J0.6167
G1 X45.2817 Y60.4492
G3 X45.1573 Y61.0685 I-1.6116 J0
G3 X44.8096 Y61.5913 I-1.4898 J-0.6167
G3 X44.2868 Y61.9390 I-1.1395 J-1.1395
G3 X43.6675 Y62.0634 I-0.6167 J-1.4898
G1 X36.0685 Y62.0634
G3 X35.4517 Y61.9390 I0 J-1.6116
G3 X34.9289 Y61.5913 I0.6167 J-1.4898
G3 X34.5786 Y61.0685 I1.1395 J-1.1395
G3 X34.4568 Y60.4492 I1.4898 J-0.6167
G0 Z1
G0 X39.5360 Y56.9827
G1 Z-7.1921 F200
G1 X39.5355 Y39.3172 F400
G1 X40.2005 Y39.3172
G1 X40.2005 Y56.9822
G1 X39.5355 Y56.9822
G1 X36.9959 Y59.5228 F400
G1 X36.9949 Y36.7766 F400
G1 X42.7411 Y36.7766
G1 X42.7411 Y59.5228
G1 X36.9949 Y59.5228
G1 X34.4560 Y60.4502 F400
G1 X34.4568 Y35.8502 F400
G3 X34.5786 Y35.2335 I1.6116 J0
G3 X34.9289 Y34.7106 I1.4898 J0.6167
G3 X35.4517 Y34.3604 I1.1395 J1.1395
G3 X36.0685 Y34.2385 I0.6167 J1.4898
G1 X43.6675 Y34.2385
G3 X44.2868 Y34.3604 I0 J1.6116
G3 X44.8096 Y34.7106 I-0.6167 J1.4898
G3 X45.1573 Y35.2335 I-1.1395 J1.1395
G3 X45.2817 Y35.8502 I-1.4898 J0.6167
G1 X45.2817 Y60.4492
G3 X45.1573 Y61.0685 I-1.6116 J0
G3 X44.8096 Y61.5913 I-1.4898 J-0.6167
G3 X44.2868 Y61.9390 I-1.1395 J-1.1395
G3 X43.6675 Y62.0634 I-0.6167 J-1.4898
G1 X36.0685 Y62.0634
G3 X35.4517 Y61.9390 I0 J-1.6116
G3 X34.9289 Y61.5913 I0.6167 J-1.4898
G3 X34.5786 Y61.0685 I1.1395 J-1.1395
G3 X34.4568 Y60.4492 I1.4898 J-0.6167
G0 Z1
G0 X39.5360 Y56.9827
G1 Z-7.2670 F200
G1 X39.5355 Y39.3172 F400
G1 X40.2005 Y39.3172
G1 X40.2005 Y56.9822
G1 X39.5355 Y56.9822
G1 X36.9959 Y59.5228 F400
G1 X36.9949 Y36.7766 F400
G1 X42.7411 Y36.7766
G1 X42.7411 Y59.5228
G1 X36.9949 Y59.5228
G1 X34.4560 Y60.4502 F400
G1 X34.4568 Y35.8502 F400
G3 X34.5786 Y35.2335 I1.6116 J0
G3 X34.9289 Y34.7106 I1.4898 J0.6167
G3 X35.4517 Y34.3604 I1.1395 J1.1395
G3 X36.0685 Y34.2385 I0.6167 J1.4898
G1 X43.6675 Y34.2385
G3 X44.2868 Y34.3604 I0 J1.6116
G3 X44.8096 Y34.7106 I-0.6167 J1.4898
G3 X45.1573 Y35.2335 I-1.1395 J1.1395
G3 X45.2817 Y35.8502 I-1.4898 J0.6167
G1 X45.2817 Y60.4492
G3 X45.1573 Y61.0685 I-1.6116 J0
G3 X44.8096 Y61.5913 I-1.4898 J-0.6167
G3 X44.2868 Y61.9390 I-1.1395 J-1.1395
G3 X43.6675 Y62.0634 I-0.6167 J-1.4898
G1 X36.0685 Y62.0634
G3 X35.4517 Y61.9390 I0 J-1.6116
G3 X34.9289 Y61.5913 I0.6167 J-1.4898
G3 X34.5786 Y61.0685 I1.1395 J-1.1395
G3 X34.4568 Y60.4492 I1.4898 J-0.6167
G0 Z1
G0 X39.5360 Y56.9827
G1 Z-7.3418 F200
G1 X39.5355 Y39.3172 F400
G1 X40.2005 Y39.3172
G1 X40.2005 Y56.9822
G1 X39.5355 Y56.9822
G1 X36.9959 Y59.5228 F400
G1 X36.9949 Y36.7766 F400
G1 X42.7411 Y36.7766
G1 X42.7411 Y59.5228
G1 X36.9949 Y59.5228
G1 X34.4560 Y60.4502 F400
G1 X34.4568 Y35.8502 F400
G3 X34.5786 Y35.2335 I1.6116 J0
G3 X34.9289 Y34.7106 I1.4898 J0.6167
G3 X35.4517 Y34.3604 I1.1395 J1.1395
G3 X36.0685 Y34.2385 I0.6167 J1.4898
G1 X43.6675 Y34.2385
G3 X44.2868 Y34.3604 I0 J1.6116
G3 X44.8096 Y34.7106 I-0.6167 J1.4898
G3 X45.1573 Y35.2335 I-1.1395 J1.1395
G3 X45.2817 Y35.8502 I-1.4898 J0.6167
G1 X45.2817 Y60.4492
G3 X45.1573 Y61.0685 I-1.6116 J0
G3 X44.8096 Y61.5913 I-1.4898 J-0.6167
G3 X44.2868 Y61.9390 I-1.1395 J-1.1395
G3 X43.6675 Y62.0634 I-0.6167 J-1.4898
G1 X36.0685 Y62.0634
G3 X35.4517 Y61.9390 I0 J-1.6116
G3 X34.9289 Y61.5913 I0.6167 J-1.4898
G3 X34.5786 Y61.0685 I1.1395 J-1.1395
G3 X34.4568 Y60.4492 I1.4898 J-0.6167
G0 Z1
G0 X39.5360 Y56.9827
G1 Z-7.4167 F200
G1 X39.5355 Y39.3172 F400
G1 X40.2005 Y39.3172
G1 X40.2005 Y56.9822
G1 X39.5355 Y56.9822
G1 X36.9959 Y59.5228 F400
G1 X36.9949 Y36.7766 F400
G1 X42.7411 Y36.7766
G1 X42.7411 Y59.5228
G1 X36.9949 Y59.5228
G1 X34.4560 Y60.4502 F400
G1 X34.4568 Y35.8502 F400
G3 X34.5786 Y35.2335 I1.6116 J0
G3 X34.9289 Y34.7106 I1.4898 J0.6167
G3 X35.4517 Y34.3604 I1.1395 J1.1395
G3 X36.0685 Y34.2385 I0.6167 J1.4898
G1 X43.6675 Y34.2385
G3 X44.2868 Y34.3604 I0 J1.6116
G3 X44.8096 Y34.7106 I-0.6167 J1.4898
G3 X45.1573 Y35.2335 I-1.1395 J1.1395
G3 X45.2817 Y35.8502 I-1.4898 J0.6167
G1 X45.2817 Y60.4492
G3 X45.1573 Y61.0685 I-1.6116 J0
G3 X44.8096 Y61.5913 I-1.4898 J-0.6167
G3 X44.2868 Y61.9390 I-1.1395 J-1.1395
G3 X43.6675 Y62.0634 I-0.6167 J-1.4898
G1 X36.0685 Y62.0634
G3 X35.4517 Y61.9390 I0 J-1.6116
G3 X34.9289 Y61.5913 I0.6167 J-1.4898
G3 X34.5786 Y61.0685 I1.1395 J-1.1395
G3 X34.4568 Y60.4492 I1.4898 J-0.6167
G0 Z1
G0 X39.5360 Y56.9827
G1 Z-7.4916 F200
G1 X39.5355 Y39.3172 F400
G1 X40.2005 Y39.3172
G1 X40.2005 Y56.9822
G1 X39.5355 Y56.9822
G1 X36.9959 Y59.5228 F400
G1 X36.9949 Y36.7766 F400
G1 X42.7411 Y36.7766
G1 X42.7411 Y59.5228
G1 X36.9949 Y59.5228
G1 X34.4560 Y60.4502 F400
G1 X34.4568 Y35.8502 F400
G3 X34.5786 Y35.2335 I1.6116 J0
G3 X34.9289 Y34.7106 I1.4898 J0.6167
G3 X35.4517 Y34.3604 I1.1395 J1.1395
G3 X36.0685 Y34.2385 I0.6167 J1.4898
G1 X43.6675 Y34.2385
G3 X44.2868 Y34.3604 I0 J1.6116
G3 X44.8096 Y34.7106 I-0.6167 J1.4898
G3 X45.1573 Y35.2335 I-1.1395 J1.1395
G3 X45.2817 Y35.8502 I-1.4898 J0.6167
G1 X45.2817 Y60.4492
G3 X45.1573 Y61.0685 I-1.6116 J0
G3 X44.8096 Y61.5913 I-1.4898 J-0.6167
G3 X44.2868 Y61.9390 I-1.1395 J-1.1395
G3 X43.6675 Y62.0634 I-0.6167 J-1.4898
G1 X36.0685 Y62.0634
G3 X35.4517 Y61.9390 I0 J-1.6116
G3 X34.9289 Y61.5913 I0.6167 J-1.4898
G3 X34.5786 Y61.0685 I1.1395 J-1.1395
G3 X34.4568 Y60.4492 I1.4898 J-0.6167
G0 Z1
G0 X39.5360 Y56.9827
G1 Z-7.5664 F200
G1 X39.5355 Y39.3172 F400
G1 X40.2005 Y39.3172
G1 X40.2005 Y56.9822
G1 X39.5355 Y56.9822
G1 X36.9959 Y59.5228 F400
G1 X36.9949 Y36.7766 F400
G1 X42.7411 Y36.7766
G1 X42.7411 Y59.5228
G1 X36.9949 Y59.5228
G1 X34.4560 Y60.4502 F400
G1 X34.4568 Y35.8502 F400
G3 X34.5786 Y35.2335 I1.6116 J0
G3 X34.9289 Y34.7106 I1.4898 J0.6167
G3 X35.4517 Y34.3604 I1.1395 J1.1395
G3 X36.0685 Y34.2385 I0.6167 J1.4898
G1 X43.6675 Y34.2385
G3 X44.2868 Y34.3604 I0 J1.6116
G3 X44.8096 Y34.7106 I-0.6167 J1.4898
G3 X45.1573 Y35.2335 I-1.1395 J1.1395
G3 X45.2817 Y35.8502 I-1.4898 J0.6167
G1 X45.2817 Y60.4492
G3 X45.1573 Y61.0685 I-1.6116 J0
G3 X44.8096 Y61.5913 I-1.4898 J-0.6167
G3 X44.2868 Y61.9390 I-1.1395 J-1.1395
G3 X43.6675 Y62.0634 I-0.6167 J-1.4898
G1 X36.0685 Y62.0634
G3 X35.4517 Y61.9390 I0 J-1.6116
G3 X34.9289 Y61.5913 I0.6167 J-1.4898
G3 X34.5786 Y61.0685 I1.1395 J-1.1395
G3 X34.4568 Y60.4492 I1.4898 J-0.6167
G0 Z1
G0 X39.5360 Y56.9827
G1 Z-7.6413 F200
G1 X39.5355 Y39.3172 F400
G1 X40.2005 Y39.3172
G1 X40.2005 Y56.9822
G1 X39.5355 Y56.9822
G1 X36.9959 Y59.5228 F400
G1 X36.9949 Y36.7766 F400
G1 X42.7411 Y36.7766
G1 X42.7411 Y59.5228
G1 X36.9949 Y59.5228
G1 X34.4560 Y60.4502 F400
G1 X34.4568 Y35.8502 F400
G3 X34.5786 Y35.2335 I1.6116 J0
G3 X34.9289 Y34.7106 I1.4898 J0.6167
G3 X35.4517 Y34.3604 I1.1395 J1.1395
G3 X36.0685 Y34.2385 I0.6167 J1.4898
G1 X43.6675 Y34.2385
G3 X44.2868 Y34.3604 I0 J1.6116
G3 X44.8096 Y34.7106 I-0.6167 J1.4898
G3 X45.1573 Y35.2335 I-1.1395 J1.1395
G3 X45.2817 Y35.8502 I-1.4898 J0.6167
G1 X45.2817 Y60.4492
G3 X45.1573 Y61.0685 I-1.6116 J0
G3 X44.8096 Y61.5913 I-1.4898 J-0.6167
G3 X44.2868 Y61.9390 I-1.1395 J-1.1395
G3 X43.6675 Y62.0634 I-0.6167 J-1.4898
G1 X36.0685 Y62.0634
G3 X35.4517 Y61.9390 I0 J-1.6116
G3 X34.9289 Y61.5913 I0.6167 J-1.4898
G3 X34.5786 Y61.0685 I1.1395 J-1.1395
G3 X34.4568 Y60.4492 I1.4898 J-0.6167
G0 Z1
G0 X39.5360 Y56.9827
G1 Z-7.7164 F200
G1 X39.5355 Y39.3172 F400
G1 X40.2005 Y39.3172
G1 X40.2005 Y56.9822
G1 X39.5355 Y56.9822
G1 X36.9959 Y59.5228 F400
G1 X36.9949 Y36.7766 F400
G1 X42.7411 Y36.7766
G1 X42.7411 Y59.5228
G1 X36.9949 Y59.5228
G1 X34.4560 Y60.4502 F400
G1 X34.4568 Y35.8502 F400
G3 X34.5786 Y35.2335 I1.6116 J0
G3 X34.9289 Y34.7106 I1.4898 J0.6167
G3 X35.4517 Y34.3604 I1.1395 J1.1395
G3 X36.0685 Y34.2385 I0.6167 J1.4898
G1 X43.6675 Y34.2385
G3 X44.2868 Y34.3604 I0 J1.6116
G3 X44.8096 Y34.7106 I-0.6167 J1.4898
G3 X45.1573 Y35.2335 I-1.1395 J1.1395
G3 X45.2817 Y35.8502 I-1.4898 J0.6167
G1 X45.2817 Y60.4492
G3 X45.1573 Y61.0685 I-1.6116 J0
G3 X44.8096 Y61.5913 I-1.4898 J-0.6167
G3 X44.2868 Y61.9390 I-1.1395 J-1.1395
G3 X43.6675 Y62.0634 I-0.6167 J-1.4898
G1 X36.0685 Y62.0634
G3 X35.4517 Y61.9390 I0 J-1.6116
G3 X34.9289 Y61.5913 I0.6167 J-1.4898
G3 X34.5786 Y61.0685 I1.1395 J-1.1395
G3 X34.4568 Y60.4492 I1.4898 J-0.6167
G0 Z1
G0 X39.5360 Y56.9827
G1 Z-7.7913 F200
G1 X39.5355 Y39.3172 F400
G1 X40.2005 Y39.3172
G1 X40.2005 Y56.9822
G1 X39.5355 Y56.9822
G1 X36.9959 Y59.5228 F400
G1 X36.9949 Y36.7766 F400
G1 X42.7411 Y36.7766
G1 X42.7411 Y59.5228
G1 X36.9949 Y59.5228
G1 X34.4560 Y60.4502 F400
G1 X34.4568 Y35.8502 F400
G3 X34.5786 Y35.2335 I1.6116 J0
G3 X34.9289 Y34.7106 I1.4898 J0.6167
G3 X35.4517 Y34.3604 I1.1395 J1.1395
G3 X36.0685 Y34.2385 I0.6167 J1.4898
G1 X43.6675 Y34.2385
G3 X44.2868 Y34.3604 I0 J1.6116
G3 X44.8096 Y34.7106 I-0.6167 J1.4898
G3 X45.1573 Y35.2335 I-1.1395 J1.1395
G3 X45.2817 Y35.8502 I-1.4898 J0.6167
G1 X45.2817 Y60.4492
G3 X45.1573 Y61.0685 I-1.6116 J0
G3 X44.8096 Y61.5913 I-1.4898 J-0.6167
G3 X44.2868 Y61.9390 I-1.1395 J-1.1395
G3 X43.6675 Y62.0634 I-0.6167 J-1.4898
G1 X36.0685 Y62.0634
G3 X35.4517 Y61.9390 I0 J-1.6116
G3 X34.9289 Y61.5913 I0.6167 J-1.4898
G3 X34.5786 Y61.0685 I1.1395 J-1.1395
G3 X34.4568 Y60.4492 I1.4898 J-0.6167
G0 Z1
G0 X39.5360 Y56.9827
G1 Z-7.8662 F200
G1 X39.5355 Y39.3172 F400
G1 X40.2005 Y39.3172
G1 X40.2005 Y56.9822
G1 X39.5355 Y56.9822
G1 X36.9959 Y59.5228 F400
G1 X36.9949 Y36.7766 F400
G1 X42.7411 Y36.7766
G1 X42.7411 Y59.5228
G1 X36.9949 Y59.5228
G1 X34.4560 Y60.4502 F400
G1 X34.4568 Y35.8502 F400
G3 X34.5786 Y35.2335 I1.6116 J0
G3 X34.9289 Y34.7106 I1.4898 J0.6167
G3 X35.4517 Y34.3604 I1.1395 J1.1395
G3 X36.0685 Y34.2385 I0.6167 J1.4898
G1 X43.6675 Y34.2385
G3 X44.2868 Y34.3604 I0 J1.6116
G3 X44.8096 Y34.7106 I-0.6167 J1.4898
G3 X45.1573 Y35.2335 I-1.1395 J1.1395
G3 X45.2817 Y35.8502 I-1.4898 J0.6167
G1 X45.2817 Y60.4492
G3 X45.1573 Y61.0685 I-1.6116 J0
G3 X44.8096 Y61.5913 I-1.4898 J-0.6167
G3 X44.2868 Y61.9390 I-1.1395 J-1.1395
G3 X43.6675 Y62.0634 I-0.6167 J-1.4898
G1 X36.0685 Y62.0634
G3 X35.4517 Y61.9390 I0 J-1.6116
G3 X34.9289 Y61.5913 I0.6167 J-1.4898
G3 X34.5786 Y61.0685 I1.1395 J-1.1395
G3 X34.4568 Y60.4492 I1.4898 J-0.6167
G0 Z1
G0 X39.5360 Y56.9827
G1 Z-7.9411 F200
G1 X39.5355 Y39.3172 F400
G1 X40.2005 Y39.3172
G1 X40.2005 Y56.9822
G1 X39.5355 Y56.9822
G1 X36.9959 Y59.5228 F400
G1 X36.9949 Y36.7766 F400
G1 X42.7411 Y36.7766
G1 X42.7411 Y59.5228
G1 X36.9949 Y59.5228
G1 X34.4560 Y60.4502 F400
