(Generated by PartKam Version 0.05)

G21 G90 G40

(pocket 1)
G0 Z5
T0 M6
G17
M3
G0 X40.44796954314721 Y141.56928934010153
G1 Z-8 F200
G1 X40.4492385786802 Y123.90355329949239 F400
G1 X41.11421319796954 Y123.90355329949239
G1 X41.11421319796954 Y141.56852791878174
G1 X40.4492385786802 Y141.56852791878174
G1 X39.177918781725886 Y142.83934010152285 F400
G1 X39.17766497461929 Y122.63451776649747 F400
G1 X42.38324873096447 Y122.63451776649747
G1 X42.38324873096447 Y142.84010152284264
G1 X39.17766497461929 Y142.84010152284264
G1 X37.90786802030457 Y144.10939086294417 F400
G1 X37.90862944162436 Y121.36548223350253 F400
G1 X43.65228426395939 Y121.36548223350253
G1 X43.65228426395939 Y144.10913705583755
G1 X37.90862944162436 Y144.10913705583755
G0 Z5
G0 X35.368020304568525 Y145.03680203045684
G1 Z-8 F200
G1 X35.36802030456853 Y120.43654822335026 F400
G3 X35.423857868020306 Y120.02030456852792 I1.6116751269035534 J0
G3 X35.58375634517767 Y119.62944162436548 I1.5583756345177666 J0.416243654822335
G3 X35.84010152284264 Y119.29695431472082 I1.3959390862944163 J0.8071065989847716
G3 X36.1751269035533 Y119.04060913705584 I1.1395939086294418 J1.1395939086294418
G3 X36.56345177664975 Y118.87817258883248 I0.8071065989847716 J1.3959390862944163
G3 X36.97969543147208 Y118.82487309644671 I0.416243654822335 J1.5583756345177666
G1 X44.58121827411168 Y118.82487309644671
G3 X44.99746192893401 Y118.87817258883248 I0 J1.6116751269035534
G3 X45.38578680203046 Y119.04060913705584 I-0.416243654822335 J1.5583756345177666
G3 X45.72081218274111 Y119.29695431472082 I-0.8071065989847716 J1.3959390862944163
G3 X45.97715736040609 Y119.62944162436548 I-1.1395939086294418 J1.1395939086294418
G3 X46.13705583756345 Y120.02030456852792 I-1.3959390862944163 J0.8071065989847716
G3 X46.19289340101523 Y120.43654822335026 I-1.5583756345177666 J0.416243654822335
G1 X46.19289340101523 Y145.03553299492387
G3 X46.13705583756345 Y145.45431472081216 I-1.6116751269035534 J0
G3 X45.97715736040609 Y145.84263959390864 I-1.5583756345177666 J-0.416243654822335
G3 X45.72081218274111 Y146.1776649746193 I-1.3959390862944163 J-0.8071065989847716
G3 X45.38578680203046 Y146.43401015228426 I-1.1395939086294418 J-1.1395939086294418
G3 X44.99746192893401 Y146.59390862944161 I-0.8071065989847716 J-1.3959390862944163
G3 X44.58121827411168 Y146.64974619289342 I-0.416243654822335 J-1.5583756345177666
G1 X36.97969543147208 Y146.64974619289342
G3 X36.56345177664975 Y146.59390862944161 I0 J-1.6116751269035534
G3 X36.1751269035533 Y146.43401015228426 I0.416243654822335 J-1.5583756345177666
G3 X35.84010152284264 Y146.1776649746193 I0.8071065989847716 J-1.3959390862944163
G3 X35.58375634517767 Y145.84263959390864 I1.1395939086294418 J-1.1395939086294418
G3 X35.423857868020306 Y145.45431472081216 I1.3959390862944163 J-0.8071065989847716
G3 X35.36802030456853 Y145.03553299492387 I1.5583756345177666 J-0.416243654822335
G0 Z5
G0 X40.44796954314721 Y57.56928934010152
G1 Z-8 F200
G1 X40.4492385786802 Y39.90355329949239 F400
G1 X41.11421319796954 Y39.90355329949239
G1 X41.11421319796954 Y57.568527918781726
G1 X40.4492385786802 Y57.568527918781726
G1 X39.177918781725886 Y58.83934010152284 F400
G1 X39.17766497461929 Y38.63451776649746 F400
G1 X42.38324873096447 Y38.63451776649746
G1 X42.38324873096447 Y58.840101522842644
G1 X39.17766497461929 Y58.840101522842644
G1 X37.90786802030457 Y60.10939086294416 F400
G1 X37.90862944162436 Y37.36548223350254 F400
G1 X43.65228426395939 Y37.36548223350254
G1 X43.65228426395939 Y60.109137055837564
G1 X37.90862944162436 Y60.109137055837564
G0 Z5
G0 X35.368020304568525 Y61.036802030456855
G1 Z-8 F200
G1 X35.36802030456853 Y36.43654822335026 F400
G3 X35.48984771573604 Y35.81979695431472 I1.6116751269035534 J0
G3 X35.84010152284264 Y35.296954314720814 I1.4898477157360408 J0.616751269035533
G3 X36.36294416243655 Y34.94670050761422 I1.1395939086294418 J1.1395939086294418
G3 X36.97969543147208 Y34.8248730964467 I0.616751269035533 J1.4898477157360408
G1 X44.58121827411168 Y34.8248730964467
G3 X45.19796954314721 Y34.94670050761422 I0 J1.6116751269035534
G3 X45.72081218274111 Y35.296954314720814 I-0.616751269035533 J1.4898477157360408
G3 X46.07106598984772 Y35.81979695431472 I-1.1395939086294418 J1.1395939086294418
G3 X46.19289340101523 Y36.43654822335026 I-1.4898477157360408 J0.616751269035533
G1 X46.19289340101523 Y61.03553299492386
G3 X46.07106598984772 Y61.65482233502538 I-1.6116751269035534 J0
G3 X45.72081218274111 Y62.17766497461929 I-1.4898477157360408 J-0.616751269035533
G3 X45.19796954314721 Y62.5253807106599 I-1.1395939086294418 J-1.1395939086294418
G3 X44.58121827411168 Y62.6497461928934 I-0.616751269035533 J-1.4898477157360408
G1 X36.97969543147208 Y62.6497461928934
G3 X36.36294416243655 Y62.5253807106599 I0 J-1.6116751269035534
G3 X35.84010152284264 Y62.17766497461929 I0.616751269035533 J-1.4898477157360408
G3 X35.48984771573604 Y61.65482233502538 I1.1395939086294418 J-1.1395939086294418
G3 X35.36802030456853 Y61.03553299492386 I1.4898477157360408 J-0.616751269035533
G0 Z5
G0 X25.01548223350254 Y162.9718274111675
G1 Z-8 F200
G3 X24.908629441624367 Y163.04314720812184 I-0.23604060913705582 J-0.23604060913705582 F400
G3 X24.781725888324875 Y163.0685279187817 I-0.12690355329949238 J-0.3071065989847716
G3 X24.65228426395939 Y163.04314720812184 I0 J-0.33248730964467005
G3 X24.545685279187815 Y162.9720812182741 I0.12690355329949238 J-0.3071065989847716
G3 X24.472081218274113 Y162.86294416243658 I0.23604060913705582 J-0.23604060913705582
G3 X24.449238578680202 Y162.73604060913704 I0.3071065989847716 J-0.12690355329949238
G3 X24.472081218274113 Y162.60913705583758 I0.33248730964467005 J0
G3 X24.545685279187815 Y162.502538071066 I0.3071065989847716 J0.12690355329949238
G3 X24.65228426395939 Y162.42893401015226 I0.23604060913705582 J0.23604060913705582
G3 X24.781725888324875 Y162.4035532994924 I0.12690355329949238 J0.3071065989847716
G3 X24.908629441624367 Y162.42893401015226 I0 J0.33248730964467005
G3 X25.015228426395943 Y162.502538071066 I-0.12690355329949238 J0.3071065989847716
G3 X25.088832487309645 Y162.60913705583758 I-0.23604060913705582 J0.23604060913705582
G3 X25.11421319796954 Y162.73604060913704 I-0.3071065989847716 J0.12690355329949238
G3 X25.088832487309645 Y162.86294416243658 I-0.33248730964467005 J0
G3 X25.015228426395943 Y162.9720812182741 I-0.3071065989847716 J-0.12690355329949238
G1 X25.913705583756347 Y163.8700507614213 F400
G3 X25.393401015228427 Y164.21827411167513 I-1.131979695431472 J-1.131979695431472 F400
G3 X24.781725888324875 Y164.34010152284262 I-0.6142131979695432 J-1.4796954314720812
G3 X24.16751269035533 Y164.21827411167513 I0 J-1.6015228426395938
G3 X23.64720812182741 Y163.87055837563452 I0.6142131979695432 J-1.4796954314720812
G3 X23.299492385786806 Y163.3502538071066 I1.131979695431472 J-1.131979695431472
G3 X23.177664974619287 Y162.73604060913704 I1.4796954314720812 J-0.6142131979695432
G3 X23.299492385786806 Y162.12436548223351 I1.6015228426395938 J0
G3 X23.64720812182741 Y161.60406091370558 I1.4796954314720812 J0.6142131979695432
G3 X24.16751269035533 Y161.25634517766497 I1.131979695431472 J1.131979695431472
G3 X24.781725888324875 Y161.13451776649748 I0.6142131979695432 J1.4796954314720812
G3 X25.393401015228427 Y161.25634517766497 I0 J1.6015228426395938
G3 X25.913705583756347 Y161.60406091370558 I-0.6142131979695432 J1.4796954314720812
G3 X26.261421319796952 Y162.12436548223351 I-1.131979695431472 J1.131979695431472
G3 X26.383248730964468 Y162.73604060913704 I-1.4796954314720812 J0.6142131979695432
G3 X26.261421319796952 Y163.3502538071066 I-1.6015228426395938 J0
G3 X25.913705583756347 Y163.87055837563452 I-1.4796954314720812 J-0.6142131979695432
G1 X26.811675126903552 Y164.76802030456852 F400
G3 X25.880710659898476 Y165.39086294416245 I-2.030456852791878 J-2.030456852791878 F400
G3 X24.781725888324875 Y165.60913705583758 I-1.098984771573604 J-2.654822335025381
G3 X23.68020304568528 Y165.39086294416245 I0 J-2.8730964467005076
G3 X22.748730964467004 Y164.76903553299493 I1.098984771573604 J-2.654822335025381
G3 X22.126903553299492 Y163.83502538071068 I2.030456852791878 J-2.030456852791878
G3 X21.908629441624367 Y162.73604060913704 I2.654822335025381 J-1.098984771573604
G3 X22.126903553299492 Y161.63705583756348 I2.8730964467005076 J0
G3 X22.748730964467004 Y160.7055837563452 I2.654822335025381 J1.098984771573604
G3 X23.68020304568528 Y160.08375634517765 I2.030456852791878 J2.030456852791878
G3 X24.781725888324875 Y159.86548223350252 I1.098984771573604 J2.654822335025381
G3 X25.880710659898476 Y160.08375634517765 I0 J2.8730964467005076
G3 X26.81218274111675 Y160.7055837563452 I-1.098984771573604 J2.654822335025381
G3 X27.434010152284266 Y161.63705583756348 I-2.030456852791878 J2.030456852791878
G3 X27.65228426395939 Y162.73604060913704 I-2.654822335025381 J1.098984771573604
G3 X27.434010152284266 Y163.83502538071068 I-2.8730964467005076 J0
G3 X26.81218274111675 Y164.76903553299493 I-2.654822335025381 J-1.098984771573604
G1 X27.70964467005076 Y165.66598984771574 F400
G3 X26.365482233502537 Y166.56345177664974 I-2.9289340101522843 J-2.9289340101522843 F400
G3 X24.781725888324875 Y166.8781725888325 I-1.5862944162436547 J-3.8274111675126905
G3 X23.19543147208122 Y166.56345177664974 I0 J-4.1421319796954315
G3 X21.850253807106597 Y165.66497461928932 I1.5862944162436547 J-3.8274111675126905
G3 X20.95431472081218 Y164.3223350253807 I2.9289340101522843 J-2.9289340101522843
G3 X20.63705583756345 Y162.73604060913704 I3.8274111675126905 J-1.5862944162436547
G3 X20.95431472081218 Y161.15228426395936 I4.1421319796954315 J0
G3 X21.850253807106597 Y159.80710659898477 I3.8274111675126905 J1.5862944162436547
G3 X23.19543147208122 Y158.90862944162438 I2.9289340101522843 J2.9289340101522843
G3 X24.781725888324875 Y158.59390862944161 I1.5862944162436547 J3.8274111675126905
G3 X26.365482233502537 Y158.90862944162438 I0 J4.1421319796954315
G3 X27.71065989847716 Y159.80710659898477 I-1.5862944162436547 J3.8274111675126905
G3 X28.606598984771573 Y161.15228426395936 I-2.9289340101522843 J2.9289340101522843
G3 X28.923857868020306 Y162.73604060913704 I-3.8274111675126905 J1.5862944162436547
G3 X28.606598984771573 Y164.3223350253807 I-4.1421319796954315 J0
G3 X27.71065989847716 Y165.66497461928932 I-3.8274111675126905 J-1.5862944162436547
G1 X28.60761421319797 Y166.56395939086295 F400
G3 X26.85279187817259 Y167.73604060913704 I-3.8274111675126905 J-3.8274111675126905 F400
G3 X24.781725888324875 Y168.14974619289342 I-2.0710659898477157 J-5
G3 X22.70812182741117 Y167.73604060913704 I0 J-5.413705583756345
G3 X20.95431472081218 Y166.56345177664974 I2.0710659898477157 J-5
G3 X19.779187817258883 Y164.80710659898477 I3.8274111675126905 J-3.8274111675126905
G3 X19.368020304568528 Y162.73604060913704 I5 J-2.0710659898477157
G3 X19.779187817258883 Y160.66497461928932 I5.413705583756345 J0
G3 X20.95431472081218 Y158.90862944162438 I5 J2.0710659898477157
G3 X22.70812182741117 Y157.73604060913704 I3.8274111675126905 J3.8274111675126905
G3 X24.781725888324875 Y157.3248730964467 I2.0710659898477157 J5
G3 X26.85279187817259 Y157.73604060913704 I0 J5.413705583756345
G3 X28.606598984771573 Y158.90862944162438 I-2.0710659898477157 J5
G3 X29.781725888324875 Y160.66497461928932 I-3.8274111675126905 J3.8274111675126905
G3 X30.19289340101523 Y162.73604060913704 I-5 J2.0710659898477157
G3 X29.781725888324875 Y164.80710659898477 I-5.413705583756345 J0
G3 X28.606598984771573 Y166.56345177664974 I-5 J-2.0710659898477157
G0 Z5
G0 X25.08756345177665 Y18.609644670050763
G1 Z-8 F200
G3 X25.11421319796954 Y18.736040609137056 I-0.3071065989847716 J0.12690355329949238 F400
G3 X25.088832487309645 Y18.86294416243655 I-0.33248730964467005 J0
G3 X25.015228426395943 Y18.972081218274113 I-0.3071065989847716 J-0.12690355329949238
G3 X24.908629441624367 Y19.043147208121827 I-0.23604060913705582 J-0.23604060913705582
G3 X24.781725888324875 Y19.068527918781726 I-0.12690355329949238 J-0.3071065989847716
G3 X24.65228426395939 Y19.043147208121827 I0 J-0.33248730964467005
G3 X24.545685279187815 Y18.972081218274113 I0.12690355329949238 J-0.3071065989847716
G3 X24.472081218274113 Y18.86294416243655 I0.23604060913705582 J-0.23604060913705582
G3 X24.449238578680202 Y18.736040609137056 I0.3071065989847716 J-0.12690355329949238
G3 X24.472081218274113 Y18.609137055837564 I0.33248730964467005 J0
G3 X24.545685279187815 Y18.50253807106599 I0.3071065989847716 J0.12690355329949238
G3 X24.65228426395939 Y18.428934010152286 I0.23604060913705582 J0.23604060913705582
G3 X24.781725888324875 Y18.403553299492387 I0.12690355329949238 J0.3071065989847716
G3 X24.908629441624367 Y18.428934010152286 I0 J0.33248730964467005
G3 X25.015228426395943 Y18.50253807106599 I-0.12690355329949238 J0.3071065989847716
G3 X25.088832487309645 Y18.609137055837564 I-0.23604060913705582 J0.23604060913705582
G1 X26.260913705583757 Y18.123604060913706 F400
G3 X26.383248730964468 Y18.736040609137056 I-1.4796954314720812 J0.6142131979695432 F400
G3 X26.261421319796952 Y19.350253807106597 I-1.6015228426395938 J0
G3 X25.913705583756347 Y19.870558375634516 I-1.4796954314720812 J-0.6142131979695432
G3 X25.393401015228427 Y20.218274111675125 I-1.131979695431472 J-1.131979695431472
G3 X24.781725888324875 Y20.340101522842637 I-0.6142131979695432 J-1.4796954314720812
G3 X24.16751269035533 Y20.218274111675125 I0 J-1.6015228426395938
G3 X23.64720812182741 Y19.870558375634516 I0.6142131979695432 J-1.4796954314720812
G3 X23.299492385786806 Y19.350253807106597 I1.131979695431472 J-1.131979695431472
G3 X23.177664974619287 Y18.736040609137056 I1.4796954314720812 J-0.6142131979695432
G3 X23.299492385786806 Y18.1243654822335 I1.6015228426395938 J0
G3 X23.64720812182741 Y17.604060913705585 I1.4796954314720812 J0.6142131979695432
G3 X24.16751269035533 Y17.256345177664976 I1.131979695431472 J1.131979695431472
G3 X24.781725888324875 Y17.13451776649746 I0.6142131979695432 J1.4796954314720812
G3 X25.393401015228427 Y17.256345177664976 I0 J1.6015228426395938
G3 X25.913705583756347 Y17.604060913705585 I-0.6142131979695432 J1.4796954314720812
G3 X26.261421319796952 Y18.1243654822335 I-1.131979695431472 J1.131979695431472
G1 X27.43426395939086 Y17.63756345177665 F400
G3 X27.65228426395939 Y18.736040609137056 I-2.654822335025381 J1.098984771573604 F400
G3 X27.434010152284266 Y19.83502538071066 I-2.8730964467005076 J0
G3 X26.81218274111675 Y20.76903553299492 I-2.654822335025381 J-1.098984771573604
G3 X25.880710659898476 Y21.390862944162436 I-2.030456852791878 J-2.030456852791878
G3 X24.781725888324875 Y21.60913705583756 I-1.098984771573604 J-2.654822335025381
G3 X23.68020304568528 Y21.390862944162436 I0 J-2.8730964467005076
G3 X22.748730964467004 Y20.76903553299492 I1.098984771573604 J-2.654822335025381
G3 X22.126903553299492 Y19.83502538071066 I2.030456852791878 J-2.030456852791878
G3 X21.908629441624367 Y18.736040609137056 I2.654822335025381 J-1.098984771573604
G3 X22.126903553299492 Y17.63705583756345 I2.8730964467005076 J0
G3 X22.748730964467004 Y16.705583756345177 I2.654822335025381 J1.098984771573604
G3 X23.68020304568528 Y16.083756345177665 I2.030456852791878 J2.030456852791878
G3 X24.781725888324875 Y15.86548223350254 I1.098984771573604 J2.654822335025381
G3 X25.880710659898476 Y16.083756345177665 I0 J2.8730964467005076
G3 X26.81218274111675 Y16.705583756345177 I-1.098984771573604 J2.654822335025381
G3 X27.434010152284266 Y17.63705583756345 I-2.030456852791878 J2.030456852791878
G1 X28.60761421319797 Y17.151522842639594 F400
G3 X28.923857868020306 Y18.736040609137056 I-3.8274111675126905 J1.5862944162436547 F400
G3 X28.606598984771573 Y20.32233502538071 I-4.1421319796954315 J0
G3 X27.71065989847716 Y21.66497461928934 I-3.8274111675126905 J-1.5862944162436547
G3 X26.365482233502537 Y22.56345177664975 I-2.9289340101522843 J-2.9289340101522843
G3 X24.781725888324875 Y22.878172588832484 I-1.5862944162436547 J-3.8274111675126905
G3 X23.19543147208122 Y22.56345177664975 I0 J-4.1421319796954315
G3 X21.850253807106597 Y21.66497461928934 I1.5862944162436547 J-3.8274111675126905
G3 X20.95431472081218 Y20.32233502538071 I2.9289340101522843 J-2.9289340101522843
G3 X20.63705583756345 Y18.736040609137056 I3.8274111675126905 J-1.5862944162436547
G3 X20.95431472081218 Y17.15228426395939 I4.1421319796954315 J0
G3 X21.850253807106597 Y15.807106598984772 I3.8274111675126905 J1.5862944162436547
G3 X23.19543147208122 Y14.908629441624367 I2.9289340101522843 J2.9289340101522843
G3 X24.781725888324875 Y14.593908629441625 I1.5862944162436547 J3.8274111675126905
G3 X26.365482233502537 Y14.908629441624367 I0 J4.1421319796954315
G3 X27.71065989847716 Y15.807106598984772 I-1.5862944162436547 J3.8274111675126905
G3 X28.606598984771573 Y17.15228426395939 I-2.9289340101522843 J2.9289340101522843
G1 X29.780964467005077 Y16.665482233502537 F400
G3 X30.19289340101523 Y18.736040609137056 I-5 J2.0710659898477157 F400
G3 X29.781725888324875 Y20.80710659898477 I-5.413705583756345 J0
G3 X28.606598984771573 Y22.56345177664975 I-5 J-2.0710659898477157
G3 X26.85279187817259 Y23.736040609137056 I-3.8274111675126905 J-3.8274111675126905
G3 X24.781725888324875 Y24.149746192893403 I-2.0710659898477157 J-5
G3 X22.70812182741117 Y23.736040609137056 I0 J-5.413705583756345
G3 X20.95431472081218 Y22.56345177664975 I2.0710659898477157 J-5
G3 X19.779187817258883 Y20.80710659898477 I3.8274111675126905 J-3.8274111675126905
G3 X19.368020304568528 Y18.736040609137056 I5 J-2.0710659898477157
G3 X19.779187817258883 Y16.664974619289342 I5.413705583756345 J0
G3 X20.95431472081218 Y14.908629441624367 I5 J2.0710659898477157
G3 X22.70812182741117 Y13.736040609137056 I3.8274111675126905 J3.8274111675126905
G3 X24.781725888324875 Y13.324873096446701 I2.0710659898477157 J5
G3 X26.85279187817259 Y13.736040609137056 I0 J5.413705583756345
G3 X28.606598984771573 Y14.908629441624367 I-2.0710659898477157 J5
G3 X29.781725888324875 Y16.664974619289342 I-3.8274111675126905 J3.8274111675126905
G0 Z5
G0 X55.97258883248731 Y161.9289340101523
G1 Z-8 F200
G3 X56.34263959390863 Y161.6802030456853 I0.8071065989847716 J0.8071065989847716 F400
G3 X56.78172588832488 Y161.59390862944161 I0.4365482233502538 J1.0558375634517767
G3 X57.21827411167513 Y161.6802030456853 I0 J1.1421319796954315
G3 X57.588832487309645 Y161.9289340101523 I-0.4365482233502538 J1.0558375634517767
G3 X57.83502538071066 Y162.2994923857868 I-0.8071065989847716 J0.8071065989847716
G3 X57.9238578680203 Y162.73604060913704 I-1.0558375634517767 J0.4365482233502538
G3 X57.83502538071066 Y163.1751269035533 I-1.1421319796954315 J0
G3 X57.588832487309645 Y163.54568527918784 I-1.0558375634517767 J-0.4365482233502538
G3 X57.21827411167513 Y163.79187817258884 I-0.8071065989847716 J-0.8071065989847716
G3 X56.78172588832488 Y163.87817258883248 I-0.4365482233502538 J-1.0558375634517767
G3 X56.34263959390863 Y163.79187817258884 I0 J-1.1421319796954315
G3 X55.97208121827411 Y163.54568527918784 I0.4365482233502538 J-1.0558375634517767
G3 X55.7258883248731 Y163.1751269035533 I0.8071065989847716 J-0.8071065989847716
G3 X55.63705583756345 Y162.73604060913704 I1.0558375634517767 J-0.4365482233502538
G3 X55.7258883248731 Y162.2994923857868 I1.1421319796954315 J0
G3 X55.97208121827411 Y161.9289340101523 I1.0558375634517767 J0.4365482233502538
G1 X55.0746192893401 Y161.03096446700508 F400
G3 X55.857868020304565 Y160.507614213198 I1.7055837563451774 J1.7055837563451774 F400
G3 X56.78172588832488 Y160.32487309644668 I0.9238578680203046 J2.228426395939086
G3 X57.703045685279186 Y160.507614213198 I0 J2.4137055837563453
G3 X58.48730964467005 Y161.03045685279187 I-0.9238578680203046 J2.228426395939086
G3 X59.01015228426396 Y161.81472081218274 I-1.7055837563451774 J1.7055837563451774
G3 X59.192893401015226 Y162.73604060913704 I-2.228426395939086 J0.9238578680203046
G1 X59.192893401015226 Y162.73604060913704
G3 X59.01015228426396 Y163.65989847715736 I-2.4137055837563453 J0
G3 X58.48730964467005 Y164.44162436548223 I-2.228426395939086 J-0.9238578680203046
G3 X57.703045685279186 Y164.96446700507616 I-1.7055837563451774 J-1.7055837563451774
G3 X56.78172588832488 Y165.14974619289342 I-0.9238578680203046 J-2.228426395939086
G3 X55.857868020304565 Y164.96446700507616 I0 J-2.4137055837563453
G3 X55.07360406091371 Y164.44162436548223 I0.9238578680203046 J-2.228426395939086
G3 X54.5507614213198 Y163.65989847715736 I1.7055837563451774 J-1.7055837563451774
G3 X54.36802030456853 Y162.73604060913704 I2.228426395939086 J-0.9238578680203046
G1 X54.36802030456853 Y162.73604060913704
G3 X54.5507614213198 Y161.81472081218274 I2.4137055837563453 J0
G3 X55.07360406091371 Y161.03045685279187 I2.228426395939086 J0.9238578680203046
G0 Z5
G0 X57.21776649746193 Y17.681218274111675
G1 Z-8 F200
G3 X57.588832487309645 Y17.928934010152282 I-0.4365482233502538 J1.0558375634517767 F400
G3 X57.83502538071066 Y18.299492385786802 I-0.8071065989847716 J0.8071065989847716
G3 X57.9238578680203 Y18.736040609137056 I-1.0558375634517767 J0.4365482233502538
G3 X57.83502538071066 Y19.1751269035533 I-1.1421319796954315 J0
G3 X57.588832487309645 Y19.545685279187815 I-1.0558375634517767 J-0.4365482233502538
G3 X57.21827411167513 Y19.79187817258883 I-0.8071065989847716 J-0.8071065989847716
G3 X56.78172588832488 Y19.878172588832488 I-0.4365482233502538 J-1.0558375634517767
G3 X56.34263959390863 Y19.79187817258883 I0 J-1.1421319796954315
G3 X55.97208121827411 Y19.545685279187815 I0.4365482233502538 J-1.0558375634517767
G3 X55.7258883248731 Y19.1751269035533 I0.8071065989847716 J-0.8071065989847716
G3 X55.63705583756345 Y18.736040609137056 I1.0558375634517767 J-0.4365482233502538
G3 X55.7258883248731 Y18.299492385786802 I1.1421319796954315 J0
G3 X55.97208121827411 Y17.928934010152282 I1.0558375634517767 J0.4365482233502538
G3 X56.34263959390863 Y17.68020304568528 I0.8071065989847716 J0.8071065989847716
G3 X56.78172588832488 Y17.593908629441625 I0.4365482233502538 J1.0558375634517767
G3 X57.21827411167513 Y17.68020304568528 I0 J1.1421319796954315
G1 X57.70380710659899 Y16.507868020304567 F400
G3 X58.48730964467005 Y17.03045685279188 I-0.9238578680203046 J2.228426395939086 F400
G3 X59.01015228426396 Y17.814720812182742 I-1.7055837563451774 J1.7055837563451774
G3 X59.192893401015226 Y18.736040609137056 I-2.228426395939086 J0.9238578680203046
G3 X59.01015228426396 Y19.65989847715736 I-2.4137055837563453 J0
G3 X58.48730964467005 Y20.441624365482234 I-2.228426395939086 J-0.9238578680203046
G3 X57.703045685279186 Y20.964467005076145 I-1.7055837563451774 J-1.7055837563451774
G3 X56.78172588832488 Y21.1497461928934 I-0.9238578680203046 J-2.228426395939086
G3 X55.857868020304565 Y20.964467005076145 I0 J-2.4137055837563453
G3 X55.07360406091371 Y20.441624365482234 I0.9238578680203046 J-2.228426395939086
G3 X54.5507614213198 Y19.65989847715736 I1.7055837563451774 J-1.7055837563451774
G3 X54.36802030456853 Y18.736040609137056 I2.228426395939086 J-0.9238578680203046
G3 X54.5507614213198 Y17.814720812182742 I2.4137055837563453 J0
G3 X55.07360406091371 Y17.03045685279188 I2.228426395939086 J0.9238578680203046
G3 X55.857868020304565 Y16.507614213197968 I1.7055837563451774 J1.7055837563451774
G3 X56.78172588832488 Y16.3248730964467 I0.9238578680203046 J2.228426395939086
G3 X57.703045685279186 Y16.507614213197968 I0 J2.4137055837563453
G0 Z5
G0 X56.78045685279188 Y139.3243654822335
G1 Z-8 F200
G3 X57.129441624365484 Y139.39340101522842 I0 J0.9137055837563451 F400
G3 X57.42639593908629 Y139.59137055837564 I-0.35025380710659904 J0.8426395939086294
G3 X57.6243654822335 Y139.88832487309645 I-0.6446700507614213 J0.6446700507614213
G3 X57.692893401015226 Y140.23604060913704 I-0.8426395939086294 J0.35025380710659904
G3 X57.6243654822335 Y140.58629441624365 I-0.9137055837563451 J0
G3 X57.42639593908629 Y140.88324873096445 I-0.8426395939086294 J-0.35025380710659904
G3 X57.129441624365484 Y141.07868020304568 I-0.6446700507614213 J-0.6446700507614213
G3 X56.78172588832488 Y141.1497461928934 I-0.35025380710659904 J-0.8426395939086294
G3 X56.431472081218274 Y141.07868020304568 I0 J-0.9137055837563451
G3 X56.13451776649746 Y140.88324873096445 I0.35025380710659904 J-0.8426395939086294
G3 X55.93654822335026 Y140.58629441624365 I0.6446700507614213 J-0.6446700507614213
G3 X55.868020304568525 Y140.23604060913704 I0.8426395939086294 J-0.35025380710659904
G3 X55.93654822335026 Y139.88832487309645 I0.9137055837563451 J0
G3 X56.13451776649746 Y139.59137055837564 I0.8426395939086294 J0.35025380710659904
G3 X56.431472081218274 Y139.39340101522842 I0.6446700507614213 J0.6446700507614213
G3 X56.78172588832488 Y139.3248730964467 I0.35025380710659904 J0.8426395939086294
G0 Z5
G0 X57.623604060913706 Y125.58604060913706
G1 Z-8 F200
G3 X57.42639593908629 Y125.88324873096447 I-0.8426395939086294 J-0.35025380710659904 F400
G3 X57.129441624365484 Y126.07868020304568 I-0.6446700507614213 J-0.6446700507614213
G3 X56.78172588832488 Y126.1497461928934 I-0.35025380710659904 J-0.8426395939086294
G3 X56.431472081218274 Y126.07868020304568 I0 J-0.9137055837563451
G3 X56.13451776649746 Y125.88324873096447 I0.35025380710659904 J-0.8426395939086294
G3 X55.93654822335026 Y125.58629441624365 I0.6446700507614213 J-0.6446700507614213
G3 X55.868020304568525 Y125.23604060913705 I0.8426395939086294 J-0.35025380710659904
G3 X55.93654822335026 Y124.88832487309645 I0.9137055837563451 J0
G3 X56.13451776649746 Y124.59137055837564 I0.8426395939086294 J0.35025380710659904
G3 X56.431472081218274 Y124.39340101522843 I0.6446700507614213 J0.6446700507614213
G3 X56.78172588832488 Y124.32487309644671 I0.35025380710659904 J0.8426395939086294
G3 X57.129441624365484 Y124.39340101522843 I0 J0.9137055837563451
G3 X57.42639593908629 Y124.59137055837564 I-0.35025380710659904 J0.8426395939086294
G3 X57.6243654822335 Y124.88832487309645 I-0.6446700507614213 J0.6446700507614213
G3 X57.692893401015226 Y125.23604060913705 I-0.8426395939086294 J0.35025380710659904
G3 X57.6243654822335 Y125.58629441624365 I-0.9137055837563451 J0
G0 Z5
G0 X25.129695431472083 Y139.39365482233504
G1 Z-8 F200
G3 X25.42639593908629 Y139.59137055837564 I-0.35025380710659904 J0.8426395939086294 F400
G3 X25.6243654822335 Y139.88832487309645 I-0.6446700507614213 J0.6446700507614213
G3 X25.69289340101523 Y140.23604060913704 I-0.8426395939086294 J0.35025380710659904
G3 X25.6243654822335 Y140.58629441624365 I-0.9137055837563451 J0
G3 X25.42639593908629 Y140.88324873096445 I-0.8426395939086294 J-0.35025380710659904
G3 X25.129441624365484 Y141.07868020304568 I-0.6446700507614213 J-0.6446700507614213
G3 X24.781725888324875 Y141.1497461928934 I-0.35025380710659904 J-0.8426395939086294
G3 X24.431472081218274 Y141.07868020304568 I0 J-0.9137055837563451
G3 X24.13451776649746 Y140.88324873096445 I0.35025380710659904 J-0.8426395939086294
G3 X23.936548223350258 Y140.58629441624365 I0.6446700507614213 J-0.6446700507614213
G3 X23.868020304568528 Y140.23604060913704 I0.8426395939086294 J-0.35025380710659904
G3 X23.936548223350258 Y139.88832487309645 I0.9137055837563451 J0
G3 X24.13451776649746 Y139.59137055837564 I0.8426395939086294 J0.35025380710659904
G3 X24.431472081218274 Y139.39340101522842 I0.6446700507614213 J0.6446700507614213
G3 X24.781725888324875 Y139.3248730964467 I0.35025380710659904 J0.8426395939086294
G3 X25.129441624365484 Y139.39340101522842 I0 J0.9137055837563451
G0 Z5
G0 X25.129695431472083 Y124.39365482233502
G1 Z-8 F200
G3 X25.42639593908629 Y124.59137055837564 I-0.35025380710659904 J0.8426395939086294 F400
G3 X25.6243654822335 Y124.88832487309645 I-0.6446700507614213 J0.6446700507614213
G3 X25.69289340101523 Y125.23604060913705 I-0.8426395939086294 J0.35025380710659904
G3 X25.6243654822335 Y125.58629441624365 I-0.9137055837563451 J0
G3 X25.42639593908629 Y125.88324873096447 I-0.8426395939086294 J-0.35025380710659904
G3 X25.129441624365484 Y126.07868020304568 I-0.6446700507614213 J-0.6446700507614213
G3 X24.781725888324875 Y126.1497461928934 I-0.35025380710659904 J-0.8426395939086294
G3 X24.431472081218274 Y126.07868020304568 I0 J-0.9137055837563451
G3 X24.13451776649746 Y125.88324873096447 I0.35025380710659904 J-0.8426395939086294
G3 X23.936548223350258 Y125.58629441624365 I0.6446700507614213 J-0.6446700507614213
G3 X23.868020304568528 Y125.23604060913705 I0.8426395939086294 J-0.35025380710659904
G3 X23.936548223350258 Y124.88832487309645 I0.9137055837563451 J0
G3 X24.13451776649746 Y124.59137055837564 I0.8426395939086294 J0.35025380710659904
G3 X24.431472081218274 Y124.39340101522843 I0.6446700507614213 J0.6446700507614213
G3 X24.781725888324875 Y124.32487309644671 I0.35025380710659904 J0.8426395939086294
G3 X25.129441624365484 Y124.39340101522843 I0 J0.9137055837563451
G0 Z5
G0 X25.425634517766497 Y56.881979695431475
G1 Z-8 F200
G3 X25.129441624365484 Y57.07868020304568 I-0.6446700507614213 J-0.6446700507614213 F400
G3 X24.781725888324875 Y57.1497461928934 I-0.35025380710659904 J-0.8426395939086294
G3 X24.431472081218274 Y57.07868020304568 I0 J-0.9137055837563451
G3 X24.13451776649746 Y56.88324873096447 I0.35025380710659904 J-0.8426395939086294
G3 X23.936548223350258 Y56.58629441624366 I0.6446700507614213 J-0.6446700507614213
G3 X23.868020304568528 Y56.236040609137056 I0.8426395939086294 J-0.35025380710659904
G3 X23.936548223350258 Y55.88832487309645 I0.9137055837563451 J0
G3 X24.13451776649746 Y55.59137055837564 I0.8426395939086294 J0.35025380710659904
G3 X24.431472081218274 Y55.39340101522843 I0.6446700507614213 J0.6446700507614213
G3 X24.781725888324875 Y55.324873096446694 I0.35025380710659904 J0.8426395939086294
G3 X25.129441624365484 Y55.39340101522843 I0 J0.9137055837563451
G3 X25.42639593908629 Y55.59137055837564 I-0.35025380710659904 J0.8426395939086294
G3 X25.6243654822335 Y55.88832487309645 I-0.6446700507614213 J0.6446700507614213
G3 X25.69289340101523 Y56.236040609137056 I-0.8426395939086294 J0.35025380710659904
G3 X25.6243654822335 Y56.58629441624366 I-0.9137055837563451 J0
G3 X25.42639593908629 Y56.88324873096447 I-0.8426395939086294 J-0.35025380710659904
G0 Z5
G0 X57.623604060913706 Y56.58604060913706
G1 Z-8 F200
G3 X57.42639593908629 Y56.88324873096447 I-0.8426395939086294 J-0.35025380710659904 F400
G3 X57.129441624365484 Y57.07868020304568 I-0.6446700507614213 J-0.6446700507614213
G3 X56.78172588832488 Y57.1497461928934 I-0.35025380710659904 J-0.8426395939086294
G3 X56.431472081218274 Y57.07868020304568 I0 J-0.9137055837563451
G3 X56.13451776649746 Y56.88324873096447 I0.35025380710659904 J-0.8426395939086294
G3 X55.93654822335026 Y56.58629441624366 I0.6446700507614213 J-0.6446700507614213
G3 X55.868020304568525 Y56.236040609137056 I0.8426395939086294 J-0.35025380710659904
G3 X55.93654822335026 Y55.88832487309645 I0.9137055837563451 J0
G3 X56.13451776649746 Y55.59137055837564 I0.8426395939086294 J0.35025380710659904
G3 X56.431472081218274 Y55.39340101522843 I0.6446700507614213 J0.6446700507614213
G3 X56.78172588832488 Y55.324873096446694 I0.35025380710659904 J0.8426395939086294
G3 X57.129441624365484 Y55.39340101522843 I0 J0.9137055837563451
G3 X57.42639593908629 Y55.59137055837564 I-0.35025380710659904 J0.8426395939086294
G3 X57.6243654822335 Y55.88832487309645 I-0.6446700507614213 J0.6446700507614213
G3 X57.692893401015226 Y56.236040609137056 I-0.8426395939086294 J0.35025380710659904
G3 X57.6243654822335 Y56.58629441624366 I-0.9137055837563451 J0
G0 Z5
G0 X57.623604060913706 Y41.58604060913706
G1 Z-8 F200
G3 X57.42639593908629 Y41.88324873096447 I-0.8426395939086294 J-0.35025380710659904 F400
G3 X57.129441624365484 Y42.07868020304568 I-0.6446700507614213 J-0.6446700507614213
G3 X56.78172588832488 Y42.1497461928934 I-0.35025380710659904 J-0.8426395939086294
G3 X56.431472081218274 Y42.07868020304568 I0 J-0.9137055837563451
G3 X56.13451776649746 Y41.88324873096447 I0.35025380710659904 J-0.8426395939086294
G3 X55.93654822335026 Y41.58629441624366 I0.6446700507614213 J-0.6446700507614213
G3 X55.868020304568525 Y41.236040609137056 I0.8426395939086294 J-0.35025380710659904
G3 X55.93654822335026 Y40.88832487309645 I0.9137055837563451 J0
G3 X56.13451776649746 Y40.59137055837564 I0.8426395939086294 J0.35025380710659904
G3 X56.431472081218274 Y40.39340101522843 I0.6446700507614213 J0.6446700507614213
G3 X56.78172588832488 Y40.324873096446694 I0.35025380710659904 J0.8426395939086294
G3 X57.129441624365484 Y40.39340101522843 I0 J0.9137055837563451
G3 X57.42639593908629 Y40.59137055837564 I-0.35025380710659904 J0.8426395939086294
G3 X57.6243654822335 Y40.88832487309645 I-0.6446700507614213 J0.6446700507614213
G3 X57.692893401015226 Y41.236040609137056 I-0.8426395939086294 J0.35025380710659904
G3 X57.6243654822335 Y41.58629441624366 I-0.9137055837563451 J0
G0 Z5
G0 X25.129695431472083 Y40.39365482233502
G1 Z-8 F200
G3 X25.42639593908629 Y40.59137055837564 I-0.35025380710659904 J0.8426395939086294 F400
G3 X25.6243654822335 Y40.88832487309645 I-0.6446700507614213 J0.6446700507614213
G3 X25.69289340101523 Y41.236040609137056 I-0.8426395939086294 J0.35025380710659904
G3 X25.6243654822335 Y41.58629441624366 I-0.9137055837563451 J0
G3 X25.42639593908629 Y41.88324873096447 I-0.8426395939086294 J-0.35025380710659904
G3 X25.129441624365484 Y42.07868020304568 I-0.6446700507614213 J-0.6446700507614213
G3 X24.781725888324875 Y42.1497461928934 I-0.35025380710659904 J-0.8426395939086294
G3 X24.431472081218274 Y42.07868020304568 I0 J-0.9137055837563451
G3 X24.13451776649746 Y41.88324873096447 I0.35025380710659904 J-0.8426395939086294
G3 X23.936548223350258 Y41.58629441624366 I0.6446700507614213 J-0.6446700507614213
G3 X23.868020304568528 Y41.236040609137056 I0.8426395939086294 J-0.35025380710659904
G3 X23.936548223350258 Y40.88832487309645 I0.9137055837563451 J0
G3 X24.13451776649746 Y40.59137055837564 I0.8426395939086294 J0.35025380710659904
G3 X24.431472081218274 Y40.39340101522843 I0.6446700507614213 J0.6446700507614213
G3 X24.781725888324875 Y40.324873096446694 I0.35025380710659904 J0.8426395939086294
G3 X25.129441624365484 Y40.39340101522843 I0 J0.9137055837563451
G0 Z5
G0 X70.8246192893401 Y150.78096446700508
G1 Z-8 F200
G1 X70.80456852791878 Y150.79441624365484 F400
G1 X70.78172588832487 Y150.7994923857868
G1 X70.75634517766497 Y150.79441624365484
G1 X70.73604060913706 Y150.78172588832487
G1 X70.72335025380711 Y150.76142131979697
G1 X70.71827411167513 Y150.73604060913706
G1 X70.72335025380711 Y150.71319796954316
G1 X70.73604060913706 Y150.69289340101523
G1 X70.75634517766497 Y150.6802030456853
G1 X70.78172588832487 Y150.6751269035533
G1 X70.80456852791878 Y150.6802030456853
G1 X70.82487309644671 Y150.69289340101523
G1 X70.83756345177665 Y150.71319796954316
G1 X70.84263959390863 Y150.73604060913706
G1 X70.83756345177665 Y150.76142131979697
G1 X70.82487309644671 Y150.78172588832487
G0 Z5
G0 X70.84289340101523 Y170.73680203045686
G1 Z-8 F200
G1 X70.83756345177665 Y170.76142131979694 F400
G1 X70.82487309644671 Y170.78172588832487
G1 X70.80456852791878 Y170.79441624365484
G1 X70.78172588832487 Y170.7994923857868
G1 X70.75634517766497 Y170.79441624365484
G1 X70.73604060913706 Y170.78172588832487
G1 X70.72335025380711 Y170.76142131979694
G1 X70.71827411167513 Y170.73604060913706
G1 X70.72335025380711 Y170.71319796954313
G1 X70.73604060913706 Y170.69289340101523
G1 X70.75634517766497 Y170.6802030456853
G1 X70.78172588832487 Y170.6751269035533
G1 X70.80456852791878 Y170.6802030456853
G1 X70.82487309644671 Y170.69289340101523
G1 X70.83756345177665 Y170.71319796954313
G1 X70.84263959390863 Y170.73604060913706
G0 Z5
G0 X70.8246192893401 Y10.692639593908629
G1 Z-8 F200
G1 X70.83756345177665 Y10.713197969543147 F400
G1 X70.84263959390863 Y10.736040609137056
G1 X70.83756345177665 Y10.761421319796954
G1 X70.82487309644671 Y10.781725888324873
G1 X70.80456852791878 Y10.794416243654823
G1 X70.78172588832487 Y10.799492385786802
G1 X70.75634517766497 Y10.794416243654823
G1 X70.73604060913706 Y10.781725888324873
G1 X70.72335025380711 Y10.761421319796954
G1 X70.71827411167513 Y10.736040609137056
G1 X70.72335025380711 Y10.713197969543147
G1 X70.73604060913706 Y10.69289340101523
G1 X70.75634517766497 Y10.680203045685278
G1 X70.78172588832487 Y10.6751269035533
G1 X70.80456852791878 Y10.680203045685278
G1 X70.82487309644671 Y10.69289340101523
G0 Z5
G0 X70.8246192893401 Y70.69263959390862
G1 Z-8 F200
G1 X70.83756345177665 Y70.71319796954315 F400
G1 X70.84263959390863 Y70.73604060913706
G1 X70.83756345177665 Y70.76142131979695
G1 X70.82487309644671 Y70.78172588832487
G1 X70.80456852791878 Y70.79441624365482
G1 X70.78172588832487 Y70.7994923857868
G1 X70.75634517766497 Y70.79441624365482
G1 X70.73604060913706 Y70.78172588832487
G1 X70.72335025380711 Y70.76142131979695
G1 X70.71827411167513 Y70.73604060913706
G1 X70.72335025380711 Y70.71319796954315
G1 X70.73604060913706 Y70.69289340101523
G1 X70.75634517766497 Y70.68020304568527
G1 X70.78172588832487 Y70.6751269035533
G1 X70.80456852791878 Y70.68020304568527
G1 X70.82487309644671 Y70.69289340101523
G0 Z5
G0 X70.8246192893401 Y30.69263959390863
G1 Z-8 F200
G1 X70.83756345177665 Y30.71319796954315 F400
G1 X70.84263959390863 Y30.736040609137056
G1 X70.83756345177665 Y30.761421319796955
G1 X70.82487309644671 Y30.78172588832487
G1 X70.80456852791878 Y30.794416243654823
G1 X70.78172588832487 Y30.799492385786806
G1 X70.75634517766497 Y30.794416243654823
G1 X70.73604060913706 Y30.78172588832487
G1 X70.72335025380711 Y30.761421319796955
G1 X70.71827411167513 Y30.736040609137056
G1 X70.72335025380711 Y30.71319796954315
G1 X70.73604060913706 Y30.69289340101523
G1 X70.75634517766497 Y30.68020304568528
G1 X70.78172588832487 Y30.6751269035533
G1 X70.80456852791878 Y30.68020304568528
G1 X70.82487309644671 Y30.69289340101523
G0 Z5
G0 X50.8246192893401 Y90.69263959390862
G1 Z-8 F200
G1 X50.83756345177665 Y90.71319796954315 F400
G1 X50.84263959390863 Y90.73604060913706
G1 X50.83756345177665 Y90.76142131979695
G1 X50.8248730964467 Y90.78172588832487
G1 X50.804568527918775 Y90.79441624365484
G1 X50.78172588832487 Y90.79949238578679
G1 X50.75634517766497 Y90.79441624365484
G1 X50.736040609137056 Y90.78172588832487
G1 X50.723350253807105 Y90.76142131979695
G1 X50.71827411167512 Y90.73604060913706
G1 X50.723350253807105 Y90.71319796954315
G1 X50.736040609137056 Y90.69289340101523
G1 X50.75634517766497 Y90.68020304568527
G1 X50.78172588832487 Y90.67512690355329
G1 X50.804568527918775 Y90.68020304568527
G1 X50.8248730964467 Y90.69289340101523
G0 Z5
G0 X70.8246192893401 Y50.69263959390863
G1 Z-8 F200
G1 X70.83756345177665 Y50.713197969543145 F400
G1 X70.84263959390863 Y50.736040609137056
G1 X70.83756345177665 Y50.76142131979695
G1 X70.82487309644671 Y50.78172588832487
G1 X70.80456852791878 Y50.79441624365482
G1 X70.78172588832487 Y50.799492385786806
G1 X70.75634517766497 Y50.79441624365482
G1 X70.73604060913706 Y50.78172588832487
G1 X70.72335025380711 Y50.76142131979695
G1 X70.71827411167513 Y50.736040609137056
G1 X70.72335025380711 Y50.713197969543145
G1 X70.73604060913706 Y50.692893401015226
G1 X70.75634517766497 Y50.680203045685275
G1 X70.78172588832487 Y50.6751269035533
G1 X70.80456852791878 Y50.680203045685275
G1 X70.82487309644671 Y50.692893401015226
G0 Z5
G0 X70.84289340101523 Y90.73680203045686
G1 Z-8 F200
G1 X70.83756345177665 Y90.76142131979695 F400
G1 X70.82487309644671 Y90.78172588832487
G1 X70.80456852791878 Y90.79441624365484
G1 X70.78172588832487 Y90.79949238578679
G1 X70.75634517766497 Y90.79441624365484
G1 X70.73604060913706 Y90.78172588832487
G1 X70.72335025380711 Y90.76142131979695
G1 X70.71827411167513 Y90.73604060913706
G1 X70.72335025380711 Y90.71319796954315
G1 X70.73604060913706 Y90.69289340101523
G1 X70.75634517766497 Y90.68020304568527
G1 X70.78172588832487 Y90.67512690355329
G1 X70.80456852791878 Y90.68020304568527
G1 X70.82487309644671 Y90.69289340101523
G1 X70.83756345177665 Y90.71319796954315
G1 X70.84263959390863 Y90.73604060913706
G0 Z5
G0 X70.84289340101523 Y130.73680203045686
G1 Z-8 F200
G1 X70.83756345177665 Y130.76142131979697 F400
G1 X70.82487309644671 Y130.78172588832487
G1 X70.80456852791878 Y130.79441624365484
G1 X70.78172588832487 Y130.7994923857868
G1 X70.75634517766497 Y130.79441624365484
G1 X70.73604060913706 Y130.78172588832487
G1 X70.72335025380711 Y130.76142131979697
G1 X70.71827411167513 Y130.73604060913706
G1 X70.72335025380711 Y130.71319796954316
G1 X70.73604060913706 Y130.69289340101523
G1 X70.75634517766497 Y130.6802030456853
G1 X70.78172588832487 Y130.6751269035533
G1 X70.80456852791878 Y130.6802030456853
G1 X70.82487309644671 Y130.69289340101523
G1 X70.83756345177665 Y130.71319796954316
G1 X70.84263959390863 Y130.73604060913706
G0 Z5
G0 X30.78045685279188 Y110.6743654822335
G1 Z-8 F200
G1 X30.804568527918782 Y110.68020304568527 F400
G1 X30.824873096446698 Y110.69289340101523
G1 X30.83756345177665 Y110.71319796954315
G1 X30.84263959390863 Y110.73604060913706
G1 X30.83756345177665 Y110.76142131979695
G1 X30.824873096446698 Y110.78172588832487
G1 X30.804568527918782 Y110.79441624365484
G1 X30.78172588832487 Y110.79949238578679
G1 X30.756345177664976 Y110.79441624365484
G1 X30.736040609137056 Y110.78172588832487
G1 X30.723350253807105 Y110.76142131979695
G1 X30.71827411167513 Y110.73604060913706
G1 X30.723350253807105 Y110.71319796954315
G1 X30.736040609137056 Y110.69289340101523
G1 X30.756345177664976 Y110.68020304568527
G1 X30.78172588832487 Y110.67512690355329
G0 Z5
G0 X30.78045685279188 Y90.6743654822335
G1 Z-8 F200
G1 X30.804568527918782 Y90.68020304568527 F400
G1 X30.824873096446698 Y90.69289340101523
G1 X30.83756345177665 Y90.71319796954315
G1 X30.84263959390863 Y90.73604060913706
G1 X30.83756345177665 Y90.76142131979695
G1 X30.824873096446698 Y90.78172588832487
G1 X30.804568527918782 Y90.79441624365484
G1 X30.78172588832487 Y90.79949238578679
G1 X30.756345177664976 Y90.79441624365484
G1 X30.736040609137056 Y90.78172588832487
G1 X30.723350253807105 Y90.76142131979695
G1 X30.71827411167513 Y90.73604060913706
G1 X30.723350253807105 Y90.71319796954315
G1 X30.736040609137056 Y90.69289340101523
G1 X30.756345177664976 Y90.68020304568527
G1 X30.78172588832487 Y90.67512690355329
G0 Z5
G0 X10.804314720812183 Y170.6789340101523
G1 Z-8 F200
G1 X10.824873096446701 Y170.69289340101523 F400
G1 X10.837563451776651 Y170.71319796954313
G1 X10.842639593908629 Y170.73604060913706
G1 X10.837563451776651 Y170.76142131979694
G1 X10.824873096446701 Y170.78172588832487
G1 X10.80456852791878 Y170.79441624365484
G1 X10.781725888324873 Y170.7994923857868
G1 X10.756345177664974 Y170.79441624365484
G1 X10.736040609137056 Y170.78172588832487
G1 X10.723350253807107 Y170.76142131979694
G1 X10.718274111675129 Y170.73604060913706
G1 X10.723350253807107 Y170.71319796954313
G1 X10.736040609137056 Y170.69289340101523
G1 X10.756345177664974 Y170.6802030456853
G1 X10.781725888324873 Y170.6751269035533
G1 X10.80456852791878 Y170.6802030456853
G0 Z5
G0 X10.780456852791879 Y150.6743654822335
G1 Z-8 F200
G1 X10.80456852791878 Y150.6802030456853 F400
G1 X10.824873096446701 Y150.69289340101523
G1 X10.837563451776651 Y150.71319796954316
G1 X10.842639593908629 Y150.73604060913706
G1 X10.837563451776651 Y150.76142131979697
G1 X10.824873096446701 Y150.78172588832487
G1 X10.80456852791878 Y150.79441624365484
G1 X10.781725888324873 Y150.7994923857868
G1 X10.756345177664974 Y150.79441624365484
G1 X10.736040609137056 Y150.78172588832487
G1 X10.723350253807107 Y150.76142131979697
G1 X10.718274111675129 Y150.73604060913706
G1 X10.723350253807107 Y150.71319796954316
G1 X10.736040609137056 Y150.69289340101523
G1 X10.756345177664974 Y150.6802030456853
G1 X10.781725888324873 Y150.6751269035533
G0 Z5
G0 X10.780456852791879 Y130.6743654822335
G1 Z-8 F200
G1 X10.80456852791878 Y130.6802030456853 F400
G1 X10.824873096446701 Y130.69289340101523
G1 X10.837563451776651 Y130.71319796954316
G1 X10.842639593908629 Y130.73604060913706
G1 X10.837563451776651 Y130.76142131979697
G1 X10.824873096446701 Y130.78172588832487
G1 X10.80456852791878 Y130.79441624365484
G1 X10.781725888324873 Y130.7994923857868
G1 X10.756345177664974 Y130.79441624365484
G1 X10.736040609137056 Y130.78172588832487
G1 X10.723350253807107 Y130.76142131979697
G1 X10.718274111675129 Y130.73604060913706
G1 X10.723350253807107 Y130.71319796954316
G1 X10.736040609137056 Y130.69289340101523
G1 X10.756345177664974 Y130.6802030456853
G1 X10.781725888324873 Y130.6751269035533
G0 Z5
G0 X10.780456852791879 Y90.6743654822335
G1 Z-8 F200
G1 X10.80456852791878 Y90.68020304568527 F400
G1 X10.824873096446701 Y90.69289340101523
G1 X10.837563451776651 Y90.71319796954315
G1 X10.842639593908629 Y90.73604060913706
G1 X10.837563451776651 Y90.76142131979695
G1 X10.824873096446701 Y90.78172588832487
G1 X10.80456852791878 Y90.79441624365484
G1 X10.781725888324873 Y90.79949238578679
G1 X10.756345177664974 Y90.79441624365484
G1 X10.736040609137056 Y90.78172588832487
G1 X10.723350253807107 Y90.76142131979695
G1 X10.718274111675129 Y90.73604060913706
G1 X10.723350253807107 Y90.71319796954315
G1 X10.736040609137056 Y90.69289340101523
G1 X10.756345177664974 Y90.68020304568527
G1 X10.781725888324873 Y90.67512690355329
G0 Z5
G0 X50.8246192893401 Y70.78096446700508
G1 Z-8 F200
G1 X50.804568527918775 Y70.79441624365482 F400
G1 X50.78172588832487 Y70.7994923857868
G1 X50.75634517766497 Y70.79441624365482
G1 X50.736040609137056 Y70.78172588832487
G1 X50.723350253807105 Y70.76142131979695
G1 X50.71827411167512 Y70.73604060913706
G1 X50.723350253807105 Y70.71319796954315
G1 X50.736040609137056 Y70.69289340101523
G1 X50.75634517766497 Y70.68020304568527
G1 X50.78172588832487 Y70.6751269035533
G1 X50.804568527918775 Y70.68020304568527
G1 X50.8248730964467 Y70.69289340101523
G1 X50.83756345177665 Y70.71319796954315
G1 X50.84263959390863 Y70.73604060913706
G1 X50.83756345177665 Y70.76142131979695
G1 X50.8248730964467 Y70.78172588832487
G0 Z5
G0 X30.824619289340102 Y70.69263959390862
G1 Z-8 F200
G1 X30.83756345177665 Y70.71319796954315 F400
G1 X30.84263959390863 Y70.73604060913706
G1 X30.83756345177665 Y70.76142131979695
G1 X30.824873096446698 Y70.78172588832487
G1 X30.804568527918782 Y70.79441624365482
G1 X30.78172588832487 Y70.7994923857868
G1 X30.756345177664976 Y70.79441624365482
G1 X30.736040609137056 Y70.78172588832487
G1 X30.723350253807105 Y70.76142131979695
G1 X30.71827411167513 Y70.73604060913706
G1 X30.723350253807105 Y70.71319796954315
G1 X30.736040609137056 Y70.69289340101523
G1 X30.756345177664976 Y70.68020304568527
G1 X30.78172588832487 Y70.6751269035533
G1 X30.804568527918782 Y70.68020304568527
G1 X30.824873096446698 Y70.69289340101523
G0 Z5
G0 X50.8246192893401 Y110.78096446700508
G1 Z-8 F200
G1 X50.804568527918775 Y110.79441624365484 F400
G1 X50.78172588832487 Y110.79949238578679
G1 X50.75634517766497 Y110.79441624365484
G1 X50.736040609137056 Y110.78172588832487
G1 X50.723350253807105 Y110.76142131979695
G1 X50.71827411167512 Y110.73604060913706
G1 X50.723350253807105 Y110.71319796954315
G1 X50.736040609137056 Y110.69289340101523
G1 X50.75634517766497 Y110.68020304568527
G1 X50.78172588832487 Y110.67512690355329
G1 X50.804568527918775 Y110.68020304568527
G1 X50.8248730964467 Y110.69289340101523
G1 X50.83756345177665 Y110.71319796954315
G1 X50.84263959390863 Y110.73604060913706
G1 X50.83756345177665 Y110.76142131979695
G1 X50.8248730964467 Y110.78172588832487
G0 Z5
G0 X70.8246192893401 Y110.78096446700508
G1 Z-8 F200
G1 X70.80456852791878 Y110.79441624365484 F400
G1 X70.78172588832487 Y110.79949238578679
G1 X70.75634517766497 Y110.79441624365484
G1 X70.73604060913706 Y110.78172588832487
G1 X70.72335025380711 Y110.76142131979695
G1 X70.71827411167513 Y110.73604060913706
G1 X70.72335025380711 Y110.71319796954315
G1 X70.73604060913706 Y110.69289340101523
G1 X70.75634517766497 Y110.68020304568527
G1 X70.78172588832487 Y110.67512690355329
G1 X70.80456852791878 Y110.68020304568527
G1 X70.82487309644671 Y110.69289340101523
G1 X70.83756345177665 Y110.71319796954315
G1 X70.84263959390863 Y110.73604060913706
G1 X70.83756345177665 Y110.76142131979695
G1 X70.82487309644671 Y110.78172588832487
G0 Z5
G0 X10.756598984771573 Y110.67893401015229
G1 Z-8 F200
G1 X10.781725888324873 Y110.67512690355329 F400
G1 X10.80456852791878 Y110.68020304568527
G1 X10.824873096446701 Y110.69289340101523
G1 X10.837563451776651 Y110.71319796954315
G1 X10.842639593908629 Y110.73604060913706
G1 X10.837563451776651 Y110.76142131979695
G1 X10.824873096446701 Y110.78172588832487
G1 X10.80456852791878 Y110.79441624365484
G1 X10.781725888324873 Y110.79949238578679
G1 X10.756345177664974 Y110.79441624365484
G1 X10.736040609137056 Y110.78172588832487
G1 X10.723350253807107 Y110.76142131979695
G1 X10.718274111675129 Y110.73604060913706
G1 X10.723350253807107 Y110.71319796954315
G1 X10.736040609137056 Y110.69289340101523
G1 X10.756345177664974 Y110.68020304568527
G0 Z5
G0 X10.824619289340102 Y70.78096446700508
G1 Z-8 F200
G1 X10.80456852791878 Y70.79441624365482 F400
G1 X10.781725888324873 Y70.7994923857868
G1 X10.756345177664974 Y70.79441624365482
G1 X10.736040609137056 Y70.78172588832487
G1 X10.723350253807107 Y70.76142131979695
G1 X10.718274111675129 Y70.73604060913706
G1 X10.723350253807107 Y70.71319796954315
G1 X10.736040609137056 Y70.69289340101523
G1 X10.756345177664974 Y70.68020304568527
G1 X10.781725888324873 Y70.6751269035533
G1 X10.80456852791878 Y70.68020304568527
G1 X10.824873096446701 Y70.69289340101523
G1 X10.837563451776651 Y70.71319796954315
G1 X10.842639593908629 Y70.73604060913706
G1 X10.837563451776651 Y70.76142131979695
G1 X10.824873096446701 Y70.78172588832487
G0 Z5
G0 X10.824619289340102 Y50.78096446700508
G1 Z-8 F200
G1 X10.80456852791878 Y50.79441624365482 F400
G1 X10.781725888324873 Y50.799492385786806
G1 X10.756345177664974 Y50.79441624365482
G1 X10.736040609137056 Y50.78172588832487
G1 X10.723350253807107 Y50.76142131979695
G1 X10.718274111675129 Y50.736040609137056
G1 X10.723350253807107 Y50.713197969543145
G1 X10.736040609137056 Y50.692893401015226
G1 X10.756345177664974 Y50.680203045685275
G1 X10.781725888324873 Y50.6751269035533
G1 X10.80456852791878 Y50.680203045685275
G1 X10.824873096446701 Y50.692893401015226
G1 X10.837563451776651 Y50.713197969543145
G1 X10.842639593908629 Y50.736040609137056
G1 X10.837563451776651 Y50.76142131979695
G1 X10.824873096446701 Y50.78172588832487
G0 Z5
G0 X10.824619289340102 Y10.780964467005075
G1 Z-8 F200
G1 X10.80456852791878 Y10.794416243654823 F400
G1 X10.781725888324873 Y10.799492385786802
G1 X10.756345177664974 Y10.794416243654823
G1 X10.736040609137056 Y10.781725888324873
G1 X10.723350253807107 Y10.761421319796954
G1 X10.718274111675129 Y10.736040609137056
G1 X10.723350253807107 Y10.713197969543147
G1 X10.736040609137056 Y10.69289340101523
G1 X10.756345177664974 Y10.680203045685278
G1 X10.781725888324873 Y10.6751269035533
G1 X10.80456852791878 Y10.680203045685278
G1 X10.824873096446701 Y10.69289340101523
G1 X10.837563451776651 Y10.713197969543147
G1 X10.842639593908629 Y10.736040609137056
G1 X10.837563451776651 Y10.761421319796954
G1 X10.824873096446701 Y10.781725888324873
G0 Z5
G0 X10.756598984771573 Y30.678934010152282
G1 Z-8 F200
G1 X10.781725888324873 Y30.6751269035533 F400
G1 X10.80456852791878 Y30.68020304568528
G1 X10.824873096446701 Y30.69289340101523
G1 X10.837563451776651 Y30.71319796954315
G1 X10.842639593908629 Y30.736040609137056
G1 X10.837563451776651 Y30.761421319796955
G1 X10.824873096446701 Y30.78172588832487
G1 X10.80456852791878 Y30.794416243654823
G1 X10.781725888324873 Y30.799492385786806
G1 X10.756345177664974 Y30.794416243654823
G1 X10.736040609137056 Y30.78172588832487
G1 X10.723350253807107 Y30.761421319796955
G1 X10.718274111675129 Y30.736040609137056
G1 X10.723350253807107 Y30.71319796954315
G1 X10.736040609137056 Y30.69289340101523
G1 X10.756345177664974 Y30.68020304568528
G0 Z5
G0 X36.63807106598985 Y145.03680203045684
G1 Z-8 F200
G1 X36.63705583756345 Y120.43654822335026 F400
G3 X36.6497461928934 Y120.34771573604061 I0.3426395939086294 J0
G3 X36.68274111675127 Y120.26649746192894 I0.3299492385786802 J0.08883248730964467
G3 X36.73857868020305 Y120.19543147208122 I0.2969543147208122 J0.1700507614213198
G3 X36.809644670050766 Y120.13959390862944 I0.24111675126903553 J0.24111675126903553
G3 X36.890862944162436 Y120.10659898477158 I0.1700507614213198 J0.2969543147208122
G3 X36.97969543147208 Y120.09390862944161 I0.08883248730964467 J0.3299492385786802
G1 X44.58121827411168 Y120.09390862944161
G3 X44.67005076142132 Y120.10659898477158 I0 J0.3426395939086294
G3 X44.75126903553299 Y120.13959390862944 I-0.08883248730964467 J0.3299492385786802
G3 X44.82233502538071 Y120.19543147208122 I-0.1700507614213198 J0.2969543147208122
G3 X44.878172588832484 Y120.26649746192894 I-0.24111675126903553 J0.24111675126903553
G3 X44.911167512690355 Y120.34771573604061 I-0.2969543147208122 J0.1700507614213198
G3 X44.923857868020306 Y120.43654822335026 I-0.3299492385786802 J0.08883248730964467
G1 X44.923857868020306 Y145.03553299492387
G3 X44.911167512690355 Y145.12436548223351 I-0.3426395939086294 J0
G3 X44.878172588832484 Y145.20812182741116 I-0.3299492385786802 J-0.08883248730964467
G3 X44.82233502538071 Y145.2791878172589 I-0.2969543147208122 J-0.1700507614213198
G3 X44.75126903553299 Y145.33248730964465 I-0.24111675126903553 J-0.24111675126903553
G3 X44.67005076142132 Y145.36802030456852 I-0.1700507614213198 J-0.2969543147208122
G3 X44.58121827411168 Y145.37817258883248 I-0.08883248730964467 J-0.3299492385786802
G1 X36.97969543147208 Y145.37817258883248
G3 X36.890862944162436 Y145.36802030456852 I0 J-0.3426395939086294
G3 X36.809644670050766 Y145.33248730964465 I0.08883248730964467 J-0.3299492385786802
G3 X36.73857868020305 Y145.2791878172589 I0.1700507614213198 J-0.2969543147208122
G3 X36.68274111675127 Y145.20812182741116 I0.24111675126903553 J-0.24111675126903553
G3 X36.6497461928934 Y145.12436548223351 I0.2969543147208122 J-0.1700507614213198
G3 X36.63705583756345 Y145.03553299492387 I0.3299492385786802 J-0.08883248730964467
G0 Z5
G0 X36.63807106598985 Y61.036802030456855
G1 Z-8 F200
G1 X36.63705583756345 Y36.43654822335026 F400
G3 X36.66497461928934 Y36.30456852791878 I0.3426395939086294 J0
G3 X36.73857868020305 Y36.19543147208122 I0.31725888324873097 J0.1319796954314721
G3 X36.8502538071066 Y36.119289340101524 I0.24111675126903553 J0.24111675126903553
G3 X36.97969543147208 Y36.09390862944162 I0.1319796954314721 J0.31725888324873097
G1 X44.58121827411168 Y36.09390862944162
G3 X44.71065989847716 Y36.119289340101524 I0 J0.3426395939086294
G3 X44.82233502538071 Y36.19543147208122 I-0.1319796954314721 J0.31725888324873097
G3 X44.89593908629441 Y36.30456852791878 I-0.24111675126903553 J0.24111675126903553
G3 X44.923857868020306 Y36.43654822335026 I-0.31725888324873097 J0.1319796954314721
G1 X44.923857868020306 Y61.03553299492386
G3 X44.89593908629441 Y61.16751269035533 I-0.3426395939086294 J0
G3 X44.82233502538071 Y61.27918781725889 I-0.31725888324873097 J-0.1319796954314721
G3 X44.71065989847716 Y61.352791878172596 I-0.24111675126903553 J-0.24111675126903553
G3 X44.58121827411168 Y61.37817258883249 I-0.1319796954314721 J-0.31725888324873097
G1 X36.97969543147208 Y61.37817258883249
G3 X36.8502538071066 Y61.352791878172596 I0 J-0.3426395939086294
G3 X36.73857868020305 Y61.27918781725889 I0.1319796954314721 J-0.31725888324873097
G3 X36.66497461928934 Y61.16751269035533 I0.24111675126903553 J-0.24111675126903553
G3 X36.63705583756345 Y61.03553299492386 I0.31725888324873097 J-0.1319796954314721

(profile 2)
G0 Z5
G0 X-0.8071065989847716 Y180.73680203045686
G1 Z-8 F200
G1 X-0.8071065989847716 Y0.7360406091370558 F400
G3 X0.7817258883248732 Y-0.850253807106599 I1.5862944162436547 J0
G1 X80.78172588832487 Y-0.850253807106599
G3 X82.36802030456852 Y0.7360406091370558 I0 J1.5862944162436547
G1 X82.36802030456852 Y180.73604060913706
G3 X80.78172588832487 Y182.3248730964467 I-1.5862944162436547 J0
G1 X0.7817258883248732 Y182.3248730964467
G3 X-0.8071065989847716 Y180.73604060913706 I0 J-1.5862944162436547
G0 Z5
M5
M30
