(Generated by PartKam Version 0.05)

G21 G90 G40

(axis_inlay1)
G0 Z2
T0 M6
G17
M3
G0 X14.58248730964467 Y48.06091370558376
G1 Z-0.05 F200
G1 X31.408629441624363 Y48.06091370558376 F400
G1 X31.408629441624363 Y48.08629441624365
G1 X14.583756345177665 Y48.08629441624365
G1 X14.583756345177665 Y48.06091370558376
G0 Z2
G0 X14.58248730964467 Y48.06091370558376
G1 Z-0.1 F200
G1 X31.408629441624363 Y48.06091370558376 F400
G1 X31.408629441624363 Y48.08629441624365
G1 X14.583756345177665 Y48.08629441624365
G1 X14.583756345177665 Y48.06091370558376
G0 Z2
G0 X14.58248730964467 Y48.06091370558376
G1 Z-0.15 F200
G1 X31.408629441624363 Y48.06091370558376 F400
G1 X31.408629441624363 Y48.08629441624365
G1 X14.583756345177665 Y48.08629441624365
G1 X14.583756345177665 Y48.06091370558376
G0 Z2
G0 X14.58248730964467 Y48.06091370558376
G1 Z-0.2 F200
G1 X31.408629441624363 Y48.06091370558376 F400
G1 X31.408629441624363 Y48.08629441624365
G1 X14.583756345177665 Y48.08629441624365
G1 X14.583756345177665 Y48.06091370558376
G0 Z2
G0 X14.58248730964467 Y48.06091370558376
G1 Z-0.25 F200
G1 X31.408629441624363 Y48.06091370558376 F400
G1 X31.408629441624363 Y48.08629441624365
G1 X14.583756345177665 Y48.08629441624365
G1 X14.583756345177665 Y48.06091370558376
G0 Z2
G0 X14.58248730964467 Y48.06091370558376
G1 Z-0.3 F200
G1 X31.408629441624363 Y48.06091370558376 F400
G1 X31.408629441624363 Y48.08629441624365
G1 X14.583756345177665 Y48.08629441624365
G1 X14.583756345177665 Y48.06091370558376
G0 Z2
G0 X14.58248730964467 Y48.06091370558376
G1 Z-0.35 F200
G1 X31.408629441624363 Y48.06091370558376 F400
G1 X31.408629441624363 Y48.08629441624365
G1 X14.583756345177665 Y48.08629441624365
G1 X14.583756345177665 Y48.06091370558376
G0 Z2
G0 X14.58248730964467 Y48.06091370558376
G1 Z-0.4 F200
G1 X31.408629441624363 Y48.06091370558376 F400
G1 X31.408629441624363 Y48.08629441624365
G1 X14.583756345177665 Y48.08629441624365
G1 X14.583756345177665 Y48.06091370558376
G0 Z2
G0 X14.58248730964467 Y48.06091370558376
G1 Z-0.45 F200
G1 X31.408629441624363 Y48.06091370558376 F400
G1 X31.408629441624363 Y48.08629441624365
G1 X14.583756345177665 Y48.08629441624365
G1 X14.583756345177665 Y48.06091370558376
G0 Z2
G0 X14.58248730964467 Y48.06091370558376
G1 Z-0.5 F200
G1 X31.408629441624363 Y48.06091370558376 F400
G1 X31.408629441624363 Y48.08629441624365
G1 X14.583756345177665 Y48.08629441624365
G1 X14.583756345177665 Y48.06091370558376
G0 Z2
G0 X14.58248730964467 Y48.06091370558376
G1 Z-0.55 F200
G1 X31.408629441624363 Y48.06091370558376 F400
G1 X31.408629441624363 Y48.08629441624365
G1 X14.583756345177665 Y48.08629441624365
G1 X14.583756345177665 Y48.06091370558376
G0 Z2
G0 X14.58248730964467 Y48.06091370558376
G1 Z-0.6 F200
G1 X31.408629441624363 Y48.06091370558376 F400
G1 X31.408629441624363 Y48.08629441624365
G1 X14.583756345177665 Y48.08629441624365
G1 X14.583756345177665 Y48.06091370558376
G0 Z2
G0 X14.58248730964467 Y48.06091370558376
G1 Z-0.65 F200
G1 X31.408629441624363 Y48.06091370558376 F400
G1 X31.408629441624363 Y48.08629441624365
G1 X14.583756345177665 Y48.08629441624365
G1 X14.583756345177665 Y48.06091370558376
G0 Z2
G0 X14.58248730964467 Y48.06091370558376
G1 Z-0.7 F200
G1 X31.408629441624363 Y48.06091370558376 F400
G1 X31.408629441624363 Y48.08629441624365
G1 X14.583756345177665 Y48.08629441624365
G1 X14.583756345177665 Y48.06091370558376
G0 Z2
G0 X14.58248730964467 Y48.06091370558376
G1 Z-0.75 F200
G1 X31.408629441624363 Y48.06091370558376 F400
G1 X31.408629441624363 Y48.08629441624365
G1 X14.583756345177665 Y48.08629441624365
G1 X14.583756345177665 Y48.06091370558376
G0 Z2
G0 X14.58248730964467 Y48.06091370558376
G1 Z-0.8 F200
G1 X31.408629441624363 Y48.06091370558376 F400
G1 X31.408629441624363 Y48.08629441624365
G1 X14.583756345177665 Y48.08629441624365
G1 X14.583756345177665 Y48.06091370558376

(pocket 2)
G0 Z2
G0 X65.60761421319798 Y48.08604060913706
G1 Z-0.05 F200
G1 X48.78172588832487 Y48.08629441624365 F400
G1 X48.78172588832487 Y48.06091370558376
G1 X65.60659898477158 Y48.06091370558376
G1 X65.60659898477158 Y48.08629441624365
G0 Z2
G0 X65.60761421319798 Y48.08604060913706
G1 Z-0.1 F200
G1 X48.78172588832487 Y48.08629441624365 F400
G1 X48.78172588832487 Y48.06091370558376
G1 X65.60659898477158 Y48.06091370558376
G1 X65.60659898477158 Y48.08629441624365
G0 Z2
G0 X65.60761421319798 Y48.08604060913706
G1 Z-0.15 F200
G1 X48.78172588832487 Y48.08629441624365 F400
G1 X48.78172588832487 Y48.06091370558376
G1 X65.60659898477158 Y48.06091370558376
G1 X65.60659898477158 Y48.08629441624365
G0 Z2
G0 X65.60761421319798 Y48.08604060913706
G1 Z-0.2 F200
G1 X48.78172588832487 Y48.08629441624365 F400
G1 X48.78172588832487 Y48.06091370558376
G1 X65.60659898477158 Y48.06091370558376
G1 X65.60659898477158 Y48.08629441624365
G0 Z2
G0 X65.60761421319798 Y48.08604060913706
G1 Z-0.25 F200
G1 X48.78172588832487 Y48.08629441624365 F400
G1 X48.78172588832487 Y48.06091370558376
G1 X65.60659898477158 Y48.06091370558376
G1 X65.60659898477158 Y48.08629441624365
G0 Z2
G0 X65.60761421319798 Y48.08604060913706
G1 Z-0.3 F200
G1 X48.78172588832487 Y48.08629441624365 F400
G1 X48.78172588832487 Y48.06091370558376
G1 X65.60659898477158 Y48.06091370558376
G1 X65.60659898477158 Y48.08629441624365
G0 Z2
G0 X65.60761421319798 Y48.08604060913706
G1 Z-0.35 F200
G1 X48.78172588832487 Y48.08629441624365 F400
G1 X48.78172588832487 Y48.06091370558376
G1 X65.60659898477158 Y48.06091370558376
G1 X65.60659898477158 Y48.08629441624365
G0 Z2
G0 X65.60761421319798 Y48.08604060913706
G1 Z-0.4 F200
G1 X48.78172588832487 Y48.08629441624365 F400
G1 X48.78172588832487 Y48.06091370558376
G1 X65.60659898477158 Y48.06091370558376
G1 X65.60659898477158 Y48.08629441624365
G0 Z2
G0 X65.60761421319798 Y48.08604060913706
G1 Z-0.45 F200
G1 X48.78172588832487 Y48.08629441624365 F400
G1 X48.78172588832487 Y48.06091370558376
G1 X65.60659898477158 Y48.06091370558376
G1 X65.60659898477158 Y48.08629441624365
G0 Z2
G0 X65.60761421319798 Y48.08604060913706
G1 Z-0.5 F200
G1 X48.78172588832487 Y48.08629441624365 F400
G1 X48.78172588832487 Y48.06091370558376
G1 X65.60659898477158 Y48.06091370558376
G1 X65.60659898477158 Y48.08629441624365
G0 Z2
G0 X65.60761421319798 Y48.08604060913706
G1 Z-0.55 F200
G1 X48.78172588832487 Y48.08629441624365 F400
G1 X48.78172588832487 Y48.06091370558376
G1 X65.60659898477158 Y48.06091370558376
G1 X65.60659898477158 Y48.08629441624365
G0 Z2
G0 X65.60761421319798 Y48.08604060913706
G1 Z-0.6 F200
G1 X48.78172588832487 Y48.08629441624365 F400
G1 X48.78172588832487 Y48.06091370558376
G1 X65.60659898477158 Y48.06091370558376
G1 X65.60659898477158 Y48.08629441624365
G0 Z2
G0 X65.60761421319798 Y48.08604060913706
G1 Z-0.65 F200
G1 X48.78172588832487 Y48.08629441624365 F400
G1 X48.78172588832487 Y48.06091370558376
G1 X65.60659898477158 Y48.06091370558376
G1 X65.60659898477158 Y48.08629441624365
G0 Z2
G0 X65.60761421319798 Y48.08604060913706
G1 Z-0.7 F200
G1 X48.78172588832487 Y48.08629441624365 F400
G1 X48.78172588832487 Y48.06091370558376
G1 X65.60659898477158 Y48.06091370558376
G1 X65.60659898477158 Y48.08629441624365
G0 Z2
G0 X65.60761421319798 Y48.08604060913706
G1 Z-0.75 F200
G1 X48.78172588832487 Y48.08629441624365 F400
G1 X48.78172588832487 Y48.06091370558376
G1 X65.60659898477158 Y48.06091370558376
G1 X65.60659898477158 Y48.08629441624365
G0 Z2
G0 X65.60761421319798 Y48.08604060913706
G1 Z-0.8 F200
G1 X48.78172588832487 Y48.08629441624365 F400
G1 X48.78172588832487 Y48.06091370558376
G1 X65.60659898477158 Y48.06091370558376
G1 X65.60659898477158 Y48.08629441624365

(pocket 3)
G0 Z2
G0 X31.40761421319797 Y132.08604060913706
G1 Z-0.05 F200
G1 X14.583756345177665 Y132.08629441624365 F400
G1 X14.583756345177665 Y132.06091370558374
G1 X31.408629441624363 Y132.06091370558374
G1 X31.408629441624363 Y132.08629441624365
G0 Z2
G0 X31.40761421319797 Y132.08604060913706
G1 Z-0.1 F200
G1 X14.583756345177665 Y132.08629441624365 F400
G1 X14.583756345177665 Y132.06091370558374
G1 X31.408629441624363 Y132.06091370558374
G1 X31.408629441624363 Y132.08629441624365
G0 Z2
G0 X31.40761421319797 Y132.08604060913706
G1 Z-0.15 F200
G1 X14.583756345177665 Y132.08629441624365 F400
G1 X14.583756345177665 Y132.06091370558374
G1 X31.408629441624363 Y132.06091370558374
G1 X31.408629441624363 Y132.08629441624365
G0 Z2
G0 X31.40761421319797 Y132.08604060913706
G1 Z-0.2 F200
G1 X14.583756345177665 Y132.08629441624365 F400
G1 X14.583756345177665 Y132.06091370558374
G1 X31.408629441624363 Y132.06091370558374
G1 X31.408629441624363 Y132.08629441624365
G0 Z2
G0 X31.40761421319797 Y132.08604060913706
G1 Z-0.25 F200
G1 X14.583756345177665 Y132.08629441624365 F400
G1 X14.583756345177665 Y132.06091370558374
G1 X31.408629441624363 Y132.06091370558374
G1 X31.408629441624363 Y132.08629441624365
G0 Z2
G0 X31.40761421319797 Y132.08604060913706
G1 Z-0.3 F200
G1 X14.583756345177665 Y132.08629441624365 F400
G1 X14.583756345177665 Y132.06091370558374
G1 X31.408629441624363 Y132.06091370558374
G1 X31.408629441624363 Y132.08629441624365
G0 Z2
G0 X31.40761421319797 Y132.08604060913706
G1 Z-0.35 F200
G1 X14.583756345177665 Y132.08629441624365 F400
G1 X14.583756345177665 Y132.06091370558374
G1 X31.408629441624363 Y132.06091370558374
G1 X31.408629441624363 Y132.08629441624365
G0 Z2
G0 X31.40761421319797 Y132.08604060913706
G1 Z-0.4 F200
G1 X14.583756345177665 Y132.08629441624365 F400
G1 X14.583756345177665 Y132.06091370558374
G1 X31.408629441624363 Y132.06091370558374
G1 X31.408629441624363 Y132.08629441624365
G0 Z2
G0 X31.40761421319797 Y132.08604060913706
G1 Z-0.45 F200
G1 X14.583756345177665 Y132.08629441624365 F400
G1 X14.583756345177665 Y132.06091370558374
G1 X31.408629441624363 Y132.06091370558374
G1 X31.408629441624363 Y132.08629441624365
G0 Z2
G0 X31.40761421319797 Y132.08604060913706
G1 Z-0.5 F200
G1 X14.583756345177665 Y132.08629441624365 F400
G1 X14.583756345177665 Y132.06091370558374
G1 X31.408629441624363 Y132.06091370558374
G1 X31.408629441624363 Y132.08629441624365
G0 Z2
G0 X31.40761421319797 Y132.08604060913706
G1 Z-0.55 F200
G1 X14.583756345177665 Y132.08629441624365 F400
G1 X14.583756345177665 Y132.06091370558374
G1 X31.408629441624363 Y132.06091370558374
G1 X31.408629441624363 Y132.08629441624365
G0 Z2
G0 X31.40761421319797 Y132.08604060913706
G1 Z-0.6 F200
G1 X14.583756345177665 Y132.08629441624365 F400
G1 X14.583756345177665 Y132.06091370558374
G1 X31.408629441624363 Y132.06091370558374
G1 X31.408629441624363 Y132.08629441624365
G0 Z2
G0 X31.40761421319797 Y132.08604060913706
G1 Z-0.65 F200
G1 X14.583756345177665 Y132.08629441624365 F400
G1 X14.583756345177665 Y132.06091370558374
G1 X31.408629441624363 Y132.06091370558374
G1 X31.408629441624363 Y132.08629441624365
G0 Z2
G0 X31.40761421319797 Y132.08604060913706
G1 Z-0.7 F200
G1 X14.583756345177665 Y132.08629441624365 F400
G1 X14.583756345177665 Y132.06091370558374
G1 X31.408629441624363 Y132.06091370558374
G1 X31.408629441624363 Y132.08629441624365
G0 Z2
G0 X31.40761421319797 Y132.08604060913706
G1 Z-0.75 F200
G1 X14.583756345177665 Y132.08629441624365 F400
G1 X14.583756345177665 Y132.06091370558374
G1 X31.408629441624363 Y132.06091370558374
G1 X31.408629441624363 Y132.08629441624365
G0 Z2
G0 X31.40761421319797 Y132.08604060913706
G1 Z-0.8 F200
G1 X14.583756345177665 Y132.08629441624365 F400
G1 X14.583756345177665 Y132.06091370558374
G1 X31.408629441624363 Y132.06091370558374
G1 X31.408629441624363 Y132.08629441624365

(pocket 4)
G0 Z2
G0 X48.78248730964467 Y132.06091370558374
G1 Z-0.05 F200
G1 X65.60659898477158 Y132.06091370558374 F400
G1 X65.60659898477158 Y132.08629441624365
G1 X48.78172588832487 Y132.08629441624365
G1 X48.78172588832487 Y132.06091370558374
G0 Z2
G0 X48.78248730964467 Y132.06091370558374
G1 Z-0.1 F200
G1 X65.60659898477158 Y132.06091370558374 F400
G1 X65.60659898477158 Y132.08629441624365
G1 X48.78172588832487 Y132.08629441624365
G1 X48.78172588832487 Y132.06091370558374
G0 Z2
G0 X48.78248730964467 Y132.06091370558374
G1 Z-0.15 F200
G1 X65.60659898477158 Y132.06091370558374 F400
G1 X65.60659898477158 Y132.08629441624365
G1 X48.78172588832487 Y132.08629441624365
G1 X48.78172588832487 Y132.06091370558374
G0 Z2
G0 X48.78248730964467 Y132.06091370558374
G1 Z-0.2 F200
G1 X65.60659898477158 Y132.06091370558374 F400
G1 X65.60659898477158 Y132.08629441624365
G1 X48.78172588832487 Y132.08629441624365
G1 X48.78172588832487 Y132.06091370558374
G0 Z2
G0 X48.78248730964467 Y132.06091370558374
G1 Z-0.25 F200
G1 X65.60659898477158 Y132.06091370558374 F400
G1 X65.60659898477158 Y132.08629441624365
G1 X48.78172588832487 Y132.08629441624365
G1 X48.78172588832487 Y132.06091370558374
G0 Z2
G0 X48.78248730964467 Y132.06091370558374
G1 Z-0.3 F200
G1 X65.60659898477158 Y132.06091370558374 F400
G1 X65.60659898477158 Y132.08629441624365
G1 X48.78172588832487 Y132.08629441624365
G1 X48.78172588832487 Y132.06091370558374
G0 Z2
G0 X48.78248730964467 Y132.06091370558374
G1 Z-0.35 F200
G1 X65.60659898477158 Y132.06091370558374 F400
G1 X65.60659898477158 Y132.08629441624365
G1 X48.78172588832487 Y132.08629441624365
G1 X48.78172588832487 Y132.06091370558374
G0 Z2
G0 X48.78248730964467 Y132.06091370558374
G1 Z-0.4 F200
G1 X65.60659898477158 Y132.06091370558374 F400
G1 X65.60659898477158 Y132.08629441624365
G1 X48.78172588832487 Y132.08629441624365
G1 X48.78172588832487 Y132.06091370558374
G0 Z2
G0 X48.78248730964467 Y132.06091370558374
G1 Z-0.45 F200
G1 X65.60659898477158 Y132.06091370558374 F400
G1 X65.60659898477158 Y132.08629441624365
G1 X48.78172588832487 Y132.08629441624365
G1 X48.78172588832487 Y132.06091370558374
G0 Z2
G0 X48.78248730964467 Y132.06091370558374
G1 Z-0.5 F200
G1 X65.60659898477158 Y132.06091370558374 F400
G1 X65.60659898477158 Y132.08629441624365
G1 X48.78172588832487 Y132.08629441624365
G1 X48.78172588832487 Y132.06091370558374
G0 Z2
G0 X48.78248730964467 Y132.06091370558374
G1 Z-0.55 F200
G1 X65.60659898477158 Y132.06091370558374 F400
G1 X65.60659898477158 Y132.08629441624365
G1 X48.78172588832487 Y132.08629441624365
G1 X48.78172588832487 Y132.06091370558374
G0 Z2
G0 X48.78248730964467 Y132.06091370558374
G1 Z-0.6 F200
G1 X65.60659898477158 Y132.06091370558374 F400
G1 X65.60659898477158 Y132.08629441624365
G1 X48.78172588832487 Y132.08629441624365
G1 X48.78172588832487 Y132.06091370558374
G0 Z2
G0 X48.78248730964467 Y132.06091370558374
G1 Z-0.65 F200
G1 X65.60659898477158 Y132.06091370558374 F400
G1 X65.60659898477158 Y132.08629441624365
G1 X48.78172588832487 Y132.08629441624365
G1 X48.78172588832487 Y132.06091370558374
G0 Z2
G0 X48.78248730964467 Y132.06091370558374
G1 Z-0.7 F200
G1 X65.60659898477158 Y132.06091370558374 F400
G1 X65.60659898477158 Y132.08629441624365
G1 X48.78172588832487 Y132.08629441624365
G1 X48.78172588832487 Y132.06091370558374
G0 Z2
G0 X48.78248730964467 Y132.06091370558374
G1 Z-0.75 F200
G1 X65.60659898477158 Y132.06091370558374 F400
G1 X65.60659898477158 Y132.08629441624365
G1 X48.78172588832487 Y132.08629441624365
G1 X48.78172588832487 Y132.06091370558374
G0 Z2
G0 X48.78248730964467 Y132.06091370558374
G1 Z-0.8 F200
G1 X65.60659898477158 Y132.06091370558374 F400
G1 X65.60659898477158 Y132.08629441624365
G1 X48.78172588832487 Y132.08629441624365
G1 X48.78172588832487 Y132.06091370558374

(m5)
G0 Z1
G0 X22.99517766497462 Y40.57335025380711
G1 Z-0.1 F200
G1 Z0 F200
G1 Z-0.2 F200
G1 Z0 F200
G1 Z-0.3 F200
G1 Z0 F200
G1 Z-0.4 F200
G1 Z0 F200
G1 Z-0.5 F200
G1 Z0 F200
G1 Z-0.6 F200
G1 Z0 F200
G1 Z-0.7 F200
G1 Z0 F200
G1 Z-0.8 F200
G1 Z0 F200
G1 Z-0.9 F200
G1 Z0 F200
G1 Z-1 F200
G1 Z0 F200
G1 Z-1.1 F200
G1 Z0 F200
G1 Z-1.2 F200
G1 Z0 F200
G1 Z-1.3 F200
G1 Z0 F200
G1 Z-1.4 F200
G1 Z0 F200
G1 Z-1.5 F200
G1 Z0 F200
G1 Z-1.6 F200
G1 Z0 F200
G1 Z-1.7 F200
G1 Z0 F200
G1 Z-1.8 F200
G1 Z0 F200
G1 Z-1.9 F200
G1 Z0 F200
G1 Z-2 F200
G1 Z0 F200
G1 Z-2.1 F200
G1 Z0 F200
G1 Z-2.2 F200
G1 Z0 F200
G1 Z-2.3 F200
G1 Z0 F200
G1 Z-2.4 F200
G1 Z0 F200
G1 Z-2.5 F200
G1 Z0 F200
G1 Z-2.6 F200
G1 Z0 F200
G1 Z-2.7 F200
G1 Z0 F200
G1 Z-2.8 F200
G1 Z0 F200
G1 Z-2.9 F200
G1 Z0 F200
G1 Z-3 F200
G1 Z0 F200
G1 Z-3.1 F200
G1 Z0 F200
G1 Z-3.2 F200
G1 Z0 F200
G1 Z-3.3 F200
G1 Z0 F200
G1 Z-3.4 F200
G1 Z0 F200
G1 Z-3.5 F200
G1 Z0 F200
G1 Z-3.6 F200
G1 Z0 F200
G1 Z-3.7 F200
G1 Z0 F200
G1 Z-3.8 F200
G1 Z0 F200
G1 Z-3.9 F200
G1 Z0 F200
G1 Z-4 F200
G1 Z0 F200

(m5)
G0 Z1
G0 X22.99517766497462 Y55.57335025380711
G1 Z-0.1 F200
G1 Z0 F200
G1 Z-0.2 F200
G1 Z0 F200
G1 Z-0.3 F200
G1 Z0 F200
G1 Z-0.4 F200
G1 Z0 F200
G1 Z-0.5 F200
G1 Z0 F200
G1 Z-0.6 F200
G1 Z0 F200
G1 Z-0.7 F200
G1 Z0 F200
G1 Z-0.8 F200
G1 Z0 F200
G1 Z-0.9 F200
G1 Z0 F200
G1 Z-1 F200
G1 Z0 F200
G1 Z-1.1 F200
G1 Z0 F200
G1 Z-1.2 F200
G1 Z0 F200
G1 Z-1.3 F200
G1 Z0 F200
G1 Z-1.4 F200
G1 Z0 F200
G1 Z-1.5 F200
G1 Z0 F200
G1 Z-1.6 F200
G1 Z0 F200
G1 Z-1.7 F200
G1 Z0 F200
G1 Z-1.8 F200
G1 Z0 F200
G1 Z-1.9 F200
G1 Z0 F200
G1 Z-2 F200
G1 Z0 F200
G1 Z-2.1 F200
G1 Z0 F200
G1 Z-2.2 F200
G1 Z0 F200
G1 Z-2.3 F200
G1 Z0 F200
G1 Z-2.4 F200
G1 Z0 F200
G1 Z-2.5 F200
G1 Z0 F200
G1 Z-2.6 F200
G1 Z0 F200
G1 Z-2.7 F200
G1 Z0 F200
G1 Z-2.8 F200
G1 Z0 F200
G1 Z-2.9 F200
G1 Z0 F200
G1 Z-3 F200
G1 Z0 F200
G1 Z-3.1 F200
G1 Z0 F200
G1 Z-3.2 F200
G1 Z0 F200
G1 Z-3.3 F200
G1 Z0 F200
G1 Z-3.4 F200
G1 Z0 F200
G1 Z-3.5 F200
G1 Z0 F200
G1 Z-3.6 F200
G1 Z0 F200
G1 Z-3.7 F200
G1 Z0 F200
G1 Z-3.8 F200
G1 Z0 F200
G1 Z-3.9 F200
G1 Z0 F200
G1 Z-4 F200
G1 Z0 F200

(m5)
G0 Z1
G0 X57.19517766497462 Y55.57335025380711
G1 Z-0.1 F200
G1 Z0 F200
G1 Z-0.2 F200
G1 Z0 F200
G1 Z-0.3 F200
G1 Z0 F200
G1 Z-0.4 F200
G1 Z0 F200
G1 Z-0.5 F200
G1 Z0 F200
G1 Z-0.6 F200
G1 Z0 F200
G1 Z-0.7 F200
G1 Z0 F200
G1 Z-0.8 F200
G1 Z0 F200
G1 Z-0.9 F200
G1 Z0 F200
G1 Z-1 F200
G1 Z0 F200
G1 Z-1.1 F200
G1 Z0 F200
G1 Z-1.2 F200
G1 Z0 F200
G1 Z-1.3 F200
G1 Z0 F200
G1 Z-1.4 F200
G1 Z0 F200
G1 Z-1.5 F200
G1 Z0 F200
G1 Z-1.6 F200
G1 Z0 F200
G1 Z-1.7 F200
G1 Z0 F200
G1 Z-1.8 F200
G1 Z0 F200
G1 Z-1.9 F200
G1 Z0 F200
G1 Z-2 F200
G1 Z0 F200
G1 Z-2.1 F200
G1 Z0 F200
G1 Z-2.2 F200
G1 Z0 F200
G1 Z-2.3 F200
G1 Z0 F200
G1 Z-2.4 F200
G1 Z0 F200
G1 Z-2.5 F200
G1 Z0 F200
G1 Z-2.6 F200
G1 Z0 F200
G1 Z-2.7 F200
G1 Z0 F200
G1 Z-2.8 F200
G1 Z0 F200
G1 Z-2.9 F200
G1 Z0 F200
G1 Z-3 F200
G1 Z0 F200
G1 Z-3.1 F200
G1 Z0 F200
G1 Z-3.2 F200
G1 Z0 F200
G1 Z-3.3 F200
G1 Z0 F200
G1 Z-3.4 F200
G1 Z0 F200
G1 Z-3.5 F200
G1 Z0 F200
G1 Z-3.6 F200
G1 Z0 F200
G1 Z-3.7 F200
G1 Z0 F200
G1 Z-3.8 F200
G1 Z0 F200
G1 Z-3.9 F200
G1 Z0 F200
G1 Z-4 F200
G1 Z0 F200

(m5)
G0 Z1
G0 X57.19517766497462 Y40.57335025380711
G1 Z-0.1 F200
G1 Z0 F200
G1 Z-0.2 F200
G1 Z0 F200
G1 Z-0.3 F200
G1 Z0 F200
G1 Z-0.4 F200
G1 Z0 F200
G1 Z-0.5 F200
G1 Z0 F200
G1 Z-0.6 F200
G1 Z0 F200
G1 Z-0.7 F200
G1 Z0 F200
G1 Z-0.8 F200
G1 Z0 F200
G1 Z-0.9 F200
G1 Z0 F200
G1 Z-1 F200
G1 Z0 F200
G1 Z-1.1 F200
G1 Z0 F200
G1 Z-1.2 F200
G1 Z0 F200
G1 Z-1.3 F200
G1 Z0 F200
G1 Z-1.4 F200
G1 Z0 F200
G1 Z-1.5 F200
G1 Z0 F200
G1 Z-1.6 F200
G1 Z0 F200
G1 Z-1.7 F200
G1 Z0 F200
G1 Z-1.8 F200
G1 Z0 F200
G1 Z-1.9 F200
G1 Z0 F200
G1 Z-2 F200
G1 Z0 F200
G1 Z-2.1 F200
G1 Z0 F200
G1 Z-2.2 F200
G1 Z0 F200
G1 Z-2.3 F200
G1 Z0 F200
G1 Z-2.4 F200
G1 Z0 F200
G1 Z-2.5 F200
G1 Z0 F200
G1 Z-2.6 F200
G1 Z0 F200
G1 Z-2.7 F200
G1 Z0 F200
G1 Z-2.8 F200
G1 Z0 F200
G1 Z-2.9 F200
G1 Z0 F200
G1 Z-3 F200
G1 Z0 F200
G1 Z-3.1 F200
G1 Z0 F200
G1 Z-3.2 F200
G1 Z0 F200
G1 Z-3.3 F200
G1 Z0 F200
G1 Z-3.4 F200
G1 Z0 F200
G1 Z-3.5 F200
G1 Z0 F200
G1 Z-3.6 F200
G1 Z0 F200
G1 Z-3.7 F200
G1 Z0 F200
G1 Z-3.8 F200
G1 Z0 F200
G1 Z-3.9 F200
G1 Z0 F200
G1 Z-4 F200
G1 Z0 F200

(m5)
G0 Z1
G0 X22.99517766497462 Y139.57335025380712
G1 Z-0.1 F200
G1 Z0 F200
G1 Z-0.2 F200
G1 Z0 F200
G1 Z-0.3 F200
G1 Z0 F200
G1 Z-0.4 F200
G1 Z0 F200
G1 Z-0.5 F200
G1 Z0 F200
G1 Z-0.6 F200
G1 Z0 F200
G1 Z-0.7 F200
G1 Z0 F200
G1 Z-0.8 F200
G1 Z0 F200
G1 Z-0.9 F200
G1 Z0 F200
G1 Z-1 F200
G1 Z0 F200
G1 Z-1.1 F200
G1 Z0 F200
G1 Z-1.2 F200
G1 Z0 F200
G1 Z-1.3 F200
G1 Z0 F200
G1 Z-1.4 F200
G1 Z0 F200
G1 Z-1.5 F200
G1 Z0 F200
G1 Z-1.6 F200
G1 Z0 F200
G1 Z-1.7 F200
G1 Z0 F200
G1 Z-1.8 F200
G1 Z0 F200
G1 Z-1.9 F200
G1 Z0 F200
G1 Z-2 F200
G1 Z0 F200
G1 Z-2.1 F200
G1 Z0 F200
G1 Z-2.2 F200
G1 Z0 F200
G1 Z-2.3 F200
G1 Z0 F200
G1 Z-2.4 F200
G1 Z0 F200
G1 Z-2.5 F200
G1 Z0 F200
G1 Z-2.6 F200
G1 Z0 F200
G1 Z-2.7 F200
G1 Z0 F200
G1 Z-2.8 F200
G1 Z0 F200
G1 Z-2.9 F200
G1 Z0 F200
G1 Z-3 F200
G1 Z0 F200
G1 Z-3.1 F200
G1 Z0 F200
G1 Z-3.2 F200
G1 Z0 F200
G1 Z-3.3 F200
G1 Z0 F200
G1 Z-3.4 F200
G1 Z0 F200
G1 Z-3.5 F200
G1 Z0 F200
G1 Z-3.6 F200
G1 Z0 F200
G1 Z-3.7 F200
G1 Z0 F200
G1 Z-3.8 F200
G1 Z0 F200
G1 Z-3.9 F200
G1 Z0 F200
G1 Z-4 F200
G1 Z0 F200

(m5)
G0 Z1
G0 X22.99517766497462 Y124.5733502538071
G1 Z-0.1 F200
G1 Z0 F200
G1 Z-0.2 F200
G1 Z0 F200
G1 Z-0.3 F200
G1 Z0 F200
G1 Z-0.4 F200
G1 Z0 F200
G1 Z-0.5 F200
G1 Z0 F200
G1 Z-0.6 F200
G1 Z0 F200
G1 Z-0.7 F200
G1 Z0 F200
G1 Z-0.8 F200
G1 Z0 F200
G1 Z-0.9 F200
G1 Z0 F200
G1 Z-1 F200
G1 Z0 F200
G1 Z-1.1 F200
G1 Z0 F200
G1 Z-1.2 F200
G1 Z0 F200
G1 Z-1.3 F200
G1 Z0 F200
G1 Z-1.4 F200
G1 Z0 F200
G1 Z-1.5 F200
G1 Z0 F200
G1 Z-1.6 F200
G1 Z0 F200
G1 Z-1.7 F200
G1 Z0 F200
G1 Z-1.8 F200
G1 Z0 F200
G1 Z-1.9 F200
G1 Z0 F200
G1 Z-2 F200
G1 Z0 F200
G1 Z-2.1 F200
G1 Z0 F200
G1 Z-2.2 F200
G1 Z0 F200
G1 Z-2.3 F200
G1 Z0 F200
G1 Z-2.4 F200
G1 Z0 F200
G1 Z-2.5 F200
G1 Z0 F200
G1 Z-2.6 F200
G1 Z0 F200
G1 Z-2.7 F200
G1 Z0 F200
G1 Z-2.8 F200
G1 Z0 F200
G1 Z-2.9 F200
G1 Z0 F200
G1 Z-3 F200
G1 Z0 F200
G1 Z-3.1 F200
G1 Z0 F200
G1 Z-3.2 F200
G1 Z0 F200
G1 Z-3.3 F200
G1 Z0 F200
G1 Z-3.4 F200
G1 Z0 F200
G1 Z-3.5 F200
G1 Z0 F200
G1 Z-3.6 F200
G1 Z0 F200
G1 Z-3.7 F200
G1 Z0 F200
G1 Z-3.8 F200
G1 Z0 F200
G1 Z-3.9 F200
G1 Z0 F200
G1 Z-4 F200
G1 Z0 F200

(m5)
G0 Z1
G0 X57.19517766497462 Y124.5733502538071
G1 Z-0.1 F200
G1 Z0 F200
G1 Z-0.2 F200
G1 Z0 F200
G1 Z-0.3 F200
G1 Z0 F200
G1 Z-0.4 F200
G1 Z0 F200
G1 Z-0.5 F200
G1 Z0 F200
G1 Z-0.6 F200
G1 Z0 F200
G1 Z-0.7 F200
G1 Z0 F200
G1 Z-0.8 F200
G1 Z0 F200
G1 Z-0.9 F200
G1 Z0 F200
G1 Z-1 F200
G1 Z0 F200
G1 Z-1.1 F200
G1 Z0 F200
G1 Z-1.2 F200
G1 Z0 F200
G1 Z-1.3 F200
G1 Z0 F200
G1 Z-1.4 F200
G1 Z0 F200
G1 Z-1.5 F200
G1 Z0 F200
G1 Z-1.6 F200
G1 Z0 F200
G1 Z-1.7 F200
G1 Z0 F200
G1 Z-1.8 F200
G1 Z0 F200
G1 Z-1.9 F200
G1 Z0 F200
G1 Z-2 F200
G1 Z0 F200
G1 Z-2.1 F200
G1 Z0 F200
G1 Z-2.2 F200
G1 Z0 F200
G1 Z-2.3 F200
G1 Z0 F200
G1 Z-2.4 F200
G1 Z0 F200
G1 Z-2.5 F200
G1 Z0 F200
G1 Z-2.6 F200
G1 Z0 F200
G1 Z-2.7 F200
G1 Z0 F200
G1 Z-2.8 F200
G1 Z0 F200
G1 Z-2.9 F200
G1 Z0 F200
G1 Z-3 F200
G1 Z0 F200
G1 Z-3.1 F200
G1 Z0 F200
G1 Z-3.2 F200
G1 Z0 F200
G1 Z-3.3 F200
G1 Z0 F200
G1 Z-3.4 F200
G1 Z0 F200
G1 Z-3.5 F200
G1 Z0 F200
G1 Z-3.6 F200
G1 Z0 F200
G1 Z-3.7 F200
G1 Z0 F200
G1 Z-3.8 F200
G1 Z0 F200
G1 Z-3.9 F200
G1 Z0 F200
G1 Z-4 F200
G1 Z0 F200

(m5)
G0 Z1
G0 X57.19517766497462 Y139.57335025380712
G1 Z-0.1 F200
G1 Z0 F200
G1 Z-0.2 F200
G1 Z0 F200
G1 Z-0.3 F200
G1 Z0 F200
G1 Z-0.4 F200
G1 Z0 F200
G1 Z-0.5 F200
G1 Z0 F200
G1 Z-0.6 F200
G1 Z0 F200
G1 Z-0.7 F200
G1 Z0 F200
G1 Z-0.8 F200
G1 Z0 F200
G1 Z-0.9 F200
G1 Z0 F200
G1 Z-1 F200
G1 Z0 F200
G1 Z-1.1 F200
G1 Z0 F200
G1 Z-1.2 F200
G1 Z0 F200
G1 Z-1.3 F200
G1 Z0 F200
G1 Z-1.4 F200
G1 Z0 F200
G1 Z-1.5 F200
G1 Z0 F200
G1 Z-1.6 F200
G1 Z0 F200
G1 Z-1.7 F200
G1 Z0 F200
G1 Z-1.8 F200
G1 Z0 F200
G1 Z-1.9 F200
G1 Z0 F200
G1 Z-2 F200
G1 Z0 F200
G1 Z-2.1 F200
G1 Z0 F200
G1 Z-2.2 F200
G1 Z0 F200
G1 Z-2.3 F200
G1 Z0 F200
G1 Z-2.4 F200
G1 Z0 F200
G1 Z-2.5 F200
G1 Z0 F200
G1 Z-2.6 F200
G1 Z0 F200
G1 Z-2.7 F200
G1 Z0 F200
G1 Z-2.8 F200
G1 Z0 F200
G1 Z-2.9 F200
G1 Z0 F200
G1 Z-3 F200
G1 Z0 F200
G1 Z-3.1 F200
G1 Z0 F200
G1 Z-3.2 F200
G1 Z0 F200
G1 Z-3.3 F200
G1 Z0 F200
G1 Z-3.4 F200
G1 Z0 F200
G1 Z-3.5 F200
G1 Z0 F200
G1 Z-3.6 F200
G1 Z0 F200
G1 Z-3.7 F200
G1 Z0 F200
G1 Z-3.8 F200
G1 Z0 F200
G1 Z-3.9 F200
G1 Z0 F200
G1 Z-4 F200
G1 Z0 F200

(m14)
G0 Z1
G0 X24.09517766497462 Y18.073350253807106
G1 Z-0.1 F200
G1 Z0 F200
G1 Z-0.2 F200
G1 Z0 F200
G1 Z-0.3 F200
G1 Z0 F200
G1 Z-0.4 F200
G1 Z0 F200
G1 Z-0.5 F200
G1 Z0 F200
G1 Z-0.6 F200
G1 Z0 F200
G1 Z-0.7 F200
G1 Z0 F200
G1 Z-0.8 F200
G1 Z0 F200
G1 Z-0.9 F200
G1 Z0 F200
G1 Z-1 F200
G1 Z0 F200
G1 Z-1.1 F200
G1 Z0 F200
G1 Z-1.2 F200
G1 Z0 F200
G1 Z-1.3 F200
G1 Z0 F200
G1 Z-1.4 F200
G1 Z0 F200
G1 Z-1.5 F200
G1 Z0 F200
G1 Z-1.6 F200
G1 Z0 F200
G1 Z-1.7 F200
G1 Z0 F200
G1 Z-1.8 F200
G1 Z0 F200
G1 Z-1.9 F200
G1 Z0 F200
G1 Z-2 F200
G1 Z0 F200
G1 Z-2.1 F200
G1 Z0 F200
G1 Z-2.2 F200
G1 Z0 F200
G1 Z-2.3 F200
G1 Z0 F200
G1 Z-2.4 F200
G1 Z0 F200
G1 Z-2.5 F200
G1 Z0 F200
G1 Z-2.6 F200
G1 Z0 F200
G1 Z-2.7 F200
G1 Z0 F200
G1 Z-2.8 F200
G1 Z0 F200
G1 Z-2.9 F200
G1 Z0 F200
G1 Z-3 F200
G1 Z0 F200
G1 Z-3.1 F200
G1 Z0 F200
G1 Z-3.2 F200
G1 Z0 F200
G1 Z-3.3 F200
G1 Z0 F200
G1 Z-3.4 F200
G1 Z0 F200
G1 Z-3.5 F200
G1 Z0 F200
G1 Z-3.6 F200
G1 Z0 F200
G1 Z-3.7 F200
G1 Z0 F200
G1 Z-3.8 F200
G1 Z0 F200
G1 Z-3.9 F200
G1 Z0 F200
G1 Z-4 F200
G1 Z0 F200

(m14)
G0 Z1
G0 X24.09517766497462 Y162.07335025380712
G1 Z-0.1 F200
G1 Z0 F200
G1 Z-0.2 F200
G1 Z0 F200
G1 Z-0.3 F200
G1 Z0 F200
G1 Z-0.4 F200
G1 Z0 F200
G1 Z-0.5 F200
G1 Z0 F200
G1 Z-0.6 F200
G1 Z0 F200
G1 Z-0.7 F200
G1 Z0 F200
G1 Z-0.8 F200
G1 Z0 F200
G1 Z-0.9 F200
G1 Z0 F200
G1 Z-1 F200
G1 Z0 F200
G1 Z-1.1 F200
G1 Z0 F200
G1 Z-1.2 F200
G1 Z0 F200
G1 Z-1.3 F200
G1 Z0 F200
G1 Z-1.4 F200
G1 Z0 F200
G1 Z-1.5 F200
G1 Z0 F200
G1 Z-1.6 F200
G1 Z0 F200
G1 Z-1.7 F200
G1 Z0 F200
G1 Z-1.8 F200
G1 Z0 F200
G1 Z-1.9 F200
G1 Z0 F200
G1 Z-2 F200
G1 Z0 F200
G1 Z-2.1 F200
G1 Z0 F200
G1 Z-2.2 F200
G1 Z0 F200
G1 Z-2.3 F200
G1 Z0 F200
G1 Z-2.4 F200
G1 Z0 F200
G1 Z-2.5 F200
G1 Z0 F200
G1 Z-2.6 F200
G1 Z0 F200
G1 Z-2.7 F200
G1 Z0 F200
G1 Z-2.8 F200
G1 Z0 F200
G1 Z-2.9 F200
G1 Z0 F200
G1 Z-3 F200
G1 Z0 F200
G1 Z-3.1 F200
G1 Z0 F200
G1 Z-3.2 F200
G1 Z0 F200
G1 Z-3.3 F200
G1 Z0 F200
G1 Z-3.4 F200
G1 Z0 F200
G1 Z-3.5 F200
G1 Z0 F200
G1 Z-3.6 F200
G1 Z0 F200
G1 Z-3.7 F200
G1 Z0 F200
G1 Z-3.8 F200
G1 Z0 F200
G1 Z-3.9 F200
G1 Z0 F200
G1 Z-4 F200
G1 Z0 F200

(m8)
G0 Z1
G0 X56.09517766497462 Y162.07335025380712
G1 Z-0.1 F200
G1 Z0 F200
G1 Z-0.2 F200
G1 Z0 F200
G1 Z-0.3 F200
G1 Z0 F200
G1 Z-0.4 F200
G1 Z0 F200
G1 Z-0.5 F200
G1 Z0 F200
G1 Z-0.6 F200
G1 Z0 F200
G1 Z-0.7 F200
G1 Z0 F200
G1 Z-0.8 F200
G1 Z0 F200
G1 Z-0.9 F200
G1 Z0 F200
G1 Z-1 F200
G1 Z0 F200
G1 Z-1.1 F200
G1 Z0 F200
G1 Z-1.2 F200
G1 Z0 F200
G1 Z-1.3 F200
G1 Z0 F200
G1 Z-1.4 F200
G1 Z0 F200
G1 Z-1.5 F200
G1 Z0 F200
G1 Z-1.6 F200
G1 Z0 F200
G1 Z-1.7 F200
G1 Z0 F200
G1 Z-1.8 F200
G1 Z0 F200
G1 Z-1.9 F200
G1 Z0 F200
G1 Z-2 F200
G1 Z0 F200
G1 Z-2.1 F200
G1 Z0 F200
G1 Z-2.2 F200
G1 Z0 F200
G1 Z-2.3 F200
G1 Z0 F200
G1 Z-2.4 F200
G1 Z0 F200
G1 Z-2.5 F200
G1 Z0 F200
G1 Z-2.6 F200
G1 Z0 F200
G1 Z-2.7 F200
G1 Z0 F200
G1 Z-2.8 F200
G1 Z0 F200
G1 Z-2.9 F200
G1 Z0 F200
G1 Z-3 F200
G1 Z0 F200
G1 Z-3.1 F200
G1 Z0 F200
G1 Z-3.2 F200
G1 Z0 F200
G1 Z-3.3 F200
G1 Z0 F200
G1 Z-3.4 F200
G1 Z0 F200
G1 Z-3.5 F200
G1 Z0 F200
G1 Z-3.6 F200
G1 Z0 F200
G1 Z-3.7 F200
G1 Z0 F200
G1 Z-3.8 F200
G1 Z0 F200
G1 Z-3.9 F200
G1 Z0 F200
G1 Z-4 F200
G1 Z0 F200

(m8)
G0 Z1
G0 X56.09517766497462 Y18.073350253807106
G1 Z-0.1 F200
G1 Z0 F200
G1 Z-0.2 F200
G1 Z0 F200
G1 Z-0.3 F200
G1 Z0 F200
G1 Z-0.4 F200
G1 Z0 F200
G1 Z-0.5 F200
G1 Z0 F200
G1 Z-0.6 F200
G1 Z0 F200
G1 Z-0.7 F200
G1 Z0 F200
G1 Z-0.8 F200
G1 Z0 F200
G1 Z-0.9 F200
G1 Z0 F200
G1 Z-1 F200
G1 Z0 F200
G1 Z-1.1 F200
G1 Z0 F200
G1 Z-1.2 F200
G1 Z0 F200
G1 Z-1.3 F200
G1 Z0 F200
G1 Z-1.4 F200
G1 Z0 F200
G1 Z-1.5 F200
G1 Z0 F200
G1 Z-1.6 F200
G1 Z0 F200
G1 Z-1.7 F200
G1 Z0 F200
G1 Z-1.8 F200
G1 Z0 F200
G1 Z-1.9 F200
G1 Z0 F200
G1 Z-2 F200
G1 Z0 F200
G1 Z-2.1 F200
G1 Z0 F200
G1 Z-2.2 F200
G1 Z0 F200
G1 Z-2.3 F200
G1 Z0 F200
G1 Z-2.4 F200
G1 Z0 F200
G1 Z-2.5 F200
G1 Z0 F200
G1 Z-2.6 F200
G1 Z0 F200
G1 Z-2.7 F200
G1 Z0 F200
G1 Z-2.8 F200
G1 Z0 F200
G1 Z-2.9 F200
G1 Z0 F200
G1 Z-3 F200
G1 Z0 F200
G1 Z-3.1 F200
G1 Z0 F200
G1 Z-3.2 F200
G1 Z0 F200
G1 Z-3.3 F200
G1 Z0 F200
G1 Z-3.4 F200
G1 Z0 F200
G1 Z-3.5 F200
G1 Z0 F200
G1 Z-3.6 F200
G1 Z0 F200
G1 Z-3.7 F200
G1 Z0 F200
G1 Z-3.8 F200
G1 Z0 F200
G1 Z-3.9 F200
G1 Z0 F200
G1 Z-4 F200
G1 Z0 F200

(no_hole)
G0 Z2
G0 X39.76269035532995 Y56.905837563451776
G1 Z-0.05 F200
G1 X39.76142131979695 Y39.24111675126903 F400
G1 X40.42639593908629 Y39.24111675126903
G1 X40.42639593908629 Y56.90609137055837
G1 X39.76142131979695 Y56.90609137055837
G1 X37.22258883248731 Y59.445939086294416 F400
G1 X37.223350253807105 Y36.700507614213194 F400
G1 X42.96700507614213 Y36.700507614213194
G1 X42.96700507614213 Y59.44670050761421
G1 X37.223350253807105 Y59.44670050761421
G1 X34.68248730964467 Y60.373350253807104 F400
G1 X34.682741116751274 Y35.7741116751269 F400
G3 X34.80456852791878 Y35.15736040609137 I1.6116751269035534 J0
G3 X35.15482233502538 Y34.63197969543147 I1.4898477157360408 J0.616751269035533
G3 X35.67766497461929 Y34.28426395939086 I1.1395939086294418 J1.1395939086294418
G3 X36.29441624365482 Y34.15989847715736 I0.616751269035533 J1.4898477157360408
G1 X43.89593908629442 Y34.15989847715736
G3 X44.51269035532995 Y34.28426395939086 I0 J1.6116751269035534
G3 X45.035532994923855 Y34.63197969543147 I-0.616751269035533 J1.4898477157360408
G3 X45.38578680203046 Y35.15736040609137 I-1.1395939086294418 J1.1395939086294418
G3 X45.507614213197975 Y35.7741116751269 I-1.4898477157360408 J0.616751269035533
G1 X45.507614213197975 Y60.373096446700515
G3 X45.38578680203046 Y60.98984771573604 I-1.6116751269035534 J0
G3 X45.035532994923855 Y61.51269035532995 I-1.4898477157360408 J-0.616751269035533
G3 X44.51269035532995 Y61.86294416243655 I-1.1395939086294418 J-1.1395939086294418
G3 X43.89593908629442 Y61.984771573604064 I-0.616751269035533 J-1.4898477157360408
G1 X36.29441624365482 Y61.984771573604064
G3 X35.67766497461929 Y61.86294416243655 I0 J-1.6116751269035534
G3 X35.15482233502538 Y61.51269035532995 I0.616751269035533 J-1.4898477157360408
G3 X34.80456852791878 Y60.98984771573604 I1.1395939086294418 J-1.1395939086294418
G3 X34.682741116751274 Y60.373096446700515 I1.4898477157360408 J-0.616751269035533
G0 Z2
G0 X39.76269035532995 Y56.905837563451776
G1 Z-0.1 F200
G1 X39.76142131979695 Y39.24111675126903 F400
G1 X40.42639593908629 Y39.24111675126903
G1 X40.42639593908629 Y56.90609137055837
G1 X39.76142131979695 Y56.90609137055837
G1 X37.22258883248731 Y59.445939086294416 F400
G1 X37.223350253807105 Y36.700507614213194 F400
G1 X42.96700507614213 Y36.700507614213194
G1 X42.96700507614213 Y59.44670050761421
G1 X37.223350253807105 Y59.44670050761421
G1 X34.68248730964467 Y60.373350253807104 F400
G1 X34.682741116751274 Y35.7741116751269 F400
G3 X34.80456852791878 Y35.15736040609137 I1.6116751269035534 J0
G3 X35.15482233502538 Y34.63197969543147 I1.4898477157360408 J0.616751269035533
G3 X35.67766497461929 Y34.28426395939086 I1.1395939086294418 J1.1395939086294418
G3 X36.29441624365482 Y34.15989847715736 I0.616751269035533 J1.4898477157360408
G1 X43.89593908629442 Y34.15989847715736
G3 X44.51269035532995 Y34.28426395939086 I0 J1.6116751269035534
G3 X45.035532994923855 Y34.63197969543147 I-0.616751269035533 J1.4898477157360408
G3 X45.38578680203046 Y35.15736040609137 I-1.1395939086294418 J1.1395939086294418
G3 X45.507614213197975 Y35.7741116751269 I-1.4898477157360408 J0.616751269035533
G1 X45.507614213197975 Y60.373096446700515
G3 X45.38578680203046 Y60.98984771573604 I-1.6116751269035534 J0
G3 X45.035532994923855 Y61.51269035532995 I-1.4898477157360408 J-0.616751269035533
G3 X44.51269035532995 Y61.86294416243655 I-1.1395939086294418 J-1.1395939086294418
G3 X43.89593908629442 Y61.984771573604064 I-0.616751269035533 J-1.4898477157360408
G1 X36.29441624365482 Y61.984771573604064
G3 X35.67766497461929 Y61.86294416243655 I0 J-1.6116751269035534
G3 X35.15482233502538 Y61.51269035532995 I0.616751269035533 J-1.4898477157360408
G3 X34.80456852791878 Y60.98984771573604 I1.1395939086294418 J-1.1395939086294418
G3 X34.682741116751274 Y60.373096446700515 I1.4898477157360408 J-0.616751269035533
G0 Z2
G0 X39.76269035532995 Y56.905837563451776
G1 Z-0.15 F200
G1 X39.76142131979695 Y39.24111675126903 F400
G1 X40.42639593908629 Y39.24111675126903
G1 X40.42639593908629 Y56.90609137055837
G1 X39.76142131979695 Y56.90609137055837
G1 X37.22258883248731 Y59.445939086294416 F400
G1 X37.223350253807105 Y36.700507614213194 F400
G1 X42.96700507614213 Y36.700507614213194
G1 X42.96700507614213 Y59.44670050761421
G1 X37.223350253807105 Y59.44670050761421
G1 X34.68248730964467 Y60.373350253807104 F400
G1 X34.682741116751274 Y35.7741116751269 F400
G3 X34.80456852791878 Y35.15736040609137 I1.6116751269035534 J0
G3 X35.15482233502538 Y34.63197969543147 I1.4898477157360408 J0.616751269035533
G3 X35.67766497461929 Y34.28426395939086 I1.1395939086294418 J1.1395939086294418
G3 X36.29441624365482 Y34.15989847715736 I0.616751269035533 J1.4898477157360408
G1 X43.89593908629442 Y34.15989847715736
G3 X44.51269035532995 Y34.28426395939086 I0 J1.6116751269035534
G3 X45.035532994923855 Y34.63197969543147 I-0.616751269035533 J1.4898477157360408
G3 X45.38578680203046 Y35.15736040609137 I-1.1395939086294418 J1.1395939086294418
G3 X45.507614213197975 Y35.7741116751269 I-1.4898477157360408 J0.616751269035533
G1 X45.507614213197975 Y60.373096446700515
G3 X45.38578680203046 Y60.98984771573604 I-1.6116751269035534 J0
G3 X45.035532994923855 Y61.51269035532995 I-1.4898477157360408 J-0.616751269035533
G3 X44.51269035532995 Y61.86294416243655 I-1.1395939086294418 J-1.1395939086294418
G3 X43.89593908629442 Y61.984771573604064 I-0.616751269035533 J-1.4898477157360408
G1 X36.29441624365482 Y61.984771573604064
G3 X35.67766497461929 Y61.86294416243655 I0 J-1.6116751269035534
G3 X35.15482233502538 Y61.51269035532995 I0.616751269035533 J-1.4898477157360408
G3 X34.80456852791878 Y60.98984771573604 I1.1395939086294418 J-1.1395939086294418
G3 X34.682741116751274 Y60.373096446700515 I1.4898477157360408 J-0.616751269035533
G0 Z2
G0 X39.76269035532995 Y56.905837563451776
G1 Z-0.2 F200
G1 X39.76142131979695 Y39.24111675126903 F400
G1 X40.42639593908629 Y39.24111675126903
G1 X40.42639593908629 Y56.90609137055837
G1 X39.76142131979695 Y56.90609137055837
G1 X37.22258883248731 Y59.445939086294416 F400
G1 X37.223350253807105 Y36.700507614213194 F400
G1 X42.96700507614213 Y36.700507614213194
G1 X42.96700507614213 Y59.44670050761421
G1 X37.223350253807105 Y59.44670050761421
G1 X34.68248730964467 Y60.373350253807104 F400
G1 X34.682741116751274 Y35.7741116751269 F400
G3 X34.80456852791878 Y35.15736040609137 I1.6116751269035534 J0
G3 X35.15482233502538 Y34.63197969543147 I1.4898477157360408 J0.616751269035533
G3 X35.67766497461929 Y34.28426395939086 I1.1395939086294418 J1.1395939086294418
G3 X36.29441624365482 Y34.15989847715736 I0.616751269035533 J1.4898477157360408
G1 X43.89593908629442 Y34.15989847715736
G3 X44.51269035532995 Y34.28426395939086 I0 J1.6116751269035534
G3 X45.035532994923855 Y34.63197969543147 I-0.616751269035533 J1.4898477157360408
G3 X45.38578680203046 Y35.15736040609137 I-1.1395939086294418 J1.1395939086294418
G3 X45.507614213197975 Y35.7741116751269 I-1.4898477157360408 J0.616751269035533
G1 X45.507614213197975 Y60.373096446700515
G3 X45.38578680203046 Y60.98984771573604 I-1.6116751269035534 J0
G3 X45.035532994923855 Y61.51269035532995 I-1.4898477157360408 J-0.616751269035533
G3 X44.51269035532995 Y61.86294416243655 I-1.1395939086294418 J-1.1395939086294418
G3 X43.89593908629442 Y61.984771573604064 I-0.616751269035533 J-1.4898477157360408
G1 X36.29441624365482 Y61.984771573604064
G3 X35.67766497461929 Y61.86294416243655 I0 J-1.6116751269035534
G3 X35.15482233502538 Y61.51269035532995 I0.616751269035533 J-1.4898477157360408
G3 X34.80456852791878 Y60.98984771573604 I1.1395939086294418 J-1.1395939086294418
G3 X34.682741116751274 Y60.373096446700515 I1.4898477157360408 J-0.616751269035533
G0 Z2
G0 X39.76269035532995 Y56.905837563451776
G1 Z-0.25 F200
G1 X39.76142131979695 Y39.24111675126903 F400
G1 X40.42639593908629 Y39.24111675126903
G1 X40.42639593908629 Y56.90609137055837
G1 X39.76142131979695 Y56.90609137055837
G1 X37.22258883248731 Y59.445939086294416 F400
G1 X37.223350253807105 Y36.700507614213194 F400
G1 X42.96700507614213 Y36.700507614213194
G1 X42.96700507614213 Y59.44670050761421
G1 X37.223350253807105 Y59.44670050761421
G1 X34.68248730964467 Y60.373350253807104 F400
G1 X34.682741116751274 Y35.7741116751269 F400
G3 X34.80456852791878 Y35.15736040609137 I1.6116751269035534 J0
G3 X35.15482233502538 Y34.63197969543147 I1.4898477157360408 J0.616751269035533
G3 X35.67766497461929 Y34.28426395939086 I1.1395939086294418 J1.1395939086294418
G3 X36.29441624365482 Y34.15989847715736 I0.616751269035533 J1.4898477157360408
G1 X43.89593908629442 Y34.15989847715736
G3 X44.51269035532995 Y34.28426395939086 I0 J1.6116751269035534
G3 X45.035532994923855 Y34.63197969543147 I-0.616751269035533 J1.4898477157360408
G3 X45.38578680203046 Y35.15736040609137 I-1.1395939086294418 J1.1395939086294418
G3 X45.507614213197975 Y35.7741116751269 I-1.4898477157360408 J0.616751269035533
G1 X45.507614213197975 Y60.373096446700515
G3 X45.38578680203046 Y60.98984771573604 I-1.6116751269035534 J0
G3 X45.035532994923855 Y61.51269035532995 I-1.4898477157360408 J-0.616751269035533
G3 X44.51269035532995 Y61.86294416243655 I-1.1395939086294418 J-1.1395939086294418
G3 X43.89593908629442 Y61.984771573604064 I-0.616751269035533 J-1.4898477157360408
G1 X36.29441624365482 Y61.984771573604064
G3 X35.67766497461929 Y61.86294416243655 I0 J-1.6116751269035534
G3 X35.15482233502538 Y61.51269035532995 I0.616751269035533 J-1.4898477157360408
G3 X34.80456852791878 Y60.98984771573604 I1.1395939086294418 J-1.1395939086294418
G3 X34.682741116751274 Y60.373096446700515 I1.4898477157360408 J-0.616751269035533
G0 Z2
G0 X39.76269035532995 Y56.905837563451776
G1 Z-0.3 F200
G1 X39.76142131979695 Y39.24111675126903 F400
G1 X40.42639593908629 Y39.24111675126903
G1 X40.42639593908629 Y56.90609137055837
G1 X39.76142131979695 Y56.90609137055837
G1 X37.22258883248731 Y59.445939086294416 F400
G1 X37.223350253807105 Y36.700507614213194 F400
G1 X42.96700507614213 Y36.700507614213194
G1 X42.96700507614213 Y59.44670050761421
G1 X37.223350253807105 Y59.44670050761421
G1 X34.68248730964467 Y60.373350253807104 F400
G1 X34.682741116751274 Y35.7741116751269 F400
G3 X34.80456852791878 Y35.15736040609137 I1.6116751269035534 J0
G3 X35.15482233502538 Y34.63197969543147 I1.4898477157360408 J0.616751269035533
G3 X35.67766497461929 Y34.28426395939086 I1.1395939086294418 J1.1395939086294418
G3 X36.29441624365482 Y34.15989847715736 I0.616751269035533 J1.4898477157360408
G1 X43.89593908629442 Y34.15989847715736
G3 X44.51269035532995 Y34.28426395939086 I0 J1.6116751269035534
G3 X45.035532994923855 Y34.63197969543147 I-0.616751269035533 J1.4898477157360408
G3 X45.38578680203046 Y35.15736040609137 I-1.1395939086294418 J1.1395939086294418
G3 X45.507614213197975 Y35.7741116751269 I-1.4898477157360408 J0.616751269035533
G1 X45.507614213197975 Y60.373096446700515
G3 X45.38578680203046 Y60.98984771573604 I-1.6116751269035534 J0
G3 X45.035532994923855 Y61.51269035532995 I-1.4898477157360408 J-0.616751269035533
G3 X44.51269035532995 Y61.86294416243655 I-1.1395939086294418 J-1.1395939086294418
G3 X43.89593908629442 Y61.984771573604064 I-0.616751269035533 J-1.4898477157360408
G1 X36.29441624365482 Y61.984771573604064
G3 X35.67766497461929 Y61.86294416243655 I0 J-1.6116751269035534
G3 X35.15482233502538 Y61.51269035532995 I0.616751269035533 J-1.4898477157360408
G3 X34.80456852791878 Y60.98984771573604 I1.1395939086294418 J-1.1395939086294418
G3 X34.682741116751274 Y60.373096446700515 I1.4898477157360408 J-0.616751269035533
G0 Z2
G0 X39.76269035532995 Y56.905837563451776
G1 Z-0.35 F200
G1 X39.76142131979695 Y39.24111675126903 F400
G1 X40.42639593908629 Y39.24111675126903
G1 X40.42639593908629 Y56.90609137055837
G1 X39.76142131979695 Y56.90609137055837
G1 X37.22258883248731 Y59.445939086294416 F400
G1 X37.223350253807105 Y36.700507614213194 F400
G1 X42.96700507614213 Y36.700507614213194
G1 X42.96700507614213 Y59.44670050761421
G1 X37.223350253807105 Y59.44670050761421
G1 X34.68248730964467 Y60.373350253807104 F400
G1 X34.682741116751274 Y35.7741116751269 F400
G3 X34.80456852791878 Y35.15736040609137 I1.6116751269035534 J0
G3 X35.15482233502538 Y34.63197969543147 I1.4898477157360408 J0.616751269035533
G3 X35.67766497461929 Y34.28426395939086 I1.1395939086294418 J1.1395939086294418
G3 X36.29441624365482 Y34.15989847715736 I0.616751269035533 J1.4898477157360408
G1 X43.89593908629442 Y34.15989847715736
G3 X44.51269035532995 Y34.28426395939086 I0 J1.6116751269035534
G3 X45.035532994923855 Y34.63197969543147 I-0.616751269035533 J1.4898477157360408
G3 X45.38578680203046 Y35.15736040609137 I-1.1395939086294418 J1.1395939086294418
G3 X45.507614213197975 Y35.7741116751269 I-1.4898477157360408 J0.616751269035533
G1 X45.507614213197975 Y60.373096446700515
G3 X45.38578680203046 Y60.98984771573604 I-1.6116751269035534 J0
G3 X45.035532994923855 Y61.51269035532995 I-1.4898477157360408 J-0.616751269035533
G3 X44.51269035532995 Y61.86294416243655 I-1.1395939086294418 J-1.1395939086294418
G3 X43.89593908629442 Y61.984771573604064 I-0.616751269035533 J-1.4898477157360408
G1 X36.29441624365482 Y61.984771573604064
G3 X35.67766497461929 Y61.86294416243655 I0 J-1.6116751269035534
G3 X35.15482233502538 Y61.51269035532995 I0.616751269035533 J-1.4898477157360408
G3 X34.80456852791878 Y60.98984771573604 I1.1395939086294418 J-1.1395939086294418
G3 X34.682741116751274 Y60.373096446700515 I1.4898477157360408 J-0.616751269035533
G0 Z2
G0 X39.76269035532995 Y56.905837563451776
G1 Z-0.4 F200
G1 X39.76142131979695 Y39.24111675126903 F400
G1 X40.42639593908629 Y39.24111675126903
G1 X40.42639593908629 Y56.90609137055837
G1 X39.76142131979695 Y56.90609137055837
G1 X37.22258883248731 Y59.445939086294416 F400
G1 X37.223350253807105 Y36.700507614213194 F400
G1 X42.96700507614213 Y36.700507614213194
G1 X42.96700507614213 Y59.44670050761421
G1 X37.223350253807105 Y59.44670050761421
G1 X34.68248730964467 Y60.373350253807104 F400
G1 X34.682741116751274 Y35.7741116751269 F400
G3 X34.80456852791878 Y35.15736040609137 I1.6116751269035534 J0
G3 X35.15482233502538 Y34.63197969543147 I1.4898477157360408 J0.616751269035533
G3 X35.67766497461929 Y34.28426395939086 I1.1395939086294418 J1.1395939086294418
G3 X36.29441624365482 Y34.15989847715736 I0.616751269035533 J1.4898477157360408
G1 X43.89593908629442 Y34.15989847715736
G3 X44.51269035532995 Y34.28426395939086 I0 J1.6116751269035534
G3 X45.035532994923855 Y34.63197969543147 I-0.616751269035533 J1.4898477157360408
G3 X45.38578680203046 Y35.15736040609137 I-1.1395939086294418 J1.1395939086294418
G3 X45.507614213197975 Y35.7741116751269 I-1.4898477157360408 J0.616751269035533
G1 X45.507614213197975 Y60.373096446700515
G3 X45.38578680203046 Y60.98984771573604 I-1.6116751269035534 J0
G3 X45.035532994923855 Y61.51269035532995 I-1.4898477157360408 J-0.616751269035533
G3 X44.51269035532995 Y61.86294416243655 I-1.1395939086294418 J-1.1395939086294418
G3 X43.89593908629442 Y61.984771573604064 I-0.616751269035533 J-1.4898477157360408
G1 X36.29441624365482 Y61.984771573604064
G3 X35.67766497461929 Y61.86294416243655 I0 J-1.6116751269035534
G3 X35.15482233502538 Y61.51269035532995 I0.616751269035533 J-1.4898477157360408
G3 X34.80456852791878 Y60.98984771573604 I1.1395939086294418 J-1.1395939086294418
G3 X34.682741116751274 Y60.373096446700515 I1.4898477157360408 J-0.616751269035533
G0 Z2
G0 X39.76269035532995 Y56.905837563451776
G1 Z-0.45 F200
G1 X39.76142131979695 Y39.24111675126903 F400
G1 X40.42639593908629 Y39.24111675126903
G1 X40.42639593908629 Y56.90609137055837
G1 X39.76142131979695 Y56.90609137055837
G1 X37.22258883248731 Y59.445939086294416 F400
G1 X37.223350253807105 Y36.700507614213194 F400
G1 X42.96700507614213 Y36.700507614213194
G1 X42.96700507614213 Y59.44670050761421
G1 X37.223350253807105 Y59.44670050761421
G1 X34.68248730964467 Y60.373350253807104 F400
G1 X34.682741116751274 Y35.7741116751269 F400
G3 X34.80456852791878 Y35.15736040609137 I1.6116751269035534 J0
G3 X35.15482233502538 Y34.63197969543147 I1.4898477157360408 J0.616751269035533
G3 X35.67766497461929 Y34.28426395939086 I1.1395939086294418 J1.1395939086294418
G3 X36.29441624365482 Y34.15989847715736 I0.616751269035533 J1.4898477157360408
G1 X43.89593908629442 Y34.15989847715736
G3 X44.51269035532995 Y34.28426395939086 I0 J1.6116751269035534
G3 X45.035532994923855 Y34.63197969543147 I-0.616751269035533 J1.4898477157360408
G3 X45.38578680203046 Y35.15736040609137 I-1.1395939086294418 J1.1395939086294418
G3 X45.507614213197975 Y35.7741116751269 I-1.4898477157360408 J0.616751269035533
G1 X45.507614213197975 Y60.373096446700515
G3 X45.38578680203046 Y60.98984771573604 I-1.6116751269035534 J0
G3 X45.035532994923855 Y61.51269035532995 I-1.4898477157360408 J-0.616751269035533
G3 X44.51269035532995 Y61.86294416243655 I-1.1395939086294418 J-1.1395939086294418
G3 X43.89593908629442 Y61.984771573604064 I-0.616751269035533 J-1.4898477157360408
G1 X36.29441624365482 Y61.984771573604064
G3 X35.67766497461929 Y61.86294416243655 I0 J-1.6116751269035534
G3 X35.15482233502538 Y61.51269035532995 I0.616751269035533 J-1.4898477157360408
G3 X34.80456852791878 Y60.98984771573604 I1.1395939086294418 J-1.1395939086294418
G3 X34.682741116751274 Y60.373096446700515 I1.4898477157360408 J-0.616751269035533
G0 Z2
G0 X39.76269035532995 Y56.905837563451776
G1 Z-0.5 F200
G1 X39.76142131979695 Y39.24111675126903 F400
G1 X40.42639593908629 Y39.24111675126903
G1 X40.42639593908629 Y56.90609137055837
G1 X39.76142131979695 Y56.90609137055837
G1 X37.22258883248731 Y59.445939086294416 F400
G1 X37.223350253807105 Y36.700507614213194 F400
G1 X42.96700507614213 Y36.700507614213194
G1 X42.96700507614213 Y59.44670050761421
G1 X37.223350253807105 Y59.44670050761421
G1 X34.68248730964467 Y60.373350253807104 F400
G1 X34.682741116751274 Y35.7741116751269 F400
G3 X34.80456852791878 Y35.15736040609137 I1.6116751269035534 J0
G3 X35.15482233502538 Y34.63197969543147 I1.4898477157360408 J0.616751269035533
G3 X35.67766497461929 Y34.28426395939086 I1.1395939086294418 J1.1395939086294418
G3 X36.29441624365482 Y34.15989847715736 I0.616751269035533 J1.4898477157360408
G1 X43.89593908629442 Y34.15989847715736
G3 X44.51269035532995 Y34.28426395939086 I0 J1.6116751269035534
G3 X45.035532994923855 Y34.63197969543147 I-0.616751269035533 J1.4898477157360408
G3 X45.38578680203046 Y35.15736040609137 I-1.1395939086294418 J1.1395939086294418
G3 X45.507614213197975 Y35.7741116751269 I-1.4898477157360408 J0.616751269035533
G1 X45.507614213197975 Y60.373096446700515
G3 X45.38578680203046 Y60.98984771573604 I-1.6116751269035534 J0
G3 X45.035532994923855 Y61.51269035532995 I-1.4898477157360408 J-0.616751269035533
G3 X44.51269035532995 Y61.86294416243655 I-1.1395939086294418 J-1.1395939086294418
G3 X43.89593908629442 Y61.984771573604064 I-0.616751269035533 J-1.4898477157360408
G1 X36.29441624365482 Y61.984771573604064
G3 X35.67766497461929 Y61.86294416243655 I0 J-1.6116751269035534
G3 X35.15482233502538 Y61.51269035532995 I0.616751269035533 J-1.4898477157360408
G3 X34.80456852791878 Y60.98984771573604 I1.1395939086294418 J-1.1395939086294418
G3 X34.682741116751274 Y60.373096446700515 I1.4898477157360408 J-0.616751269035533
G0 Z2
G0 X39.76269035532995 Y56.905837563451776
G1 Z-0.55 F200
G1 X39.76142131979695 Y39.24111675126903 F400
G1 X40.42639593908629 Y39.24111675126903
G1 X40.42639593908629 Y56.90609137055837
G1 X39.76142131979695 Y56.90609137055837
G1 X37.22258883248731 Y59.445939086294416 F400
G1 X37.223350253807105 Y36.700507614213194 F400
G1 X42.96700507614213 Y36.700507614213194
G1 X42.96700507614213 Y59.44670050761421
G1 X37.223350253807105 Y59.44670050761421
G1 X34.68248730964467 Y60.373350253807104 F400
G1 X34.682741116751274 Y35.7741116751269 F400
G3 X34.80456852791878 Y35.15736040609137 I1.6116751269035534 J0
G3 X35.15482233502538 Y34.63197969543147 I1.4898477157360408 J0.616751269035533
G3 X35.67766497461929 Y34.28426395939086 I1.1395939086294418 J1.1395939086294418
G3 X36.29441624365482 Y34.15989847715736 I0.616751269035533 J1.4898477157360408
G1 X43.89593908629442 Y34.15989847715736
G3 X44.51269035532995 Y34.28426395939086 I0 J1.6116751269035534
G3 X45.035532994923855 Y34.63197969543147 I-0.616751269035533 J1.4898477157360408
G3 X45.38578680203046 Y35.15736040609137 I-1.1395939086294418 J1.1395939086294418
G3 X45.507614213197975 Y35.7741116751269 I-1.4898477157360408 J0.616751269035533
G1 X45.507614213197975 Y60.373096446700515
G3 X45.38578680203046 Y60.98984771573604 I-1.6116751269035534 J0
G3 X45.035532994923855 Y61.51269035532995 I-1.4898477157360408 J-0.616751269035533
G3 X44.51269035532995 Y61.86294416243655 I-1.1395939086294418 J-1.1395939086294418
G3 X43.89593908629442 Y61.984771573604064 I-0.616751269035533 J-1.4898477157360408
G1 X36.29441624365482 Y61.984771573604064
G3 X35.67766497461929 Y61.86294416243655 I0 J-1.6116751269035534
G3 X35.15482233502538 Y61.51269035532995 I0.616751269035533 J-1.4898477157360408
G3 X34.80456852791878 Y60.98984771573604 I1.1395939086294418 J-1.1395939086294418
G3 X34.682741116751274 Y60.373096446700515 I1.4898477157360408 J-0.616751269035533
G0 Z2
G0 X39.76269035532995 Y56.905837563451776
G1 Z-0.6 F200
G1 X39.76142131979695 Y39.24111675126903 F400
G1 X40.42639593908629 Y39.24111675126903
G1 X40.42639593908629 Y56.90609137055837
G1 X39.76142131979695 Y56.90609137055837
G1 X37.22258883248731 Y59.445939086294416 F400
G1 X37.223350253807105 Y36.700507614213194 F400
G1 X42.96700507614213 Y36.700507614213194
G1 X42.96700507614213 Y59.44670050761421
G1 X37.223350253807105 Y59.44670050761421
G1 X34.68248730964467 Y60.373350253807104 F400
G1 X34.682741116751274 Y35.7741116751269 F400
G3 X34.80456852791878 Y35.15736040609137 I1.6116751269035534 J0
G3 X35.15482233502538 Y34.63197969543147 I1.4898477157360408 J0.616751269035533
G3 X35.67766497461929 Y34.28426395939086 I1.1395939086294418 J1.1395939086294418
G3 X36.29441624365482 Y34.15989847715736 I0.616751269035533 J1.4898477157360408
G1 X43.89593908629442 Y34.15989847715736
G3 X44.51269035532995 Y34.28426395939086 I0 J1.6116751269035534
G3 X45.035532994923855 Y34.63197969543147 I-0.616751269035533 J1.4898477157360408
G3 X45.38578680203046 Y35.15736040609137 I-1.1395939086294418 J1.1395939086294418
G3 X45.507614213197975 Y35.7741116751269 I-1.4898477157360408 J0.616751269035533
G1 X45.507614213197975 Y60.373096446700515
G3 X45.38578680203046 Y60.98984771573604 I-1.6116751269035534 J0
G3 X45.035532994923855 Y61.51269035532995 I-1.4898477157360408 J-0.616751269035533
G3 X44.51269035532995 Y61.86294416243655 I-1.1395939086294418 J-1.1395939086294418
G3 X43.89593908629442 Y61.984771573604064 I-0.616751269035533 J-1.4898477157360408
G1 X36.29441624365482 Y61.984771573604064
G3 X35.67766497461929 Y61.86294416243655 I0 J-1.6116751269035534
G3 X35.15482233502538 Y61.51269035532995 I0.616751269035533 J-1.4898477157360408
G3 X34.80456852791878 Y60.98984771573604 I1.1395939086294418 J-1.1395939086294418
G3 X34.682741116751274 Y60.373096446700515 I1.4898477157360408 J-0.616751269035533
G0 Z2
G0 X39.76269035532995 Y56.905837563451776
G1 Z-0.65 F200
G1 X39.76142131979695 Y39.24111675126903 F400
G1 X40.42639593908629 Y39.24111675126903
G1 X40.42639593908629 Y56.90609137055837
G1 X39.76142131979695 Y56.90609137055837
G1 X37.22258883248731 Y59.445939086294416 F400
G1 X37.223350253807105 Y36.700507614213194 F400
G1 X42.96700507614213 Y36.700507614213194
G1 X42.96700507614213 Y59.44670050761421
G1 X37.223350253807105 Y59.44670050761421
G1 X34.68248730964467 Y60.373350253807104 F400
G1 X34.682741116751274 Y35.7741116751269 F400
G3 X34.80456852791878 Y35.15736040609137 I1.6116751269035534 J0
G3 X35.15482233502538 Y34.63197969543147 I1.4898477157360408 J0.616751269035533
G3 X35.67766497461929 Y34.28426395939086 I1.1395939086294418 J1.1395939086294418
G3 X36.29441624365482 Y34.15989847715736 I0.616751269035533 J1.4898477157360408
G1 X43.89593908629442 Y34.15989847715736
G3 X44.51269035532995 Y34.28426395939086 I0 J1.6116751269035534
G3 X45.035532994923855 Y34.63197969543147 I-0.616751269035533 J1.4898477157360408
G3 X45.38578680203046 Y35.15736040609137 I-1.1395939086294418 J1.1395939086294418
G3 X45.507614213197975 Y35.7741116751269 I-1.4898477157360408 J0.616751269035533
G1 X45.507614213197975 Y60.373096446700515
G3 X45.38578680203046 Y60.98984771573604 I-1.6116751269035534 J0
G3 X45.035532994923855 Y61.51269035532995 I-1.4898477157360408 J-0.616751269035533
G3 X44.51269035532995 Y61.86294416243655 I-1.1395939086294418 J-1.1395939086294418
G3 X43.89593908629442 Y61.984771573604064 I-0.616751269035533 J-1.4898477157360408
G1 X36.29441624365482 Y61.984771573604064
G3 X35.67766497461929 Y61.86294416243655 I0 J-1.6116751269035534
G3 X35.15482233502538 Y61.51269035532995 I0.616751269035533 J-1.4898477157360408
G3 X34.80456852791878 Y60.98984771573604 I1.1395939086294418 J-1.1395939086294418
G3 X34.682741116751274 Y60.373096446700515 I1.4898477157360408 J-0.616751269035533
G0 Z2
G0 X39.76269035532995 Y56.905837563451776
G1 Z-0.7 F200
G1 X39.76142131979695 Y39.24111675126903 F400
G1 X40.42639593908629 Y39.24111675126903
G1 X40.42639593908629 Y56.90609137055837
G1 X39.76142131979695 Y56.90609137055837
G1 X37.22258883248731 Y59.445939086294416 F400
G1 X37.223350253807105 Y36.700507614213194 F400
G1 X42.96700507614213 Y36.700507614213194
G1 X42.96700507614213 Y59.44670050761421
G1 X37.223350253807105 Y59.44670050761421
G1 X34.68248730964467 Y60.373350253807104 F400
G1 X34.682741116751274 Y35.7741116751269 F400
G3 X34.80456852791878 Y35.15736040609137 I1.6116751269035534 J0
G3 X35.15482233502538 Y34.63197969543147 I1.4898477157360408 J0.616751269035533
G3 X35.67766497461929 Y34.28426395939086 I1.1395939086294418 J1.1395939086294418
G3 X36.29441624365482 Y34.15989847715736 I0.616751269035533 J1.4898477157360408
G1 X43.89593908629442 Y34.15989847715736
G3 X44.51269035532995 Y34.28426395939086 I0 J1.6116751269035534
G3 X45.035532994923855 Y34.63197969543147 I-0.616751269035533 J1.4898477157360408
G3 X45.38578680203046 Y35.15736040609137 I-1.1395939086294418 J1.1395939086294418
G3 X45.507614213197975 Y35.7741116751269 I-1.4898477157360408 J0.616751269035533
G1 X45.507614213197975 Y60.373096446700515
G3 X45.38578680203046 Y60.98984771573604 I-1.6116751269035534 J0
G3 X45.035532994923855 Y61.51269035532995 I-1.4898477157360408 J-0.616751269035533
G3 X44.51269035532995 Y61.86294416243655 I-1.1395939086294418 J-1.1395939086294418
G3 X43.89593908629442 Y61.984771573604064 I-0.616751269035533 J-1.4898477157360408
G1 X36.29441624365482 Y61.984771573604064
G3 X35.67766497461929 Y61.86294416243655 I0 J-1.6116751269035534
G3 X35.15482233502538 Y61.51269035532995 I0.616751269035533 J-1.4898477157360408
G3 X34.80456852791878 Y60.98984771573604 I1.1395939086294418 J-1.1395939086294418
G3 X34.682741116751274 Y60.373096446700515 I1.4898477157360408 J-0.616751269035533
G0 Z2
G0 X39.76269035532995 Y56.905837563451776
G1 Z-0.75 F200
G1 X39.76142131979695 Y39.24111675126903 F400
G1 X40.42639593908629 Y39.24111675126903
G1 X40.42639593908629 Y56.90609137055837
G1 X39.76142131979695 Y56.90609137055837
G1 X37.22258883248731 Y59.445939086294416 F400
G1 X37.223350253807105 Y36.700507614213194 F400
G1 X42.96700507614213 Y36.700507614213194
G1 X42.96700507614213 Y59.44670050761421
G1 X37.223350253807105 Y59.44670050761421
G1 X34.68248730964467 Y60.373350253807104 F400
G1 X34.682741116751274 Y35.7741116751269 F400
G3 X34.80456852791878 Y35.15736040609137 I1.6116751269035534 J0
G3 X35.15482233502538 Y34.63197969543147 I1.4898477157360408 J0.616751269035533
G3 X35.67766497461929 Y34.28426395939086 I1.1395939086294418 J1.1395939086294418
G3 X36.29441624365482 Y34.15989847715736 I0.616751269035533 J1.4898477157360408
G1 X43.89593908629442 Y34.15989847715736
G3 X44.51269035532995 Y34.28426395939086 I0 J1.6116751269035534
G3 X45.035532994923855 Y34.63197969543147 I-0.616751269035533 J1.4898477157360408
G3 X45.38578680203046 Y35.15736040609137 I-1.1395939086294418 J1.1395939086294418
G3 X45.507614213197975 Y35.7741116751269 I-1.4898477157360408 J0.616751269035533
G1 X45.507614213197975 Y60.373096446700515
G3 X45.38578680203046 Y60.98984771573604 I-1.6116751269035534 J0
G3 X45.035532994923855 Y61.51269035532995 I-1.4898477157360408 J-0.616751269035533
G3 X44.51269035532995 Y61.86294416243655 I-1.1395939086294418 J-1.1395939086294418
G3 X43.89593908629442 Y61.984771573604064 I-0.616751269035533 J-1.4898477157360408
G1 X36.29441624365482 Y61.984771573604064
G3 X35.67766497461929 Y61.86294416243655 I0 J-1.6116751269035534
G3 X35.15482233502538 Y61.51269035532995 I0.616751269035533 J-1.4898477157360408
G3 X34.80456852791878 Y60.98984771573604 I1.1395939086294418 J-1.1395939086294418
G3 X34.682741116751274 Y60.373096446700515 I1.4898477157360408 J-0.616751269035533
G0 Z2
G0 X39.76269035532995 Y56.905837563451776
G1 Z-0.8 F200
G1 X39.76142131979695 Y39.24111675126903 F400
G1 X40.42639593908629 Y39.24111675126903
G1 X40.42639593908629 Y56.90609137055837
G1 X39.76142131979695 Y56.90609137055837
G1 X37.22258883248731 Y59.445939086294416 F400
G1 X37.223350253807105 Y36.700507614213194 F400
G1 X42.96700507614213 Y36.700507614213194
G1 X42.96700507614213 Y59.44670050761421
G1 X37.223350253807105 Y59.44670050761421
G1 X34.68248730964467 Y60.373350253807104 F400
G1 X34.682741116751274 Y35.7741116751269 F400
G3 X34.80456852791878 Y35.15736040609137 I1.6116751269035534 J0
G3 X35.15482233502538 Y34.63197969543147 I1.4898477157360408 J0.616751269035533
G3 X35.67766497461929 Y34.28426395939086 I1.1395939086294418 J1.1395939086294418
G3 X36.29441624365482 Y34.15989847715736 I0.616751269035533 J1.4898477157360408
G1 X43.89593908629442 Y34.15989847715736
G3 X44.51269035532995 Y34.28426395939086 I0 J1.6116751269035534
G3 X45.035532994923855 Y34.63197969543147 I-0.616751269035533 J1.4898477157360408
G3 X45.38578680203046 Y35.15736040609137 I-1.1395939086294418 J1.1395939086294418
G3 X45.507614213197975 Y35.7741116751269 I-1.4898477157360408 J0.616751269035533
G1 X45.507614213197975 Y60.373096446700515
G3 X45.38578680203046 Y60.98984771573604 I-1.6116751269035534 J0
G3 X45.035532994923855 Y61.51269035532995 I-1.4898477157360408 J-0.616751269035533
G3 X44.51269035532995 Y61.86294416243655 I-1.1395939086294418 J-1.1395939086294418
G3 X43.89593908629442 Y61.984771573604064 I-0.616751269035533 J-1.4898477157360408
G1 X36.29441624365482 Y61.984771573604064
G3 X35.67766497461929 Y61.86294416243655 I0 J-1.6116751269035534
G3 X35.15482233502538 Y61.51269035532995 I0.616751269035533 J-1.4898477157360408
G3 X34.80456852791878 Y60.98984771573604 I1.1395939086294418 J-1.1395939086294418
G3 X34.682741116751274 Y60.373096446700515 I1.4898477157360408 J-0.616751269035533
G0 Z2
G0 X39.76269035532995 Y56.905837563451776
G1 Z-0.85 F200
G1 X39.76142131979695 Y39.24111675126903 F400
G1 X40.42639593908629 Y39.24111675126903
G1 X40.42639593908629 Y56.90609137055837
G1 X39.76142131979695 Y56.90609137055837
G1 X37.22258883248731 Y59.445939086294416 F400
G1 X37.223350253807105 Y36.700507614213194 F400
G1 X42.96700507614213 Y36.700507614213194
G1 X42.96700507614213 Y59.44670050761421
G1 X37.223350253807105 Y59.44670050761421
G1 X34.68248730964467 Y60.373350253807104 F400
G1 X34.682741116751274 Y35.7741116751269 F400
G3 X34.80456852791878 Y35.15736040609137 I1.6116751269035534 J0
G3 X35.15482233502538 Y34.63197969543147 I1.4898477157360408 J0.616751269035533
G3 X35.67766497461929 Y34.28426395939086 I1.1395939086294418 J1.1395939086294418
G3 X36.29441624365482 Y34.15989847715736 I0.616751269035533 J1.4898477157360408
G1 X43.89593908629442 Y34.15989847715736
G3 X44.51269035532995 Y34.28426395939086 I0 J1.6116751269035534
G3 X45.035532994923855 Y34.63197969543147 I-0.616751269035533 J1.4898477157360408
G3 X45.38578680203046 Y35.15736040609137 I-1.1395939086294418 J1.1395939086294418
G3 X45.507614213197975 Y35.7741116751269 I-1.4898477157360408 J0.616751269035533
G1 X45.507614213197975 Y60.373096446700515
G3 X45.38578680203046 Y60.98984771573604 I-1.6116751269035534 J0
G3 X45.035532994923855 Y61.51269035532995 I-1.4898477157360408 J-0.616751269035533
G3 X44.51269035532995 Y61.86294416243655 I-1.1395939086294418 J-1.1395939086294418
G3 X43.89593908629442 Y61.984771573604064 I-0.616751269035533 J-1.4898477157360408
G1 X36.29441624365482 Y61.984771573604064
G3 X35.67766497461929 Y61.86294416243655 I0 J-1.6116751269035534
G3 X35.15482233502538 Y61.51269035532995 I0.616751269035533 J-1.4898477157360408
G3 X34.80456852791878 Y60.98984771573604 I1.1395939086294418 J-1.1395939086294418
G3 X34.682741116751274 Y60.373096446700515 I1.4898477157360408 J-0.616751269035533
G0 Z2
G0 X39.76269035532995 Y56.905837563451776
G1 Z-0.9 F200
G1 X39.76142131979695 Y39.24111675126903 F400
G1 X40.42639593908629 Y39.24111675126903
G1 X40.42639593908629 Y56.90609137055837
G1 X39.76142131979695 Y56.90609137055837
G1 X37.22258883248731 Y59.445939086294416 F400
G1 X37.223350253807105 Y36.700507614213194 F400
G1 X42.96700507614213 Y36.700507614213194
G1 X42.96700507614213 Y59.44670050761421
G1 X37.223350253807105 Y59.44670050761421
G1 X34.68248730964467 Y60.373350253807104 F400
G1 X34.682741116751274 Y35.7741116751269 F400
G3 X34.80456852791878 Y35.15736040609137 I1.6116751269035534 J0
G3 X35.15482233502538 Y34.63197969543147 I1.4898477157360408 J0.616751269035533
G3 X35.67766497461929 Y34.28426395939086 I1.1395939086294418 J1.1395939086294418
G3 X36.29441624365482 Y34.15989847715736 I0.616751269035533 J1.4898477157360408
G1 X43.89593908629442 Y34.15989847715736
G3 X44.51269035532995 Y34.28426395939086 I0 J1.6116751269035534
G3 X45.035532994923855 Y34.63197969543147 I-0.616751269035533 J1.4898477157360408
G3 X45.38578680203046 Y35.15736040609137 I-1.1395939086294418 J1.1395939086294418
G3 X45.507614213197975 Y35.7741116751269 I-1.4898477157360408 J0.616751269035533
G1 X45.507614213197975 Y60.373096446700515
G3 X45.38578680203046 Y60.98984771573604 I-1.6116751269035534 J0
G3 X45.035532994923855 Y61.51269035532995 I-1.4898477157360408 J-0.616751269035533
G3 X44.51269035532995 Y61.86294416243655 I-1.1395939086294418 J-1.1395939086294418
G3 X43.89593908629442 Y61.984771573604064 I-0.616751269035533 J-1.4898477157360408
G1 X36.29441624365482 Y61.984771573604064
G3 X35.67766497461929 Y61.86294416243655 I0 J-1.6116751269035534
G3 X35.15482233502538 Y61.51269035532995 I0.616751269035533 J-1.4898477157360408
G3 X34.80456852791878 Y60.98984771573604 I1.1395939086294418 J-1.1395939086294418
G3 X34.682741116751274 Y60.373096446700515 I1.4898477157360408 J-0.616751269035533
G0 Z2
G0 X39.76269035532995 Y56.905837563451776
G1 Z-0.95 F200
G1 X39.76142131979695 Y39.24111675126903 F400
G1 X40.42639593908629 Y39.24111675126903
G1 X40.42639593908629 Y56.90609137055837
G1 X39.76142131979695 Y56.90609137055837
G1 X37.22258883248731 Y59.445939086294416 F400
G1 X37.223350253807105 Y36.700507614213194 F400
G1 X42.96700507614213 Y36.700507614213194
G1 X42.96700507614213 Y59.44670050761421
G1 X37.223350253807105 Y59.44670050761421
G1 X34.68248730964467 Y60.373350253807104 F400
G1 X34.682741116751274 Y35.7741116751269 F400
G3 X34.80456852791878 Y35.15736040609137 I1.6116751269035534 J0
G3 X35.15482233502538 Y34.63197969543147 I1.4898477157360408 J0.616751269035533
G3 X35.67766497461929 Y34.28426395939086 I1.1395939086294418 J1.1395939086294418
G3 X36.29441624365482 Y34.15989847715736 I0.616751269035533 J1.4898477157360408
G1 X43.89593908629442 Y34.15989847715736
G3 X44.51269035532995 Y34.28426395939086 I0 J1.6116751269035534
G3 X45.035532994923855 Y34.63197969543147 I-0.616751269035533 J1.4898477157360408
G3 X45.38578680203046 Y35.15736040609137 I-1.1395939086294418 J1.1395939086294418
G3 X45.507614213197975 Y35.7741116751269 I-1.4898477157360408 J0.616751269035533
G1 X45.507614213197975 Y60.373096446700515
G3 X45.38578680203046 Y60.98984771573604 I-1.6116751269035534 J0
G3 X45.035532994923855 Y61.51269035532995 I-1.4898477157360408 J-0.616751269035533
G3 X44.51269035532995 Y61.86294416243655 I-1.1395939086294418 J-1.1395939086294418
G3 X43.89593908629442 Y61.984771573604064 I-0.616751269035533 J-1.4898477157360408
G1 X36.29441624365482 Y61.984771573604064
G3 X35.67766497461929 Y61.86294416243655 I0 J-1.6116751269035534
G3 X35.15482233502538 Y61.51269035532995 I0.616751269035533 J-1.4898477157360408
G3 X34.80456852791878 Y60.98984771573604 I1.1395939086294418 J-1.1395939086294418
G3 X34.682741116751274 Y60.373096446700515 I1.4898477157360408 J-0.616751269035533
G0 Z2
G0 X39.76269035532995 Y56.905837563451776
G1 Z-1 F200
G1 X39.76142131979695 Y39.24111675126903 F400
G1 X40.42639593908629 Y39.24111675126903
G1 X40.42639593908629 Y56.90609137055837
G1 X39.76142131979695 Y56.90609137055837
G1 X37.22258883248731 Y59.445939086294416 F400
G1 X37.223350253807105 Y36.700507614213194 F400
G1 X42.96700507614213 Y36.700507614213194
G1 X42.96700507614213 Y59.44670050761421
G1 X37.223350253807105 Y59.44670050761421
G1 X34.68248730964467 Y60.373350253807104 F400
G1 X34.682741116751274 Y35.7741116751269 F400
G3 X34.80456852791878 Y35.15736040609137 I1.6116751269035534 J0
G3 X35.15482233502538 Y34.63197969543147 I1.4898477157360408 J0.616751269035533
G3 X35.67766497461929 Y34.28426395939086 I1.1395939086294418 J1.1395939086294418
G3 X36.29441624365482 Y34.15989847715736 I0.616751269035533 J1.4898477157360408
G1 X43.89593908629442 Y34.15989847715736
G3 X44.51269035532995 Y34.28426395939086 I0 J1.6116751269035534
G3 X45.035532994923855 Y34.63197969543147 I-0.616751269035533 J1.4898477157360408
G3 X45.38578680203046 Y35.15736040609137 I-1.1395939086294418 J1.1395939086294418
G3 X45.507614213197975 Y35.7741116751269 I-1.4898477157360408 J0.616751269035533
G1 X45.507614213197975 Y60.373096446700515
G3 X45.38578680203046 Y60.98984771573604 I-1.6116751269035534 J0
G3 X45.035532994923855 Y61.51269035532995 I-1.4898477157360408 J-0.616751269035533
G3 X44.51269035532995 Y61.86294416243655 I-1.1395939086294418 J-1.1395939086294418
G3 X43.89593908629442 Y61.984771573604064 I-0.616751269035533 J-1.4898477157360408
G1 X36.29441624365482 Y61.984771573604064
G3 X35.67766497461929 Y61.86294416243655 I0 J-1.6116751269035534
G3 X35.15482233502538 Y61.51269035532995 I0.616751269035533 J-1.4898477157360408
G3 X34.80456852791878 Y60.98984771573604 I1.1395939086294418 J-1.1395939086294418
G3 X34.682741116751274 Y60.373096446700515 I1.4898477157360408 J-0.616751269035533
G0 Z2
G0 X39.76269035532995 Y56.905837563451776
G1 Z-1.05 F200
G1 X39.76142131979695 Y39.24111675126903 F400
G1 X40.42639593908629 Y39.24111675126903
G1 X40.42639593908629 Y56.90609137055837
G1 X39.76142131979695 Y56.90609137055837
G1 X37.22258883248731 Y59.445939086294416 F400
G1 X37.223350253807105 Y36.700507614213194 F400
G1 X42.96700507614213 Y36.700507614213194
G1 X42.96700507614213 Y59.44670050761421
G1 X37.223350253807105 Y59.44670050761421
G1 X34.68248730964467 Y60.373350253807104 F400
G1 X34.682741116751274 Y35.7741116751269 F400
G3 X34.80456852791878 Y35.15736040609137 I1.6116751269035534 J0
G3 X35.15482233502538 Y34.63197969543147 I1.4898477157360408 J0.616751269035533
G3 X35.67766497461929 Y34.28426395939086 I1.1395939086294418 J1.1395939086294418
G3 X36.29441624365482 Y34.15989847715736 I0.616751269035533 J1.4898477157360408
G1 X43.89593908629442 Y34.15989847715736
G3 X44.51269035532995 Y34.28426395939086 I0 J1.6116751269035534
G3 X45.035532994923855 Y34.63197969543147 I-0.616751269035533 J1.4898477157360408
G3 X45.38578680203046 Y35.15736040609137 I-1.1395939086294418 J1.1395939086294418
G3 X45.507614213197975 Y35.7741116751269 I-1.4898477157360408 J0.616751269035533
G1 X45.507614213197975 Y60.373096446700515
G3 X45.38578680203046 Y60.98984771573604 I-1.6116751269035534 J0
G3 X45.035532994923855 Y61.51269035532995 I-1.4898477157360408 J-0.616751269035533
G3 X44.51269035532995 Y61.86294416243655 I-1.1395939086294418 J-1.1395939086294418
G3 X43.89593908629442 Y61.984771573604064 I-0.616751269035533 J-1.4898477157360408
G1 X36.29441624365482 Y61.984771573604064
G3 X35.67766497461929 Y61.86294416243655 I0 J-1.6116751269035534
G3 X35.15482233502538 Y61.51269035532995 I0.616751269035533 J-1.4898477157360408
G3 X34.80456852791878 Y60.98984771573604 I1.1395939086294418 J-1.1395939086294418
G3 X34.682741116751274 Y60.373096446700515 I1.4898477157360408 J-0.616751269035533
G0 Z2
G0 X39.76269035532995 Y56.905837563451776
G1 Z-1.1 F200
G1 X39.76142131979695 Y39.24111675126903 F400
G1 X40.42639593908629 Y39.24111675126903
G1 X40.42639593908629 Y56.90609137055837
G1 X39.76142131979695 Y56.90609137055837
G1 X37.22258883248731 Y59.445939086294416 F400
G1 X37.223350253807105 Y36.700507614213194 F400
G1 X42.96700507614213 Y36.700507614213194
G1 X42.96700507614213 Y59.44670050761421
G1 X37.223350253807105 Y59.44670050761421
G1 X34.68248730964467 Y60.373350253807104 F400
G1 X34.682741116751274 Y35.7741116751269 F400
G3 X34.80456852791878 Y35.15736040609137 I1.6116751269035534 J0
G3 X35.15482233502538 Y34.63197969543147 I1.4898477157360408 J0.616751269035533
G3 X35.67766497461929 Y34.28426395939086 I1.1395939086294418 J1.1395939086294418
G3 X36.29441624365482 Y34.15989847715736 I0.616751269035533 J1.4898477157360408
G1 X43.89593908629442 Y34.15989847715736
G3 X44.51269035532995 Y34.28426395939086 I0 J1.6116751269035534
G3 X45.035532994923855 Y34.63197969543147 I-0.616751269035533 J1.4898477157360408
G3 X45.38578680203046 Y35.15736040609137 I-1.1395939086294418 J1.1395939086294418
G3 X45.507614213197975 Y35.7741116751269 I-1.4898477157360408 J0.616751269035533
G1 X45.507614213197975 Y60.373096446700515
G3 X45.38578680203046 Y60.98984771573604 I-1.6116751269035534 J0
G3 X45.035532994923855 Y61.51269035532995 I-1.4898477157360408 J-0.616751269035533
G3 X44.51269035532995 Y61.86294416243655 I-1.1395939086294418 J-1.1395939086294418
G3 X43.89593908629442 Y61.984771573604064 I-0.616751269035533 J-1.4898477157360408
G1 X36.29441624365482 Y61.984771573604064
G3 X35.67766497461929 Y61.86294416243655 I0 J-1.6116751269035534
G3 X35.15482233502538 Y61.51269035532995 I0.616751269035533 J-1.4898477157360408
G3 X34.80456852791878 Y60.98984771573604 I1.1395939086294418 J-1.1395939086294418
G3 X34.682741116751274 Y60.373096446700515 I1.4898477157360408 J-0.616751269035533
G0 Z2
G0 X39.76269035532995 Y56.905837563451776
G1 Z-1.15 F200
G1 X39.76142131979695 Y39.24111675126903 F400
G1 X40.42639593908629 Y39.24111675126903
G1 X40.42639593908629 Y56.90609137055837
G1 X39.76142131979695 Y56.90609137055837
G1 X37.22258883248731 Y59.445939086294416 F400
G1 X37.223350253807105 Y36.700507614213194 F400
G1 X42.96700507614213 Y36.700507614213194
G1 X42.96700507614213 Y59.44670050761421
G1 X37.223350253807105 Y59.44670050761421
G1 X34.68248730964467 Y60.373350253807104 F400
G1 X34.682741116751274 Y35.7741116751269 F400
G3 X34.80456852791878 Y35.15736040609137 I1.6116751269035534 J0
G3 X35.15482233502538 Y34.63197969543147 I1.4898477157360408 J0.616751269035533
G3 X35.67766497461929 Y34.28426395939086 I1.1395939086294418 J1.1395939086294418
G3 X36.29441624365482 Y34.15989847715736 I0.616751269035533 J1.4898477157360408
G1 X43.89593908629442 Y34.15989847715736
G3 X44.51269035532995 Y34.28426395939086 I0 J1.6116751269035534
G3 X45.035532994923855 Y34.63197969543147 I-0.616751269035533 J1.4898477157360408
G3 X45.38578680203046 Y35.15736040609137 I-1.1395939086294418 J1.1395939086294418
G3 X45.507614213197975 Y35.7741116751269 I-1.4898477157360408 J0.616751269035533
G1 X45.507614213197975 Y60.373096446700515
G3 X45.38578680203046 Y60.98984771573604 I-1.6116751269035534 J0
G3 X45.035532994923855 Y61.51269035532995 I-1.4898477157360408 J-0.616751269035533
G3 X44.51269035532995 Y61.86294416243655 I-1.1395939086294418 J-1.1395939086294418
G3 X43.89593908629442 Y61.984771573604064 I-0.616751269035533 J-1.4898477157360408
G1 X36.29441624365482 Y61.984771573604064
G3 X35.67766497461929 Y61.86294416243655 I0 J-1.6116751269035534
G3 X35.15482233502538 Y61.51269035532995 I0.616751269035533 J-1.4898477157360408
G3 X34.80456852791878 Y60.98984771573604 I1.1395939086294418 J-1.1395939086294418
G3 X34.682741116751274 Y60.373096446700515 I1.4898477157360408 J-0.616751269035533
G0 Z2
G0 X39.76269035532995 Y56.905837563451776
G1 Z-1.2 F200
G1 X39.76142131979695 Y39.24111675126903 F400
G1 X40.42639593908629 Y39.24111675126903
G1 X40.42639593908629 Y56.90609137055837
G1 X39.76142131979695 Y56.90609137055837
G1 X37.22258883248731 Y59.445939086294416 F400
G1 X37.223350253807105 Y36.700507614213194 F400
G1 X42.96700507614213 Y36.700507614213194
G1 X42.96700507614213 Y59.44670050761421
G1 X37.223350253807105 Y59.44670050761421
G1 X34.68248730964467 Y60.373350253807104 F400
G1 X34.682741116751274 Y35.7741116751269 F400
G3 X34.80456852791878 Y35.15736040609137 I1.6116751269035534 J0
G3 X35.15482233502538 Y34.63197969543147 I1.4898477157360408 J0.616751269035533
G3 X35.67766497461929 Y34.28426395939086 I1.1395939086294418 J1.1395939086294418
G3 X36.29441624365482 Y34.15989847715736 I0.616751269035533 J1.4898477157360408
G1 X43.89593908629442 Y34.15989847715736
G3 X44.51269035532995 Y34.28426395939086 I0 J1.6116751269035534
G3 X45.035532994923855 Y34.63197969543147 I-0.616751269035533 J1.4898477157360408
G3 X45.38578680203046 Y35.15736040609137 I-1.1395939086294418 J1.1395939086294418
G3 X45.507614213197975 Y35.7741116751269 I-1.4898477157360408 J0.616751269035533
G1 X45.507614213197975 Y60.373096446700515
G3 X45.38578680203046 Y60.98984771573604 I-1.6116751269035534 J0
G3 X45.035532994923855 Y61.51269035532995 I-1.4898477157360408 J-0.616751269035533
G3 X44.51269035532995 Y61.86294416243655 I-1.1395939086294418 J-1.1395939086294418
G3 X43.89593908629442 Y61.984771573604064 I-0.616751269035533 J-1.4898477157360408
G1 X36.29441624365482 Y61.984771573604064
G3 X35.67766497461929 Y61.86294416243655 I0 J-1.6116751269035534
G3 X35.15482233502538 Y61.51269035532995 I0.616751269035533 J-1.4898477157360408
G3 X34.80456852791878 Y60.98984771573604 I1.1395939086294418 J-1.1395939086294418
G3 X34.682741116751274 Y60.373096446700515 I1.4898477157360408 J-0.616751269035533
G0 Z2
G0 X39.76269035532995 Y56.905837563451776
G1 Z-1.25 F200
G1 X39.76142131979695 Y39.24111675126903 F400
G1 X40.42639593908629 Y39.24111675126903
G1 X40.42639593908629 Y56.90609137055837
G1 X39.76142131979695 Y56.90609137055837
G1 X37.22258883248731 Y59.445939086294416 F400
G1 X37.223350253807105 Y36.700507614213194 F400
G1 X42.96700507614213 Y36.700507614213194
G1 X42.96700507614213 Y59.44670050761421
G1 X37.223350253807105 Y59.44670050761421
G1 X34.68248730964467 Y60.373350253807104 F400
G1 X34.682741116751274 Y35.7741116751269 F400
G3 X34.80456852791878 Y35.15736040609137 I1.6116751269035534 J0
G3 X35.15482233502538 Y34.63197969543147 I1.4898477157360408 J0.616751269035533
G3 X35.67766497461929 Y34.28426395939086 I1.1395939086294418 J1.1395939086294418
G3 X36.29441624365482 Y34.15989847715736 I0.616751269035533 J1.4898477157360408
G1 X43.89593908629442 Y34.15989847715736
G3 X44.51269035532995 Y34.28426395939086 I0 J1.6116751269035534
G3 X45.035532994923855 Y34.63197969543147 I-0.616751269035533 J1.4898477157360408
G3 X45.38578680203046 Y35.15736040609137 I-1.1395939086294418 J1.1395939086294418
G3 X45.507614213197975 Y35.7741116751269 I-1.4898477157360408 J0.616751269035533
G1 X45.507614213197975 Y60.373096446700515
G3 X45.38578680203046 Y60.98984771573604 I-1.6116751269035534 J0
G3 X45.035532994923855 Y61.51269035532995 I-1.4898477157360408 J-0.616751269035533
G3 X44.51269035532995 Y61.86294416243655 I-1.1395939086294418 J-1.1395939086294418
G3 X43.89593908629442 Y61.984771573604064 I-0.616751269035533 J-1.4898477157360408
G1 X36.29441624365482 Y61.984771573604064
G3 X35.67766497461929 Y61.86294416243655 I0 J-1.6116751269035534
G3 X35.15482233502538 Y61.51269035532995 I0.616751269035533 J-1.4898477157360408
G3 X34.80456852791878 Y60.98984771573604 I1.1395939086294418 J-1.1395939086294418
G3 X34.682741116751274 Y60.373096446700515 I1.4898477157360408 J-0.616751269035533
G0 Z2
G0 X39.76269035532995 Y56.905837563451776
G1 Z-1.3 F200
G1 X39.76142131979695 Y39.24111675126903 F400
G1 X40.42639593908629 Y39.24111675126903
G1 X40.42639593908629 Y56.90609137055837
G1 X39.76142131979695 Y56.90609137055837
G1 X37.22258883248731 Y59.445939086294416 F400
G1 X37.223350253807105 Y36.700507614213194 F400
G1 X42.96700507614213 Y36.700507614213194
G1 X42.96700507614213 Y59.44670050761421
G1 X37.223350253807105 Y59.44670050761421
G1 X34.68248730964467 Y60.373350253807104 F400
G1 X34.682741116751274 Y35.7741116751269 F400
G3 X34.80456852791878 Y35.15736040609137 I1.6116751269035534 J0
G3 X35.15482233502538 Y34.63197969543147 I1.4898477157360408 J0.616751269035533
G3 X35.67766497461929 Y34.28426395939086 I1.1395939086294418 J1.1395939086294418
G3 X36.29441624365482 Y34.15989847715736 I0.616751269035533 J1.4898477157360408
G1 X43.89593908629442 Y34.15989847715736
G3 X44.51269035532995 Y34.28426395939086 I0 J1.6116751269035534
G3 X45.035532994923855 Y34.63197969543147 I-0.616751269035533 J1.4898477157360408
G3 X45.38578680203046 Y35.15736040609137 I-1.1395939086294418 J1.1395939086294418
G3 X45.507614213197975 Y35.7741116751269 I-1.4898477157360408 J0.616751269035533
G1 X45.507614213197975 Y60.373096446700515
G3 X45.38578680203046 Y60.98984771573604 I-1.6116751269035534 J0
G3 X45.035532994923855 Y61.51269035532995 I-1.4898477157360408 J-0.616751269035533
G3 X44.51269035532995 Y61.86294416243655 I-1.1395939086294418 J-1.1395939086294418
G3 X43.89593908629442 Y61.984771573604064 I-0.616751269035533 J-1.4898477157360408
G1 X36.29441624365482 Y61.984771573604064
G3 X35.67766497461929 Y61.86294416243655 I0 J-1.6116751269035534
G3 X35.15482233502538 Y61.51269035532995 I0.616751269035533 J-1.4898477157360408
G3 X34.80456852791878 Y60.98984771573604 I1.1395939086294418 J-1.1395939086294418
G3 X34.682741116751274 Y60.373096446700515 I1.4898477157360408 J-0.616751269035533
G0 Z2
G0 X39.76269035532995 Y56.905837563451776
G1 Z-1.35 F200
G1 X39.76142131979695 Y39.24111675126903 F400
G1 X40.42639593908629 Y39.24111675126903
G1 X40.42639593908629 Y56.90609137055837
G1 X39.76142131979695 Y56.90609137055837
G1 X37.22258883248731 Y59.445939086294416 F400
G1 X37.223350253807105 Y36.700507614213194 F400
G1 X42.96700507614213 Y36.700507614213194
G1 X42.96700507614213 Y59.44670050761421
G1 X37.223350253807105 Y59.44670050761421
G1 X34.68248730964467 Y60.373350253807104 F400
G1 X34.682741116751274 Y35.7741116751269 F400
G3 X34.80456852791878 Y35.15736040609137 I1.6116751269035534 J0
G3 X35.15482233502538 Y34.63197969543147 I1.4898477157360408 J0.616751269035533
G3 X35.67766497461929 Y34.28426395939086 I1.1395939086294418 J1.1395939086294418
G3 X36.29441624365482 Y34.15989847715736 I0.616751269035533 J1.4898477157360408
G1 X43.89593908629442 Y34.15989847715736
G3 X44.51269035532995 Y34.28426395939086 I0 J1.6116751269035534
G3 X45.035532994923855 Y34.63197969543147 I-0.616751269035533 J1.4898477157360408
G3 X45.38578680203046 Y35.15736040609137 I-1.1395939086294418 J1.1395939086294418
G3 X45.507614213197975 Y35.7741116751269 I-1.4898477157360408 J0.616751269035533
G1 X45.507614213197975 Y60.373096446700515
G3 X45.38578680203046 Y60.98984771573604 I-1.6116751269035534 J0
G3 X45.035532994923855 Y61.51269035532995 I-1.4898477157360408 J-0.616751269035533
G3 X44.51269035532995 Y61.86294416243655 I-1.1395939086294418 J-1.1395939086294418
G3 X43.89593908629442 Y61.984771573604064 I-0.616751269035533 J-1.4898477157360408
G1 X36.29441624365482 Y61.984771573604064
G3 X35.67766497461929 Y61.86294416243655 I0 J-1.6116751269035534
G3 X35.15482233502538 Y61.51269035532995 I0.616751269035533 J-1.4898477157360408
G3 X34.80456852791878 Y60.98984771573604 I1.1395939086294418 J-1.1395939086294418
G3 X34.682741116751274 Y60.373096446700515 I1.4898477157360408 J-0.616751269035533
G0 Z2
G0 X39.76269035532995 Y56.905837563451776
G1 Z-1.4 F200
G1 X39.76142131979695 Y39.24111675126903 F400
G1 X40.42639593908629 Y39.24111675126903
G1 X40.42639593908629 Y56.90609137055837
G1 X39.76142131979695 Y56.90609137055837
G1 X37.22258883248731 Y59.445939086294416 F400
G1 X37.223350253807105 Y36.700507614213194 F400
G1 X42.96700507614213 Y36.700507614213194
G1 X42.96700507614213 Y59.44670050761421
G1 X37.223350253807105 Y59.44670050761421
G1 X34.68248730964467 Y60.373350253807104 F400
G1 X34.682741116751274 Y35.7741116751269 F400
G3 X34.80456852791878 Y35.15736040609137 I1.6116751269035534 J0
G3 X35.15482233502538 Y34.63197969543147 I1.4898477157360408 J0.616751269035533
G3 X35.67766497461929 Y34.28426395939086 I1.1395939086294418 J1.1395939086294418
G3 X36.29441624365482 Y34.15989847715736 I0.616751269035533 J1.4898477157360408
G1 X43.89593908629442 Y34.15989847715736
G3 X44.51269035532995 Y34.28426395939086 I0 J1.6116751269035534
G3 X45.035532994923855 Y34.63197969543147 I-0.616751269035533 J1.4898477157360408
G3 X45.38578680203046 Y35.15736040609137 I-1.1395939086294418 J1.1395939086294418
G3 X45.507614213197975 Y35.7741116751269 I-1.4898477157360408 J0.616751269035533
G1 X45.507614213197975 Y60.373096446700515
G3 X45.38578680203046 Y60.98984771573604 I-1.6116751269035534 J0
G3 X45.035532994923855 Y61.51269035532995 I-1.4898477157360408 J-0.616751269035533
G3 X44.51269035532995 Y61.86294416243655 I-1.1395939086294418 J-1.1395939086294418
G3 X43.89593908629442 Y61.984771573604064 I-0.616751269035533 J-1.4898477157360408
G1 X36.29441624365482 Y61.984771573604064
G3 X35.67766497461929 Y61.86294416243655 I0 J-1.6116751269035534
G3 X35.15482233502538 Y61.51269035532995 I0.616751269035533 J-1.4898477157360408
G3 X34.80456852791878 Y60.98984771573604 I1.1395939086294418 J-1.1395939086294418
G3 X34.682741116751274 Y60.373096446700515 I1.4898477157360408 J-0.616751269035533
G0 Z2
G0 X39.76269035532995 Y56.905837563451776
G1 Z-1.45 F200
G1 X39.76142131979695 Y39.24111675126903 F400
G1 X40.42639593908629 Y39.24111675126903
G1 X40.42639593908629 Y56.90609137055837
G1 X39.76142131979695 Y56.90609137055837
G1 X37.22258883248731 Y59.445939086294416 F400
G1 X37.223350253807105 Y36.700507614213194 F400
G1 X42.96700507614213 Y36.700507614213194
G1 X42.96700507614213 Y59.44670050761421
G1 X37.223350253807105 Y59.44670050761421
G1 X34.68248730964467 Y60.373350253807104 F400
G1 X34.682741116751274 Y35.7741116751269 F400
G3 X34.80456852791878 Y35.15736040609137 I1.6116751269035534 J0
G3 X35.15482233502538 Y34.63197969543147 I1.4898477157360408 J0.616751269035533
G3 X35.67766497461929 Y34.28426395939086 I1.1395939086294418 J1.1395939086294418
G3 X36.29441624365482 Y34.15989847715736 I0.616751269035533 J1.4898477157360408
G1 X43.89593908629442 Y34.15989847715736
G3 X44.51269035532995 Y34.28426395939086 I0 J1.6116751269035534
G3 X45.035532994923855 Y34.63197969543147 I-0.616751269035533 J1.4898477157360408
G3 X45.38578680203046 Y35.15736040609137 I-1.1395939086294418 J1.1395939086294418
G3 X45.507614213197975 Y35.7741116751269 I-1.4898477157360408 J0.616751269035533
G1 X45.507614213197975 Y60.373096446700515
G3 X45.38578680203046 Y60.98984771573604 I-1.6116751269035534 J0
G3 X45.035532994923855 Y61.51269035532995 I-1.4898477157360408 J-0.616751269035533
G3 X44.51269035532995 Y61.86294416243655 I-1.1395939086294418 J-1.1395939086294418
G3 X43.89593908629442 Y61.984771573604064 I-0.616751269035533 J-1.4898477157360408
G1 X36.29441624365482 Y61.984771573604064
G3 X35.67766497461929 Y61.86294416243655 I0 J-1.6116751269035534
G3 X35.15482233502538 Y61.51269035532995 I0.616751269035533 J-1.4898477157360408
G3 X34.80456852791878 Y60.98984771573604 I1.1395939086294418 J-1.1395939086294418
G3 X34.682741116751274 Y60.373096446700515 I1.4898477157360408 J-0.616751269035533
G0 Z2
G0 X39.76269035532995 Y56.905837563451776
G1 Z-1.5 F200
G1 X39.76142131979695 Y39.24111675126903 F400
G1 X40.42639593908629 Y39.24111675126903
G1 X40.42639593908629 Y56.90609137055837
G1 X39.76142131979695 Y56.90609137055837
G1 X37.22258883248731 Y59.445939086294416 F400
G1 X37.223350253807105 Y36.700507614213194 F400
G1 X42.96700507614213 Y36.700507614213194
G1 X42.96700507614213 Y59.44670050761421
G1 X37.223350253807105 Y59.44670050761421
G1 X34.68248730964467 Y60.373350253807104 F400
G1 X34.682741116751274 Y35.7741116751269 F400
G3 X34.80456852791878 Y35.15736040609137 I1.6116751269035534 J0
G3 X35.15482233502538 Y34.63197969543147 I1.4898477157360408 J0.616751269035533
G3 X35.67766497461929 Y34.28426395939086 I1.1395939086294418 J1.1395939086294418
G3 X36.29441624365482 Y34.15989847715736 I0.616751269035533 J1.4898477157360408
G1 X43.89593908629442 Y34.15989847715736
G3 X44.51269035532995 Y34.28426395939086 I0 J1.6116751269035534
G3 X45.035532994923855 Y34.63197969543147 I-0.616751269035533 J1.4898477157360408
G3 X45.38578680203046 Y35.15736040609137 I-1.1395939086294418 J1.1395939086294418
G3 X45.507614213197975 Y35.7741116751269 I-1.4898477157360408 J0.616751269035533
G1 X45.507614213197975 Y60.373096446700515
G3 X45.38578680203046 Y60.98984771573604 I-1.6116751269035534 J0
G3 X45.035532994923855 Y61.51269035532995 I-1.4898477157360408 J-0.616751269035533
G3 X44.51269035532995 Y61.86294416243655 I-1.1395939086294418 J-1.1395939086294418
G3 X43.89593908629442 Y61.984771573604064 I-0.616751269035533 J-1.4898477157360408
G1 X36.29441624365482 Y61.984771573604064
G3 X35.67766497461929 Y61.86294416243655 I0 J-1.6116751269035534
G3 X35.15482233502538 Y61.51269035532995 I0.616751269035533 J-1.4898477157360408
G3 X34.80456852791878 Y60.98984771573604 I1.1395939086294418 J-1.1395939086294418
G3 X34.682741116751274 Y60.373096446700515 I1.4898477157360408 J-0.616751269035533
G0 Z2
G0 X39.76269035532995 Y56.905837563451776
G1 Z-1.55 F200
G1 X39.76142131979695 Y39.24111675126903 F400
G1 X40.42639593908629 Y39.24111675126903
G1 X40.42639593908629 Y56.90609137055837
G1 X39.76142131979695 Y56.90609137055837
G1 X37.22258883248731 Y59.445939086294416 F400
G1 X37.223350253807105 Y36.700507614213194 F400
G1 X42.96700507614213 Y36.700507614213194
G1 X42.96700507614213 Y59.44670050761421
G1 X37.223350253807105 Y59.44670050761421
G1 X34.68248730964467 Y60.373350253807104 F400
G1 X34.682741116751274 Y35.7741116751269 F400
G3 X34.80456852791878 Y35.15736040609137 I1.6116751269035534 J0
G3 X35.15482233502538 Y34.63197969543147 I1.4898477157360408 J0.616751269035533
G3 X35.67766497461929 Y34.28426395939086 I1.1395939086294418 J1.1395939086294418
G3 X36.29441624365482 Y34.15989847715736 I0.616751269035533 J1.4898477157360408
G1 X43.89593908629442 Y34.15989847715736
G3 X44.51269035532995 Y34.28426395939086 I0 J1.6116751269035534
G3 X45.035532994923855 Y34.63197969543147 I-0.616751269035533 J1.4898477157360408
G3 X45.38578680203046 Y35.15736040609137 I-1.1395939086294418 J1.1395939086294418
G3 X45.507614213197975 Y35.7741116751269 I-1.4898477157360408 J0.616751269035533
G1 X45.507614213197975 Y60.373096446700515
G3 X45.38578680203046 Y60.98984771573604 I-1.6116751269035534 J0
G3 X45.035532994923855 Y61.51269035532995 I-1.4898477157360408 J-0.616751269035533
G3 X44.51269035532995 Y61.86294416243655 I-1.1395939086294418 J-1.1395939086294418
G3 X43.89593908629442 Y61.984771573604064 I-0.616751269035533 J-1.4898477157360408
G1 X36.29441624365482 Y61.984771573604064
G3 X35.67766497461929 Y61.86294416243655 I0 J-1.6116751269035534
G3 X35.15482233502538 Y61.51269035532995 I0.616751269035533 J-1.4898477157360408
G3 X34.80456852791878 Y60.98984771573604 I1.1395939086294418 J-1.1395939086294418
G3 X34.682741116751274 Y60.373096446700515 I1.4898477157360408 J-0.616751269035533
G0 Z2
G0 X39.76269035532995 Y56.905837563451776
G1 Z-1.6 F200
G1 X39.76142131979695 Y39.24111675126903 F400
G1 X40.42639593908629 Y39.24111675126903
G1 X40.42639593908629 Y56.90609137055837
G1 X39.76142131979695 Y56.90609137055837
G1 X37.22258883248731 Y59.445939086294416 F400
G1 X37.223350253807105 Y36.700507614213194 F400
G1 X42.96700507614213 Y36.700507614213194
G1 X42.96700507614213 Y59.44670050761421
G1 X37.223350253807105 Y59.44670050761421
G1 X34.68248730964467 Y60.373350253807104 F400
G1 X34.682741116751274 Y35.7741116751269 F400
G3 X34.80456852791878 Y35.15736040609137 I1.6116751269035534 J0
G3 X35.15482233502538 Y34.63197969543147 I1.4898477157360408 J0.616751269035533
G3 X35.67766497461929 Y34.28426395939086 I1.1395939086294418 J1.1395939086294418
G3 X36.29441624365482 Y34.15989847715736 I0.616751269035533 J1.4898477157360408
G1 X43.89593908629442 Y34.15989847715736
G3 X44.51269035532995 Y34.28426395939086 I0 J1.6116751269035534
G3 X45.035532994923855 Y34.63197969543147 I-0.616751269035533 J1.4898477157360408
G3 X45.38578680203046 Y35.15736040609137 I-1.1395939086294418 J1.1395939086294418
G3 X45.507614213197975 Y35.7741116751269 I-1.4898477157360408 J0.616751269035533
G1 X45.507614213197975 Y60.373096446700515
G3 X45.38578680203046 Y60.98984771573604 I-1.6116751269035534 J0
G3 X45.035532994923855 Y61.51269035532995 I-1.4898477157360408 J-0.616751269035533
G3 X44.51269035532995 Y61.86294416243655 I-1.1395939086294418 J-1.1395939086294418
G3 X43.89593908629442 Y61.984771573604064 I-0.616751269035533 J-1.4898477157360408
G1 X36.29441624365482 Y61.984771573604064
G3 X35.67766497461929 Y61.86294416243655 I0 J-1.6116751269035534
G3 X35.15482233502538 Y61.51269035532995 I0.616751269035533 J-1.4898477157360408
G3 X34.80456852791878 Y60.98984771573604 I1.1395939086294418 J-1.1395939086294418
G3 X34.682741116751274 Y60.373096446700515 I1.4898477157360408 J-0.616751269035533
G0 Z2
G0 X39.76269035532995 Y56.905837563451776
G1 Z-1.65 F200
G1 X39.76142131979695 Y39.24111675126903 F400
G1 X40.42639593908629 Y39.24111675126903
G1 X40.42639593908629 Y56.90609137055837
G1 X39.76142131979695 Y56.90609137055837
G1 X37.22258883248731 Y59.445939086294416 F400
G1 X37.223350253807105 Y36.700507614213194 F400
G1 X42.96700507614213 Y36.700507614213194
G1 X42.96700507614213 Y59.44670050761421
G1 X37.223350253807105 Y59.44670050761421
G1 X34.68248730964467 Y60.373350253807104 F400
G1 X34.682741116751274 Y35.7741116751269 F400
G3 X34.80456852791878 Y35.15736040609137 I1.6116751269035534 J0
G3 X35.15482233502538 Y34.63197969543147 I1.4898477157360408 J0.616751269035533
G3 X35.67766497461929 Y34.28426395939086 I1.1395939086294418 J1.1395939086294418
G3 X36.29441624365482 Y34.15989847715736 I0.616751269035533 J1.4898477157360408
G1 X43.89593908629442 Y34.15989847715736
G3 X44.51269035532995 Y34.28426395939086 I0 J1.6116751269035534
G3 X45.035532994923855 Y34.63197969543147 I-0.616751269035533 J1.4898477157360408
G3 X45.38578680203046 Y35.15736040609137 I-1.1395939086294418 J1.1395939086294418
G3 X45.507614213197975 Y35.7741116751269 I-1.4898477157360408 J0.616751269035533
G1 X45.507614213197975 Y60.373096446700515
G3 X45.38578680203046 Y60.98984771573604 I-1.6116751269035534 J0
G3 X45.035532994923855 Y61.51269035532995 I-1.4898477157360408 J-0.616751269035533
G3 X44.51269035532995 Y61.86294416243655 I-1.1395939086294418 J-1.1395939086294418
G3 X43.89593908629442 Y61.984771573604064 I-0.616751269035533 J-1.4898477157360408
G1 X36.29441624365482 Y61.984771573604064
G3 X35.67766497461929 Y61.86294416243655 I0 J-1.6116751269035534
G3 X35.15482233502538 Y61.51269035532995 I0.616751269035533 J-1.4898477157360408
G3 X34.80456852791878 Y60.98984771573604 I1.1395939086294418 J-1.1395939086294418
G3 X34.682741116751274 Y60.373096446700515 I1.4898477157360408 J-0.616751269035533
G0 Z2
G0 X39.76269035532995 Y56.905837563451776
G1 Z-1.7 F200
G1 X39.76142131979695 Y39.24111675126903 F400
G1 X40.42639593908629 Y39.24111675126903
G1 X40.42639593908629 Y56.90609137055837
G1 X39.76142131979695 Y56.90609137055837
G1 X37.22258883248731 Y59.445939086294416 F400
G1 X37.223350253807105 Y36.700507614213194 F400
G1 X42.96700507614213 Y36.700507614213194
G1 X42.96700507614213 Y59.44670050761421
G1 X37.223350253807105 Y59.44670050761421
G1 X34.68248730964467 Y60.373350253807104 F400
G1 X34.682741116751274 Y35.7741116751269 F400
G3 X34.80456852791878 Y35.15736040609137 I1.6116751269035534 J0
G3 X35.15482233502538 Y34.63197969543147 I1.4898477157360408 J0.616751269035533
G3 X35.67766497461929 Y34.28426395939086 I1.1395939086294418 J1.1395939086294418
G3 X36.29441624365482 Y34.15989847715736 I0.616751269035533 J1.4898477157360408
G1 X43.89593908629442 Y34.15989847715736
G3 X44.51269035532995 Y34.28426395939086 I0 J1.6116751269035534
G3 X45.035532994923855 Y34.63197969543147 I-0.616751269035533 J1.4898477157360408
G3 X45.38578680203046 Y35.15736040609137 I-1.1395939086294418 J1.1395939086294418
G3 X45.507614213197975 Y35.7741116751269 I-1.4898477157360408 J0.616751269035533
G1 X45.507614213197975 Y60.373096446700515
G3 X45.38578680203046 Y60.98984771573604 I-1.6116751269035534 J0
G3 X45.035532994923855 Y61.51269035532995 I-1.4898477157360408 J-0.616751269035533
G3 X44.51269035532995 Y61.86294416243655 I-1.1395939086294418 J-1.1395939086294418
G3 X43.89593908629442 Y61.984771573604064 I-0.616751269035533 J-1.4898477157360408
G1 X36.29441624365482 Y61.984771573604064
G3 X35.67766497461929 Y61.86294416243655 I0 J-1.6116751269035534
G3 X35.15482233502538 Y61.51269035532995 I0.616751269035533 J-1.4898477157360408
G3 X34.80456852791878 Y60.98984771573604 I1.1395939086294418 J-1.1395939086294418
G3 X34.682741116751274 Y60.373096446700515 I1.4898477157360408 J-0.616751269035533
G0 Z2
G0 X39.76269035532995 Y56.905837563451776
G1 Z-1.75 F200
G1 X39.76142131979695 Y39.24111675126903 F400
G1 X40.42639593908629 Y39.24111675126903
G1 X40.42639593908629 Y56.90609137055837
G1 X39.76142131979695 Y56.90609137055837
G1 X37.22258883248731 Y59.445939086294416 F400
G1 X37.223350253807105 Y36.700507614213194 F400
G1 X42.96700507614213 Y36.700507614213194
G1 X42.96700507614213 Y59.44670050761421
G1 X37.223350253807105 Y59.44670050761421
G1 X34.68248730964467 Y60.373350253807104 F400
G1 X34.682741116751274 Y35.7741116751269 F400
G3 X34.80456852791878 Y35.15736040609137 I1.6116751269035534 J0
G3 X35.15482233502538 Y34.63197969543147 I1.4898477157360408 J0.616751269035533
G3 X35.67766497461929 Y34.28426395939086 I1.1395939086294418 J1.1395939086294418
G3 X36.29441624365482 Y34.15989847715736 I0.616751269035533 J1.4898477157360408
G1 X43.89593908629442 Y34.15989847715736
G3 X44.51269035532995 Y34.28426395939086 I0 J1.6116751269035534
G3 X45.035532994923855 Y34.63197969543147 I-0.616751269035533 J1.4898477157360408
G3 X45.38578680203046 Y35.15736040609137 I-1.1395939086294418 J1.1395939086294418
G3 X45.507614213197975 Y35.7741116751269 I-1.4898477157360408 J0.616751269035533
G1 X45.507614213197975 Y60.373096446700515
G3 X45.38578680203046 Y60.98984771573604 I-1.6116751269035534 J0
G3 X45.035532994923855 Y61.51269035532995 I-1.4898477157360408 J-0.616751269035533
G3 X44.51269035532995 Y61.86294416243655 I-1.1395939086294418 J-1.1395939086294418
G3 X43.89593908629442 Y61.984771573604064 I-0.616751269035533 J-1.4898477157360408
G1 X36.29441624365482 Y61.984771573604064
G3 X35.67766497461929 Y61.86294416243655 I0 J-1.6116751269035534
G3 X35.15482233502538 Y61.51269035532995 I0.616751269035533 J-1.4898477157360408
G3 X34.80456852791878 Y60.98984771573604 I1.1395939086294418 J-1.1395939086294418
G3 X34.682741116751274 Y60.373096446700515 I1.4898477157360408 J-0.616751269035533
G0 Z2
G0 X39.76269035532995 Y56.905837563451776
G1 Z-1.8 F200
G1 X39.76142131979695 Y39.24111675126903 F400
G1 X40.42639593908629 Y39.24111675126903
G1 X40.42639593908629 Y56.90609137055837
G1 X39.76142131979695 Y56.90609137055837
G1 X37.22258883248731 Y59.445939086294416 F400
G1 X37.223350253807105 Y36.700507614213194 F400
G1 X42.96700507614213 Y36.700507614213194
G1 X42.96700507614213 Y59.44670050761421
G1 X37.223350253807105 Y59.44670050761421
G1 X34.68248730964467 Y60.373350253807104 F400
G1 X34.682741116751274 Y35.7741116751269 F400
G3 X34.80456852791878 Y35.15736040609137 I1.6116751269035534 J0
G3 X35.15482233502538 Y34.63197969543147 I1.4898477157360408 J0.616751269035533
G3 X35.67766497461929 Y34.28426395939086 I1.1395939086294418 J1.1395939086294418
G3 X36.29441624365482 Y34.15989847715736 I0.616751269035533 J1.4898477157360408
G1 X43.89593908629442 Y34.15989847715736
G3 X44.51269035532995 Y34.28426395939086 I0 J1.6116751269035534
G3 X45.035532994923855 Y34.63197969543147 I-0.616751269035533 J1.4898477157360408
G3 X45.38578680203046 Y35.15736040609137 I-1.1395939086294418 J1.1395939086294418
G3 X45.507614213197975 Y35.7741116751269 I-1.4898477157360408 J0.616751269035533
G1 X45.507614213197975 Y60.373096446700515
G3 X45.38578680203046 Y60.98984771573604 I-1.6116751269035534 J0
G3 X45.035532994923855 Y61.51269035532995 I-1.4898477157360408 J-0.616751269035533
G3 X44.51269035532995 Y61.86294416243655 I-1.1395939086294418 J-1.1395939086294418
G3 X43.89593908629442 Y61.984771573604064 I-0.616751269035533 J-1.4898477157360408
G1 X36.29441624365482 Y61.984771573604064
G3 X35.67766497461929 Y61.86294416243655 I0 J-1.6116751269035534
G3 X35.15482233502538 Y61.51269035532995 I0.616751269035533 J-1.4898477157360408
G3 X34.80456852791878 Y60.98984771573604 I1.1395939086294418 J-1.1395939086294418
G3 X34.682741116751274 Y60.373096446700515 I1.4898477157360408 J-0.616751269035533
G0 Z2
G0 X39.76269035532995 Y56.905837563451776
G1 Z-1.85 F200
G1 X39.76142131979695 Y39.24111675126903 F400
G1 X40.42639593908629 Y39.24111675126903
G1 X40.42639593908629 Y56.90609137055837
G1 X39.76142131979695 Y56.90609137055837
G1 X37.22258883248731 Y59.445939086294416 F400
G1 X37.223350253807105 Y36.700507614213194 F400
G1 X42.96700507614213 Y36.700507614213194
G1 X42.96700507614213 Y59.44670050761421
G1 X37.223350253807105 Y59.44670050761421
G1 X34.68248730964467 Y60.373350253807104 F400
G1 X34.682741116751274 Y35.7741116751269 F400
G3 X34.80456852791878 Y35.15736040609137 I1.6116751269035534 J0
G3 X35.15482233502538 Y34.63197969543147 I1.4898477157360408 J0.616751269035533
G3 X35.67766497461929 Y34.28426395939086 I1.1395939086294418 J1.1395939086294418
G3 X36.29441624365482 Y34.15989847715736 I0.616751269035533 J1.4898477157360408
G1 X43.89593908629442 Y34.15989847715736
G3 X44.51269035532995 Y34.28426395939086 I0 J1.6116751269035534
G3 X45.035532994923855 Y34.63197969543147 I-0.616751269035533 J1.4898477157360408
G3 X45.38578680203046 Y35.15736040609137 I-1.1395939086294418 J1.1395939086294418
G3 X45.507614213197975 Y35.7741116751269 I-1.4898477157360408 J0.616751269035533
G1 X45.507614213197975 Y60.373096446700515
G3 X45.38578680203046 Y60.98984771573604 I-1.6116751269035534 J0
G3 X45.035532994923855 Y61.51269035532995 I-1.4898477157360408 J-0.616751269035533
G3 X44.51269035532995 Y61.86294416243655 I-1.1395939086294418 J-1.1395939086294418
G3 X43.89593908629442 Y61.984771573604064 I-0.616751269035533 J-1.4898477157360408
G1 X36.29441624365482 Y61.984771573604064
G3 X35.67766497461929 Y61.86294416243655 I0 J-1.6116751269035534
G3 X35.15482233502538 Y61.51269035532995 I0.616751269035533 J-1.4898477157360408
G3 X34.80456852791878 Y60.98984771573604 I1.1395939086294418 J-1.1395939086294418
G3 X34.682741116751274 Y60.373096446700515 I1.4898477157360408 J-0.616751269035533
G0 Z2
G0 X39.76269035532995 Y56.905837563451776
G1 Z-1.9 F200
G1 X39.76142131979695 Y39.24111675126903 F400
G1 X40.42639593908629 Y39.24111675126903
G1 X40.42639593908629 Y56.90609137055837
G1 X39.76142131979695 Y56.90609137055837
G1 X37.22258883248731 Y59.445939086294416 F400
G1 X37.223350253807105 Y36.700507614213194 F400
G1 X42.96700507614213 Y36.700507614213194
G1 X42.96700507614213 Y59.44670050761421
G1 X37.223350253807105 Y59.44670050761421
G1 X34.68248730964467 Y60.373350253807104 F400
G1 X34.682741116751274 Y35.7741116751269 F400
G3 X34.80456852791878 Y35.15736040609137 I1.6116751269035534 J0
G3 X35.15482233502538 Y34.63197969543147 I1.4898477157360408 J0.616751269035533
G3 X35.67766497461929 Y34.28426395939086 I1.1395939086294418 J1.1395939086294418
G3 X36.29441624365482 Y34.15989847715736 I0.616751269035533 J1.4898477157360408
G1 X43.89593908629442 Y34.15989847715736
G3 X44.51269035532995 Y34.28426395939086 I0 J1.6116751269035534
G3 X45.035532994923855 Y34.63197969543147 I-0.616751269035533 J1.4898477157360408
G3 X45.38578680203046 Y35.15736040609137 I-1.1395939086294418 J1.1395939086294418
G3 X45.507614213197975 Y35.7741116751269 I-1.4898477157360408 J0.616751269035533
G1 X45.507614213197975 Y60.373096446700515
G3 X45.38578680203046 Y60.98984771573604 I-1.6116751269035534 J0
G3 X45.035532994923855 Y61.51269035532995 I-1.4898477157360408 J-0.616751269035533
G3 X44.51269035532995 Y61.86294416243655 I-1.1395939086294418 J-1.1395939086294418
G3 X43.89593908629442 Y61.984771573604064 I-0.616751269035533 J-1.4898477157360408
G1 X36.29441624365482 Y61.984771573604064
