(Generated by PartKam Version 0.05)

G21 G90 G40

(pocket 2)
G0 Z1
T0 M6
G17
M3
G0 X39.53604060913705 Y56.98274111675127
G1 Z-0.07487309644670051 F200
G1 X39.535532994923855 Y39.317258883248726 F400
G1 X40.2005076142132 Y39.317258883248726
G1 X40.2005076142132 Y56.982233502538065
G1 X39.535532994923855 Y56.982233502538065
G1 X36.99593908629441 Y59.52284263959391 F400
G1 X36.99492385786802 Y36.776649746192895 F400
G1 X42.74111675126903 Y36.776649746192895
G1 X42.74111675126903 Y59.52284263959391
G1 X36.99492385786802 Y59.52284263959391
G1 X34.456091370558376 Y60.4502538071066 F400
G1 X34.45685279187818 Y35.8502538071066 F400
G3 X34.578680203045685 Y35.233502538071065 I1.6116751269035534 J0
G3 X34.92893401015229 Y34.710659898477154 I1.4898477157360408 J0.616751269035533
G3 X35.45177664974619 Y34.36040609137056 I1.1395939086294418 J1.1395939086294418
G3 X36.068527918781726 Y34.23857868020305 I0.616751269035533 J1.4898477157360408
G1 X43.66751269035533 Y34.23857868020305
G3 X44.286802030456855 Y34.36040609137056 I0 J1.6116751269035534
G3 X44.809644670050766 Y34.710659898477154 I-0.616751269035533 J1.4898477157360408
G3 X45.15736040609137 Y35.233502538071065 I-1.1395939086294418 J1.1395939086294418
G3 X45.28172588832487 Y35.8502538071066 I-1.4898477157360408 J0.616751269035533
G1 X45.28172588832487 Y60.4492385786802
G3 X45.15736040609137 Y61.068527918781726 I-1.6116751269035534 J0
G3 X44.809644670050766 Y61.59137055837563 I-1.4898477157360408 J-0.616751269035533
G3 X44.286802030456855 Y61.93908629441624 I-1.1395939086294418 J-1.1395939086294418
G3 X43.66751269035533 Y62.06345177664975 I-0.616751269035533 J-1.4898477157360408
G1 X36.068527918781726 Y62.06345177664975
G3 X35.45177664974619 Y61.93908629441624 I0 J-1.6116751269035534
G3 X34.92893401015229 Y61.59137055837563 I0.616751269035533 J-1.4898477157360408
G3 X34.578680203045685 Y61.068527918781726 I1.1395939086294418 J-1.1395939086294418
G3 X34.45685279187818 Y60.4492385786802 I1.4898477157360408 J-0.616751269035533
G0 Z1
G0 X39.53604060913705 Y56.98274111675127
G1 Z-0.14974619289340102 F200
G1 X39.535532994923855 Y39.317258883248726 F400
G1 X40.2005076142132 Y39.317258883248726
G1 X40.2005076142132 Y56.982233502538065
G1 X39.535532994923855 Y56.982233502538065
G1 X36.99593908629441 Y59.52284263959391 F400
G1 X36.99492385786802 Y36.776649746192895 F400
G1 X42.74111675126903 Y36.776649746192895
G1 X42.74111675126903 Y59.52284263959391
G1 X36.99492385786802 Y59.52284263959391
G1 X34.456091370558376 Y60.4502538071066 F400
G1 X34.45685279187818 Y35.8502538071066 F400
G3 X34.578680203045685 Y35.233502538071065 I1.6116751269035534 J0
G3 X34.92893401015229 Y34.710659898477154 I1.4898477157360408 J0.616751269035533
G3 X35.45177664974619 Y34.36040609137056 I1.1395939086294418 J1.1395939086294418
G3 X36.068527918781726 Y34.23857868020305 I0.616751269035533 J1.4898477157360408
G1 X43.66751269035533 Y34.23857868020305
G3 X44.286802030456855 Y34.36040609137056 I0 J1.6116751269035534
G3 X44.809644670050766 Y34.710659898477154 I-0.616751269035533 J1.4898477157360408
G3 X45.15736040609137 Y35.233502538071065 I-1.1395939086294418 J1.1395939086294418
G3 X45.28172588832487 Y35.8502538071066 I-1.4898477157360408 J0.616751269035533
G1 X45.28172588832487 Y60.4492385786802
G3 X45.15736040609137 Y61.068527918781726 I-1.6116751269035534 J0
G3 X44.809644670050766 Y61.59137055837563 I-1.4898477157360408 J-0.616751269035533
G3 X44.286802030456855 Y61.93908629441624 I-1.1395939086294418 J-1.1395939086294418
G3 X43.66751269035533 Y62.06345177664975 I-0.616751269035533 J-1.4898477157360408
G1 X36.068527918781726 Y62.06345177664975
G3 X35.45177664974619 Y61.93908629441624 I0 J-1.6116751269035534
G3 X34.92893401015229 Y61.59137055837563 I0.616751269035533 J-1.4898477157360408
G3 X34.578680203045685 Y61.068527918781726 I1.1395939086294418 J-1.1395939086294418
G3 X34.45685279187818 Y60.4492385786802 I1.4898477157360408 J-0.616751269035533
G0 Z1
G0 X39.53604060913705 Y56.98274111675127
G1 Z-0.2248730964467005 F200
G1 X39.535532994923855 Y39.317258883248726 F400
G1 X40.2005076142132 Y39.317258883248726
G1 X40.2005076142132 Y56.982233502538065
G1 X39.535532994923855 Y56.982233502538065
G1 X36.99593908629441 Y59.52284263959391 F400
G1 X36.99492385786802 Y36.776649746192895 F400
G1 X42.74111675126903 Y36.776649746192895
G1 X42.74111675126903 Y59.52284263959391
G1 X36.99492385786802 Y59.52284263959391
G1 X34.456091370558376 Y60.4502538071066 F400
G1 X34.45685279187818 Y35.8502538071066 F400
G3 X34.578680203045685 Y35.233502538071065 I1.6116751269035534 J0
G3 X34.92893401015229 Y34.710659898477154 I1.4898477157360408 J0.616751269035533
G3 X35.45177664974619 Y34.36040609137056 I1.1395939086294418 J1.1395939086294418
G3 X36.068527918781726 Y34.23857868020305 I0.616751269035533 J1.4898477157360408
G1 X43.66751269035533 Y34.23857868020305
G3 X44.286802030456855 Y34.36040609137056 I0 J1.6116751269035534
G3 X44.809644670050766 Y34.710659898477154 I-0.616751269035533 J1.4898477157360408
G3 X45.15736040609137 Y35.233502538071065 I-1.1395939086294418 J1.1395939086294418
G3 X45.28172588832487 Y35.8502538071066 I-1.4898477157360408 J0.616751269035533
G1 X45.28172588832487 Y60.4492385786802
G3 X45.15736040609137 Y61.068527918781726 I-1.6116751269035534 J0
G3 X44.809644670050766 Y61.59137055837563 I-1.4898477157360408 J-0.616751269035533
G3 X44.286802030456855 Y61.93908629441624 I-1.1395939086294418 J-1.1395939086294418
G3 X43.66751269035533 Y62.06345177664975 I-0.616751269035533 J-1.4898477157360408
G1 X36.068527918781726 Y62.06345177664975
G3 X35.45177664974619 Y61.93908629441624 I0 J-1.6116751269035534
G3 X34.92893401015229 Y61.59137055837563 I0.616751269035533 J-1.4898477157360408
G3 X34.578680203045685 Y61.068527918781726 I1.1395939086294418 J-1.1395939086294418
G3 X34.45685279187818 Y60.4492385786802 I1.4898477157360408 J-0.616751269035533
G0 Z1
G0 X39.53604060913705 Y56.98274111675127
G1 Z-0.29974619289340104 F200
G1 X39.535532994923855 Y39.317258883248726 F400
G1 X40.2005076142132 Y39.317258883248726
G1 X40.2005076142132 Y56.982233502538065
G1 X39.535532994923855 Y56.982233502538065
G1 X36.99593908629441 Y59.52284263959391 F400
G1 X36.99492385786802 Y36.776649746192895 F400
G1 X42.74111675126903 Y36.776649746192895
G1 X42.74111675126903 Y59.52284263959391
G1 X36.99492385786802 Y59.52284263959391
G1 X34.456091370558376 Y60.4502538071066 F400
G1 X34.45685279187818 Y35.8502538071066 F400
G3 X34.578680203045685 Y35.233502538071065 I1.6116751269035534 J0
G3 X34.92893401015229 Y34.710659898477154 I1.4898477157360408 J0.616751269035533
G3 X35.45177664974619 Y34.36040609137056 I1.1395939086294418 J1.1395939086294418
G3 X36.068527918781726 Y34.23857868020305 I0.616751269035533 J1.4898477157360408
G1 X43.66751269035533 Y34.23857868020305
G3 X44.286802030456855 Y34.36040609137056 I0 J1.6116751269035534
G3 X44.809644670050766 Y34.710659898477154 I-0.616751269035533 J1.4898477157360408
G3 X45.15736040609137 Y35.233502538071065 I-1.1395939086294418 J1.1395939086294418
G3 X45.28172588832487 Y35.8502538071066 I-1.4898477157360408 J0.616751269035533
G1 X45.28172588832487 Y60.4492385786802
G3 X45.15736040609137 Y61.068527918781726 I-1.6116751269035534 J0
G3 X44.809644670050766 Y61.59137055837563 I-1.4898477157360408 J-0.616751269035533
G3 X44.286802030456855 Y61.93908629441624 I-1.1395939086294418 J-1.1395939086294418
G3 X43.66751269035533 Y62.06345177664975 I-0.616751269035533 J-1.4898477157360408
G1 X36.068527918781726 Y62.06345177664975
G3 X35.45177664974619 Y61.93908629441624 I0 J-1.6116751269035534
G3 X34.92893401015229 Y61.59137055837563 I0.616751269035533 J-1.4898477157360408
G3 X34.578680203045685 Y61.068527918781726 I1.1395939086294418 J-1.1395939086294418
G3 X34.45685279187818 Y60.4492385786802 I1.4898477157360408 J-0.616751269035533
G0 Z1
G0 X39.53604060913705 Y56.98274111675127
G1 Z-0.3748730964467005 F200
G1 X39.535532994923855 Y39.317258883248726 F400
G1 X40.2005076142132 Y39.317258883248726
G1 X40.2005076142132 Y56.982233502538065
G1 X39.535532994923855 Y56.982233502538065
G1 X36.99593908629441 Y59.52284263959391 F400
G1 X36.99492385786802 Y36.776649746192895 F400
G1 X42.74111675126903 Y36.776649746192895
G1 X42.74111675126903 Y59.52284263959391
G1 X36.99492385786802 Y59.52284263959391
G1 X34.456091370558376 Y60.4502538071066 F400
G1 X34.45685279187818 Y35.8502538071066 F400
G3 X34.578680203045685 Y35.233502538071065 I1.6116751269035534 J0
G3 X34.92893401015229 Y34.710659898477154 I1.4898477157360408 J0.616751269035533
G3 X35.45177664974619 Y34.36040609137056 I1.1395939086294418 J1.1395939086294418
G3 X36.068527918781726 Y34.23857868020305 I0.616751269035533 J1.4898477157360408
G1 X43.66751269035533 Y34.23857868020305
G3 X44.286802030456855 Y34.36040609137056 I0 J1.6116751269035534
G3 X44.809644670050766 Y34.710659898477154 I-0.616751269035533 J1.4898477157360408
G3 X45.15736040609137 Y35.233502538071065 I-1.1395939086294418 J1.1395939086294418
G3 X45.28172588832487 Y35.8502538071066 I-1.4898477157360408 J0.616751269035533
G1 X45.28172588832487 Y60.4492385786802
G3 X45.15736040609137 Y61.068527918781726 I-1.6116751269035534 J0
G3 X44.809644670050766 Y61.59137055837563 I-1.4898477157360408 J-0.616751269035533
G3 X44.286802030456855 Y61.93908629441624 I-1.1395939086294418 J-1.1395939086294418
G3 X43.66751269035533 Y62.06345177664975 I-0.616751269035533 J-1.4898477157360408
G1 X36.068527918781726 Y62.06345177664975
G3 X35.45177664974619 Y61.93908629441624 I0 J-1.6116751269035534
G3 X34.92893401015229 Y61.59137055837563 I0.616751269035533 J-1.4898477157360408
G3 X34.578680203045685 Y61.068527918781726 I1.1395939086294418 J-1.1395939086294418
G3 X34.45685279187818 Y60.4492385786802 I1.4898477157360408 J-0.616751269035533
G0 Z1
G0 X39.53604060913705 Y56.98274111675127
G1 Z-0.45 F200
G1 X39.535532994923855 Y39.317258883248726 F400
G1 X40.2005076142132 Y39.317258883248726
G1 X40.2005076142132 Y56.982233502538065
G1 X39.535532994923855 Y56.982233502538065
G1 X36.99593908629441 Y59.52284263959391 F400
G1 X36.99492385786802 Y36.776649746192895 F400
G1 X42.74111675126903 Y36.776649746192895
G1 X42.74111675126903 Y59.52284263959391
G1 X36.99492385786802 Y59.52284263959391
G1 X34.456091370558376 Y60.4502538071066 F400
G1 X34.45685279187818 Y35.8502538071066 F400
G3 X34.578680203045685 Y35.233502538071065 I1.6116751269035534 J0
G3 X34.92893401015229 Y34.710659898477154 I1.4898477157360408 J0.616751269035533
G3 X35.45177664974619 Y34.36040609137056 I1.1395939086294418 J1.1395939086294418
G3 X36.068527918781726 Y34.23857868020305 I0.616751269035533 J1.4898477157360408
G1 X43.66751269035533 Y34.23857868020305
G3 X44.286802030456855 Y34.36040609137056 I0 J1.6116751269035534
G3 X44.809644670050766 Y34.710659898477154 I-0.616751269035533 J1.4898477157360408
G3 X45.15736040609137 Y35.233502538071065 I-1.1395939086294418 J1.1395939086294418
G3 X45.28172588832487 Y35.8502538071066 I-1.4898477157360408 J0.616751269035533
G1 X45.28172588832487 Y60.4492385786802
G3 X45.15736040609137 Y61.068527918781726 I-1.6116751269035534 J0
G3 X44.809644670050766 Y61.59137055837563 I-1.4898477157360408 J-0.616751269035533
G3 X44.286802030456855 Y61.93908629441624 I-1.1395939086294418 J-1.1395939086294418
G3 X43.66751269035533 Y62.06345177664975 I-0.616751269035533 J-1.4898477157360408
G1 X36.068527918781726 Y62.06345177664975
G3 X35.45177664974619 Y61.93908629441624 I0 J-1.6116751269035534
G3 X34.92893401015229 Y61.59137055837563 I0.616751269035533 J-1.4898477157360408
G3 X34.578680203045685 Y61.068527918781726 I1.1395939086294418 J-1.1395939086294418
G3 X34.45685279187818 Y60.4492385786802 I1.4898477157360408 J-0.616751269035533
G0 Z1
G0 X39.53604060913705 Y56.98274111675127
G1 Z-0.5248730964467005 F200
G1 X39.535532994923855 Y39.317258883248726 F400
G1 X40.2005076142132 Y39.317258883248726
G1 X40.2005076142132 Y56.982233502538065
G1 X39.535532994923855 Y56.982233502538065
G1 X36.99593908629441 Y59.52284263959391 F400
G1 X36.99492385786802 Y36.776649746192895 F400
G1 X42.74111675126903 Y36.776649746192895
G1 X42.74111675126903 Y59.52284263959391
G1 X36.99492385786802 Y59.52284263959391
G1 X34.456091370558376 Y60.4502538071066 F400
G1 X34.45685279187818 Y35.8502538071066 F400
G3 X34.578680203045685 Y35.233502538071065 I1.6116751269035534 J0
G3 X34.92893401015229 Y34.710659898477154 I1.4898477157360408 J0.616751269035533
G3 X35.45177664974619 Y34.36040609137056 I1.1395939086294418 J1.1395939086294418
G3 X36.068527918781726 Y34.23857868020305 I0.616751269035533 J1.4898477157360408
G1 X43.66751269035533 Y34.23857868020305
G3 X44.286802030456855 Y34.36040609137056 I0 J1.6116751269035534
G3 X44.809644670050766 Y34.710659898477154 I-0.616751269035533 J1.4898477157360408
G3 X45.15736040609137 Y35.233502538071065 I-1.1395939086294418 J1.1395939086294418
G3 X45.28172588832487 Y35.8502538071066 I-1.4898477157360408 J0.616751269035533
G1 X45.28172588832487 Y60.4492385786802
G3 X45.15736040609137 Y61.068527918781726 I-1.6116751269035534 J0
G3 X44.809644670050766 Y61.59137055837563 I-1.4898477157360408 J-0.616751269035533
G3 X44.286802030456855 Y61.93908629441624 I-1.1395939086294418 J-1.1395939086294418
G3 X43.66751269035533 Y62.06345177664975 I-0.616751269035533 J-1.4898477157360408
G1 X36.068527918781726 Y62.06345177664975
G3 X35.45177664974619 Y61.93908629441624 I0 J-1.6116751269035534
G3 X34.92893401015229 Y61.59137055837563 I0.616751269035533 J-1.4898477157360408
G3 X34.578680203045685 Y61.068527918781726 I1.1395939086294418 J-1.1395939086294418
G3 X34.45685279187818 Y60.4492385786802 I1.4898477157360408 J-0.616751269035533
G0 Z1
G0 X39.53604060913705 Y56.98274111675127
G1 Z-0.599746192893401 F200
G1 X39.535532994923855 Y39.317258883248726 F400
G1 X40.2005076142132 Y39.317258883248726
G1 X40.2005076142132 Y56.982233502538065
G1 X39.535532994923855 Y56.982233502538065
G1 X36.99593908629441 Y59.52284263959391 F400
G1 X36.99492385786802 Y36.776649746192895 F400
G1 X42.74111675126903 Y36.776649746192895
G1 X42.74111675126903 Y59.52284263959391
G1 X36.99492385786802 Y59.52284263959391
G1 X34.456091370558376 Y60.4502538071066 F400
G1 X34.45685279187818 Y35.8502538071066 F400
G3 X34.578680203045685 Y35.233502538071065 I1.6116751269035534 J0
G3 X34.92893401015229 Y34.710659898477154 I1.4898477157360408 J0.616751269035533
G3 X35.45177664974619 Y34.36040609137056 I1.1395939086294418 J1.1395939086294418
G3 X36.068527918781726 Y34.23857868020305 I0.616751269035533 J1.4898477157360408
G1 X43.66751269035533 Y34.23857868020305
G3 X44.286802030456855 Y34.36040609137056 I0 J1.6116751269035534
G3 X44.809644670050766 Y34.710659898477154 I-0.616751269035533 J1.4898477157360408
G3 X45.15736040609137 Y35.233502538071065 I-1.1395939086294418 J1.1395939086294418
G3 X45.28172588832487 Y35.8502538071066 I-1.4898477157360408 J0.616751269035533
G1 X45.28172588832487 Y60.4492385786802
G3 X45.15736040609137 Y61.068527918781726 I-1.6116751269035534 J0
G3 X44.809644670050766 Y61.59137055837563 I-1.4898477157360408 J-0.616751269035533
G3 X44.286802030456855 Y61.93908629441624 I-1.1395939086294418 J-1.1395939086294418
G3 X43.66751269035533 Y62.06345177664975 I-0.616751269035533 J-1.4898477157360408
G1 X36.068527918781726 Y62.06345177664975
G3 X35.45177664974619 Y61.93908629441624 I0 J-1.6116751269035534
G3 X34.92893401015229 Y61.59137055837563 I0.616751269035533 J-1.4898477157360408
G3 X34.578680203045685 Y61.068527918781726 I1.1395939086294418 J-1.1395939086294418
G3 X34.45685279187818 Y60.4492385786802 I1.4898477157360408 J-0.616751269035533
G0 Z1
G0 X39.53604060913705 Y56.98274111675127
G1 Z-0.6746192893401015 F200
G1 X39.535532994923855 Y39.317258883248726 F400
G1 X40.2005076142132 Y39.317258883248726
G1 X40.2005076142132 Y56.982233502538065
G1 X39.535532994923855 Y56.982233502538065
G1 X36.99593908629441 Y59.52284263959391 F400
G1 X36.99492385786802 Y36.776649746192895 F400
G1 X42.74111675126903 Y36.776649746192895
G1 X42.74111675126903 Y59.52284263959391
G1 X36.99492385786802 Y59.52284263959391
G1 X34.456091370558376 Y60.4502538071066 F400
G1 X34.45685279187818 Y35.8502538071066 F400
G3 X34.578680203045685 Y35.233502538071065 I1.6116751269035534 J0
G3 X34.92893401015229 Y34.710659898477154 I1.4898477157360408 J0.616751269035533
G3 X35.45177664974619 Y34.36040609137056 I1.1395939086294418 J1.1395939086294418
G3 X36.068527918781726 Y34.23857868020305 I0.616751269035533 J1.4898477157360408
G1 X43.66751269035533 Y34.23857868020305
G3 X44.286802030456855 Y34.36040609137056 I0 J1.6116751269035534
G3 X44.809644670050766 Y34.710659898477154 I-0.616751269035533 J1.4898477157360408
G3 X45.15736040609137 Y35.233502538071065 I-1.1395939086294418 J1.1395939086294418
G3 X45.28172588832487 Y35.8502538071066 I-1.4898477157360408 J0.616751269035533
G1 X45.28172588832487 Y60.4492385786802
G3 X45.15736040609137 Y61.068527918781726 I-1.6116751269035534 J0
G3 X44.809644670050766 Y61.59137055837563 I-1.4898477157360408 J-0.616751269035533
G3 X44.286802030456855 Y61.93908629441624 I-1.1395939086294418 J-1.1395939086294418
G3 X43.66751269035533 Y62.06345177664975 I-0.616751269035533 J-1.4898477157360408
G1 X36.068527918781726 Y62.06345177664975
G3 X35.45177664974619 Y61.93908629441624 I0 J-1.6116751269035534
G3 X34.92893401015229 Y61.59137055837563 I0.616751269035533 J-1.4898477157360408
G3 X34.578680203045685 Y61.068527918781726 I1.1395939086294418 J-1.1395939086294418
G3 X34.45685279187818 Y60.4492385786802 I1.4898477157360408 J-0.616751269035533
G0 Z1
G0 X39.53604060913705 Y56.98274111675127
G1 Z-0.749492385786802 F200
G1 X39.535532994923855 Y39.317258883248726 F400
G1 X40.2005076142132 Y39.317258883248726
G1 X40.2005076142132 Y56.982233502538065
G1 X39.535532994923855 Y56.982233502538065
G1 X36.99593908629441 Y59.52284263959391 F400
G1 X36.99492385786802 Y36.776649746192895 F400
G1 X42.74111675126903 Y36.776649746192895
G1 X42.74111675126903 Y59.52284263959391
G1 X36.99492385786802 Y59.52284263959391
G1 X34.456091370558376 Y60.4502538071066 F400
G1 X34.45685279187818 Y35.8502538071066 F400
G3 X34.578680203045685 Y35.233502538071065 I1.6116751269035534 J0
G3 X34.92893401015229 Y34.710659898477154 I1.4898477157360408 J0.616751269035533
G3 X35.45177664974619 Y34.36040609137056 I1.1395939086294418 J1.1395939086294418
G3 X36.068527918781726 Y34.23857868020305 I0.616751269035533 J1.4898477157360408
G1 X43.66751269035533 Y34.23857868020305
G3 X44.286802030456855 Y34.36040609137056 I0 J1.6116751269035534
G3 X44.809644670050766 Y34.710659898477154 I-0.616751269035533 J1.4898477157360408
G3 X45.15736040609137 Y35.233502538071065 I-1.1395939086294418 J1.1395939086294418
G3 X45.28172588832487 Y35.8502538071066 I-1.4898477157360408 J0.616751269035533
G1 X45.28172588832487 Y60.4492385786802
G3 X45.15736040609137 Y61.068527918781726 I-1.6116751269035534 J0
G3 X44.809644670050766 Y61.59137055837563 I-1.4898477157360408 J-0.616751269035533
G3 X44.286802030456855 Y61.93908629441624 I-1.1395939086294418 J-1.1395939086294418
G3 X43.66751269035533 Y62.06345177664975 I-0.616751269035533 J-1.4898477157360408
G1 X36.068527918781726 Y62.06345177664975
G3 X35.45177664974619 Y61.93908629441624 I0 J-1.6116751269035534
G3 X34.92893401015229 Y61.59137055837563 I0.616751269035533 J-1.4898477157360408
G3 X34.578680203045685 Y61.068527918781726 I1.1395939086294418 J-1.1395939086294418
G3 X34.45685279187818 Y60.4492385786802 I1.4898477157360408 J-0.616751269035533
G0 Z1
G0 X39.53604060913705 Y56.98274111675127
G1 Z-0.8243654822335026 F200
G1 X39.535532994923855 Y39.317258883248726 F400
G1 X40.2005076142132 Y39.317258883248726
G1 X40.2005076142132 Y56.982233502538065
G1 X39.535532994923855 Y56.982233502538065
G1 X36.99593908629441 Y59.52284263959391 F400
G1 X36.99492385786802 Y36.776649746192895 F400
G1 X42.74111675126903 Y36.776649746192895
G1 X42.74111675126903 Y59.52284263959391
G1 X36.99492385786802 Y59.52284263959391
G1 X34.456091370558376 Y60.4502538071066 F400
G1 X34.45685279187818 Y35.8502538071066 F400
G3 X34.578680203045685 Y35.233502538071065 I1.6116751269035534 J0
G3 X34.92893401015229 Y34.710659898477154 I1.4898477157360408 J0.616751269035533
G3 X35.45177664974619 Y34.36040609137056 I1.1395939086294418 J1.1395939086294418
G3 X36.068527918781726 Y34.23857868020305 I0.616751269035533 J1.4898477157360408
G1 X43.66751269035533 Y34.23857868020305
G3 X44.286802030456855 Y34.36040609137056 I0 J1.6116751269035534
G3 X44.809644670050766 Y34.710659898477154 I-0.616751269035533 J1.4898477157360408
G3 X45.15736040609137 Y35.233502538071065 I-1.1395939086294418 J1.1395939086294418
G3 X45.28172588832487 Y35.8502538071066 I-1.4898477157360408 J0.616751269035533
G1 X45.28172588832487 Y60.4492385786802
G3 X45.15736040609137 Y61.068527918781726 I-1.6116751269035534 J0
G3 X44.809644670050766 Y61.59137055837563 I-1.4898477157360408 J-0.616751269035533
G3 X44.286802030456855 Y61.93908629441624 I-1.1395939086294418 J-1.1395939086294418
G3 X43.66751269035533 Y62.06345177664975 I-0.616751269035533 J-1.4898477157360408
G1 X36.068527918781726 Y62.06345177664975
G3 X35.45177664974619 Y61.93908629441624 I0 J-1.6116751269035534
G3 X34.92893401015229 Y61.59137055837563 I0.616751269035533 J-1.4898477157360408
G3 X34.578680203045685 Y61.068527918781726 I1.1395939086294418 J-1.1395939086294418
G3 X34.45685279187818 Y60.4492385786802 I1.4898477157360408 J-0.616751269035533
G0 Z1
G0 X39.53604060913705 Y56.98274111675127
G1 Z-0.8992385786802031 F200
G1 X39.535532994923855 Y39.317258883248726 F400
G1 X40.2005076142132 Y39.317258883248726
G1 X40.2005076142132 Y56.982233502538065
G1 X39.535532994923855 Y56.982233502538065
G1 X36.99593908629441 Y59.52284263959391 F400
G1 X36.99492385786802 Y36.776649746192895 F400
G1 X42.74111675126903 Y36.776649746192895
G1 X42.74111675126903 Y59.52284263959391
G1 X36.99492385786802 Y59.52284263959391
G1 X34.456091370558376 Y60.4502538071066 F400
G1 X34.45685279187818 Y35.8502538071066 F400
G3 X34.578680203045685 Y35.233502538071065 I1.6116751269035534 J0
G3 X34.92893401015229 Y34.710659898477154 I1.4898477157360408 J0.616751269035533
G3 X35.45177664974619 Y34.36040609137056 I1.1395939086294418 J1.1395939086294418
G3 X36.068527918781726 Y34.23857868020305 I0.616751269035533 J1.4898477157360408
G1 X43.66751269035533 Y34.23857868020305
G3 X44.286802030456855 Y34.36040609137056 I0 J1.6116751269035534
G3 X44.809644670050766 Y34.710659898477154 I-0.616751269035533 J1.4898477157360408
G3 X45.15736040609137 Y35.233502538071065 I-1.1395939086294418 J1.1395939086294418
G3 X45.28172588832487 Y35.8502538071066 I-1.4898477157360408 J0.616751269035533
G1 X45.28172588832487 Y60.4492385786802
G3 X45.15736040609137 Y61.068527918781726 I-1.6116751269035534 J0
G3 X44.809644670050766 Y61.59137055837563 I-1.4898477157360408 J-0.616751269035533
G3 X44.286802030456855 Y61.93908629441624 I-1.1395939086294418 J-1.1395939086294418
G3 X43.66751269035533 Y62.06345177664975 I-0.616751269035533 J-1.4898477157360408
G1 X36.068527918781726 Y62.06345177664975
G3 X35.45177664974619 Y61.93908629441624 I0 J-1.6116751269035534
G3 X34.92893401015229 Y61.59137055837563 I0.616751269035533 J-1.4898477157360408
G3 X34.578680203045685 Y61.068527918781726 I1.1395939086294418 J-1.1395939086294418
G3 X34.45685279187818 Y60.4492385786802 I1.4898477157360408 J-0.616751269035533
G0 Z1
G0 X39.53604060913705 Y56.98274111675127
G1 Z-0.9741116751269036 F200
G1 X39.535532994923855 Y39.317258883248726 F400
G1 X40.2005076142132 Y39.317258883248726
G1 X40.2005076142132 Y56.982233502538065
G1 X39.535532994923855 Y56.982233502538065
G1 X36.99593908629441 Y59.52284263959391 F400
G1 X36.99492385786802 Y36.776649746192895 F400
G1 X42.74111675126903 Y36.776649746192895
G1 X42.74111675126903 Y59.52284263959391
G1 X36.99492385786802 Y59.52284263959391
G1 X34.456091370558376 Y60.4502538071066 F400
G1 X34.45685279187818 Y35.8502538071066 F400
G3 X34.578680203045685 Y35.233502538071065 I1.6116751269035534 J0
G3 X34.92893401015229 Y34.710659898477154 I1.4898477157360408 J0.616751269035533
G3 X35.45177664974619 Y34.36040609137056 I1.1395939086294418 J1.1395939086294418
G3 X36.068527918781726 Y34.23857868020305 I0.616751269035533 J1.4898477157360408
G1 X43.66751269035533 Y34.23857868020305
G3 X44.286802030456855 Y34.36040609137056 I0 J1.6116751269035534
G3 X44.809644670050766 Y34.710659898477154 I-0.616751269035533 J1.4898477157360408
G3 X45.15736040609137 Y35.233502538071065 I-1.1395939086294418 J1.1395939086294418
G3 X45.28172588832487 Y35.8502538071066 I-1.4898477157360408 J0.616751269035533
G1 X45.28172588832487 Y60.4492385786802
G3 X45.15736040609137 Y61.068527918781726 I-1.6116751269035534 J0
G3 X44.809644670050766 Y61.59137055837563 I-1.4898477157360408 J-0.616751269035533
G3 X44.286802030456855 Y61.93908629441624 I-1.1395939086294418 J-1.1395939086294418
G3 X43.66751269035533 Y62.06345177664975 I-0.616751269035533 J-1.4898477157360408
G1 X36.068527918781726 Y62.06345177664975
G3 X35.45177664974619 Y61.93908629441624 I0 J-1.6116751269035534
G3 X34.92893401015229 Y61.59137055837563 I0.616751269035533 J-1.4898477157360408
G3 X34.578680203045685 Y61.068527918781726 I1.1395939086294418 J-1.1395939086294418
G3 X34.45685279187818 Y60.4492385786802 I1.4898477157360408 J-0.616751269035533
G0 Z1
G0 X39.53604060913705 Y56.98274111675127
G1 Z-1.048984771573604 F200
G1 X39.535532994923855 Y39.317258883248726 F400
G1 X40.2005076142132 Y39.317258883248726
G1 X40.2005076142132 Y56.982233502538065
G1 X39.535532994923855 Y56.982233502538065
G1 X36.99593908629441 Y59.52284263959391 F400
G1 X36.99492385786802 Y36.776649746192895 F400
G1 X42.74111675126903 Y36.776649746192895
G1 X42.74111675126903 Y59.52284263959391
G1 X36.99492385786802 Y59.52284263959391
G1 X34.456091370558376 Y60.4502538071066 F400
G1 X34.45685279187818 Y35.8502538071066 F400
G3 X34.578680203045685 Y35.233502538071065 I1.6116751269035534 J0
G3 X34.92893401015229 Y34.710659898477154 I1.4898477157360408 J0.616751269035533
G3 X35.45177664974619 Y34.36040609137056 I1.1395939086294418 J1.1395939086294418
G3 X36.068527918781726 Y34.23857868020305 I0.616751269035533 J1.4898477157360408
G1 X43.66751269035533 Y34.23857868020305
G3 X44.286802030456855 Y34.36040609137056 I0 J1.6116751269035534
G3 X44.809644670050766 Y34.710659898477154 I-0.616751269035533 J1.4898477157360408
G3 X45.15736040609137 Y35.233502538071065 I-1.1395939086294418 J1.1395939086294418
G3 X45.28172588832487 Y35.8502538071066 I-1.4898477157360408 J0.616751269035533
G1 X45.28172588832487 Y60.4492385786802
G3 X45.15736040609137 Y61.068527918781726 I-1.6116751269035534 J0
G3 X44.809644670050766 Y61.59137055837563 I-1.4898477157360408 J-0.616751269035533
G3 X44.286802030456855 Y61.93908629441624 I-1.1395939086294418 J-1.1395939086294418
G3 X43.66751269035533 Y62.06345177664975 I-0.616751269035533 J-1.4898477157360408
G1 X36.068527918781726 Y62.06345177664975
G3 X35.45177664974619 Y61.93908629441624 I0 J-1.6116751269035534
G3 X34.92893401015229 Y61.59137055837563 I0.616751269035533 J-1.4898477157360408
G3 X34.578680203045685 Y61.068527918781726 I1.1395939086294418 J-1.1395939086294418
G3 X34.45685279187818 Y60.4492385786802 I1.4898477157360408 J-0.616751269035533
G0 Z1
G0 X39.53604060913705 Y56.98274111675127
G1 Z-1.1238578680203046 F200
G1 X39.535532994923855 Y39.317258883248726 F400
G1 X40.2005076142132 Y39.317258883248726
G1 X40.2005076142132 Y56.982233502538065
G1 X39.535532994923855 Y56.982233502538065
G1 X36.99593908629441 Y59.52284263959391 F400
G1 X36.99492385786802 Y36.776649746192895 F400
G1 X42.74111675126903 Y36.776649746192895
G1 X42.74111675126903 Y59.52284263959391
G1 X36.99492385786802 Y59.52284263959391
G1 X34.456091370558376 Y60.4502538071066 F400
G1 X34.45685279187818 Y35.8502538071066 F400
G3 X34.578680203045685 Y35.233502538071065 I1.6116751269035534 J0
G3 X34.92893401015229 Y34.710659898477154 I1.4898477157360408 J0.616751269035533
G3 X35.45177664974619 Y34.36040609137056 I1.1395939086294418 J1.1395939086294418
G3 X36.068527918781726 Y34.23857868020305 I0.616751269035533 J1.4898477157360408
G1 X43.66751269035533 Y34.23857868020305
G3 X44.286802030456855 Y34.36040609137056 I0 J1.6116751269035534
G3 X44.809644670050766 Y34.710659898477154 I-0.616751269035533 J1.4898477157360408
G3 X45.15736040609137 Y35.233502538071065 I-1.1395939086294418 J1.1395939086294418
G3 X45.28172588832487 Y35.8502538071066 I-1.4898477157360408 J0.616751269035533
G1 X45.28172588832487 Y60.4492385786802
G3 X45.15736040609137 Y61.068527918781726 I-1.6116751269035534 J0
G3 X44.809644670050766 Y61.59137055837563 I-1.4898477157360408 J-0.616751269035533
G3 X44.286802030456855 Y61.93908629441624 I-1.1395939086294418 J-1.1395939086294418
G3 X43.66751269035533 Y62.06345177664975 I-0.616751269035533 J-1.4898477157360408
G1 X36.068527918781726 Y62.06345177664975
G3 X35.45177664974619 Y61.93908629441624 I0 J-1.6116751269035534
G3 X34.92893401015229 Y61.59137055837563 I0.616751269035533 J-1.4898477157360408
G3 X34.578680203045685 Y61.068527918781726 I1.1395939086294418 J-1.1395939086294418
G3 X34.45685279187818 Y60.4492385786802 I1.4898477157360408 J-0.616751269035533
G0 Z1
G0 X39.53604060913705 Y56.98274111675127
G1 Z-1.198730964467005 F200
G1 X39.535532994923855 Y39.317258883248726 F400
G1 X40.2005076142132 Y39.317258883248726
G1 X40.2005076142132 Y56.982233502538065
G1 X39.535532994923855 Y56.982233502538065
G1 X36.99593908629441 Y59.52284263959391 F400
G1 X36.99492385786802 Y36.776649746192895 F400
G1 X42.74111675126903 Y36.776649746192895
G1 X42.74111675126903 Y59.52284263959391
G1 X36.99492385786802 Y59.52284263959391
G1 X34.456091370558376 Y60.4502538071066 F400
G1 X34.45685279187818 Y35.8502538071066 F400
G3 X34.578680203045685 Y35.233502538071065 I1.6116751269035534 J0
G3 X34.92893401015229 Y34.710659898477154 I1.4898477157360408 J0.616751269035533
G3 X35.45177664974619 Y34.36040609137056 I1.1395939086294418 J1.1395939086294418
G3 X36.068527918781726 Y34.23857868020305 I0.616751269035533 J1.4898477157360408
G1 X43.66751269035533 Y34.23857868020305
G3 X44.286802030456855 Y34.36040609137056 I0 J1.6116751269035534
G3 X44.809644670050766 Y34.710659898477154 I-0.616751269035533 J1.4898477157360408
G3 X45.15736040609137 Y35.233502538071065 I-1.1395939086294418 J1.1395939086294418
G3 X45.28172588832487 Y35.8502538071066 I-1.4898477157360408 J0.616751269035533
G1 X45.28172588832487 Y60.4492385786802
G3 X45.15736040609137 Y61.068527918781726 I-1.6116751269035534 J0
G3 X44.809644670050766 Y61.59137055837563 I-1.4898477157360408 J-0.616751269035533
G3 X44.286802030456855 Y61.93908629441624 I-1.1395939086294418 J-1.1395939086294418
G3 X43.66751269035533 Y62.06345177664975 I-0.616751269035533 J-1.4898477157360408
G1 X36.068527918781726 Y62.06345177664975
G3 X35.45177664974619 Y61.93908629441624 I0 J-1.6116751269035534
G3 X34.92893401015229 Y61.59137055837563 I0.616751269035533 J-1.4898477157360408
G3 X34.578680203045685 Y61.068527918781726 I1.1395939086294418 J-1.1395939086294418
G3 X34.45685279187818 Y60.4492385786802 I1.4898477157360408 J-0.616751269035533
G0 Z1
G0 X39.53604060913705 Y56.98274111675127
G1 Z-1.2736040609137056 F200
G1 X39.535532994923855 Y39.317258883248726 F400
G1 X40.2005076142132 Y39.317258883248726
G1 X40.2005076142132 Y56.982233502538065
G1 X39.535532994923855 Y56.982233502538065
G1 X36.99593908629441 Y59.52284263959391 F400
G1 X36.99492385786802 Y36.776649746192895 F400
G1 X42.74111675126903 Y36.776649746192895
G1 X42.74111675126903 Y59.52284263959391
G1 X36.99492385786802 Y59.52284263959391
G1 X34.456091370558376 Y60.4502538071066 F400
G1 X34.45685279187818 Y35.8502538071066 F400
G3 X34.578680203045685 Y35.233502538071065 I1.6116751269035534 J0
G3 X34.92893401015229 Y34.710659898477154 I1.4898477157360408 J0.616751269035533
G3 X35.45177664974619 Y34.36040609137056 I1.1395939086294418 J1.1395939086294418
G3 X36.068527918781726 Y34.23857868020305 I0.616751269035533 J1.4898477157360408
G1 X43.66751269035533 Y34.23857868020305
G3 X44.286802030456855 Y34.36040609137056 I0 J1.6116751269035534
G3 X44.809644670050766 Y34.710659898477154 I-0.616751269035533 J1.4898477157360408
G3 X45.15736040609137 Y35.233502538071065 I-1.1395939086294418 J1.1395939086294418
G3 X45.28172588832487 Y35.8502538071066 I-1.4898477157360408 J0.616751269035533
G1 X45.28172588832487 Y60.4492385786802
G3 X45.15736040609137 Y61.068527918781726 I-1.6116751269035534 J0
G3 X44.809644670050766 Y61.59137055837563 I-1.4898477157360408 J-0.616751269035533
G3 X44.286802030456855 Y61.93908629441624 I-1.1395939086294418 J-1.1395939086294418
G3 X43.66751269035533 Y62.06345177664975 I-0.616751269035533 J-1.4898477157360408
G1 X36.068527918781726 Y62.06345177664975
G3 X35.45177664974619 Y61.93908629441624 I0 J-1.6116751269035534
G3 X34.92893401015229 Y61.59137055837563 I0.616751269035533 J-1.4898477157360408
G3 X34.578680203045685 Y61.068527918781726 I1.1395939086294418 J-1.1395939086294418
G3 X34.45685279187818 Y60.4492385786802 I1.4898477157360408 J-0.616751269035533
G0 Z1
G0 X39.53604060913705 Y56.98274111675127
G1 Z-1.3484771573604062 F200
G1 X39.535532994923855 Y39.317258883248726 F400
G1 X40.2005076142132 Y39.317258883248726
G1 X40.2005076142132 Y56.982233502538065
G1 X39.535532994923855 Y56.982233502538065
G1 X36.99593908629441 Y59.52284263959391 F400
G1 X36.99492385786802 Y36.776649746192895 F400
G1 X42.74111675126903 Y36.776649746192895
G1 X42.74111675126903 Y59.52284263959391
G1 X36.99492385786802 Y59.52284263959391
G1 X34.456091370558376 Y60.4502538071066 F400
G1 X34.45685279187818 Y35.8502538071066 F400
G3 X34.578680203045685 Y35.233502538071065 I1.6116751269035534 J0
G3 X34.92893401015229 Y34.710659898477154 I1.4898477157360408 J0.616751269035533
G3 X35.45177664974619 Y34.36040609137056 I1.1395939086294418 J1.1395939086294418
G3 X36.068527918781726 Y34.23857868020305 I0.616751269035533 J1.4898477157360408
G1 X43.66751269035533 Y34.23857868020305
G3 X44.286802030456855 Y34.36040609137056 I0 J1.6116751269035534
G3 X44.809644670050766 Y34.710659898477154 I-0.616751269035533 J1.4898477157360408
G3 X45.15736040609137 Y35.233502538071065 I-1.1395939086294418 J1.1395939086294418
G3 X45.28172588832487 Y35.8502538071066 I-1.4898477157360408 J0.616751269035533
G1 X45.28172588832487 Y60.4492385786802
G3 X45.15736040609137 Y61.068527918781726 I-1.6116751269035534 J0
G3 X44.809644670050766 Y61.59137055837563 I-1.4898477157360408 J-0.616751269035533
G3 X44.286802030456855 Y61.93908629441624 I-1.1395939086294418 J-1.1395939086294418
G3 X43.66751269035533 Y62.06345177664975 I-0.616751269035533 J-1.4898477157360408
G1 X36.068527918781726 Y62.06345177664975
G3 X35.45177664974619 Y61.93908629441624 I0 J-1.6116751269035534
G3 X34.92893401015229 Y61.59137055837563 I0.616751269035533 J-1.4898477157360408
G3 X34.578680203045685 Y61.068527918781726 I1.1395939086294418 J-1.1395939086294418
G3 X34.45685279187818 Y60.4492385786802 I1.4898477157360408 J-0.616751269035533
G0 Z1
G0 X39.53604060913705 Y56.98274111675127
G1 Z-1.4233502538071066 F200
G1 X39.535532994923855 Y39.317258883248726 F400
G1 X40.2005076142132 Y39.317258883248726
G1 X40.2005076142132 Y56.982233502538065
G1 X39.535532994923855 Y56.982233502538065
G1 X36.99593908629441 Y59.52284263959391 F400
G1 X36.99492385786802 Y36.776649746192895 F400
G1 X42.74111675126903 Y36.776649746192895
G1 X42.74111675126903 Y59.52284263959391
G1 X36.99492385786802 Y59.52284263959391
G1 X34.456091370558376 Y60.4502538071066 F400
G1 X34.45685279187818 Y35.8502538071066 F400
G3 X34.578680203045685 Y35.233502538071065 I1.6116751269035534 J0
G3 X34.92893401015229 Y34.710659898477154 I1.4898477157360408 J0.616751269035533
G3 X35.45177664974619 Y34.36040609137056 I1.1395939086294418 J1.1395939086294418
G3 X36.068527918781726 Y34.23857868020305 I0.616751269035533 J1.4898477157360408
G1 X43.66751269035533 Y34.23857868020305
G3 X44.286802030456855 Y34.36040609137056 I0 J1.6116751269035534
G3 X44.809644670050766 Y34.710659898477154 I-0.616751269035533 J1.4898477157360408
G3 X45.15736040609137 Y35.233502538071065 I-1.1395939086294418 J1.1395939086294418
G3 X45.28172588832487 Y35.8502538071066 I-1.4898477157360408 J0.616751269035533
G1 X45.28172588832487 Y60.4492385786802
G3 X45.15736040609137 Y61.068527918781726 I-1.6116751269035534 J0
G3 X44.809644670050766 Y61.59137055837563 I-1.4898477157360408 J-0.616751269035533
G3 X44.286802030456855 Y61.93908629441624 I-1.1395939086294418 J-1.1395939086294418
G3 X43.66751269035533 Y62.06345177664975 I-0.616751269035533 J-1.4898477157360408
G1 X36.068527918781726 Y62.06345177664975
G3 X35.45177664974619 Y61.93908629441624 I0 J-1.6116751269035534
G3 X34.92893401015229 Y61.59137055837563 I0.616751269035533 J-1.4898477157360408
G3 X34.578680203045685 Y61.068527918781726 I1.1395939086294418 J-1.1395939086294418
G3 X34.45685279187818 Y60.4492385786802 I1.4898477157360408 J-0.616751269035533
G0 Z1
G0 X39.53604060913705 Y56.98274111675127
G1 Z-1.4982233502538072 F200
G1 X39.535532994923855 Y39.317258883248726 F400
G1 X40.2005076142132 Y39.317258883248726
G1 X40.2005076142132 Y56.982233502538065
G1 X39.535532994923855 Y56.982233502538065
G1 X36.99593908629441 Y59.52284263959391 F400
G1 X36.99492385786802 Y36.776649746192895 F400
G1 X42.74111675126903 Y36.776649746192895
G1 X42.74111675126903 Y59.52284263959391
G1 X36.99492385786802 Y59.52284263959391
G1 X34.456091370558376 Y60.4502538071066 F400
G1 X34.45685279187818 Y35.8502538071066 F400
G3 X34.578680203045685 Y35.233502538071065 I1.6116751269035534 J0
G3 X34.92893401015229 Y34.710659898477154 I1.4898477157360408 J0.616751269035533
G3 X35.45177664974619 Y34.36040609137056 I1.1395939086294418 J1.1395939086294418
G3 X36.068527918781726 Y34.23857868020305 I0.616751269035533 J1.4898477157360408
G1 X43.66751269035533 Y34.23857868020305
G3 X44.286802030456855 Y34.36040609137056 I0 J1.6116751269035534
G3 X44.809644670050766 Y34.710659898477154 I-0.616751269035533 J1.4898477157360408
G3 X45.15736040609137 Y35.233502538071065 I-1.1395939086294418 J1.1395939086294418
G3 X45.28172588832487 Y35.8502538071066 I-1.4898477157360408 J0.616751269035533
G1 X45.28172588832487 Y60.4492385786802
G3 X45.15736040609137 Y61.068527918781726 I-1.6116751269035534 J0
G3 X44.809644670050766 Y61.59137055837563 I-1.4898477157360408 J-0.616751269035533
G3 X44.286802030456855 Y61.93908629441624 I-1.1395939086294418 J-1.1395939086294418
G3 X43.66751269035533 Y62.06345177664975 I-0.616751269035533 J-1.4898477157360408
G1 X36.068527918781726 Y62.06345177664975
G3 X35.45177664974619 Y61.93908629441624 I0 J-1.6116751269035534
G3 X34.92893401015229 Y61.59137055837563 I0.616751269035533 J-1.4898477157360408
G3 X34.578680203045685 Y61.068527918781726 I1.1395939086294418 J-1.1395939086294418
G3 X34.45685279187818 Y60.4492385786802 I1.4898477157360408 J-0.616751269035533
G0 Z1
G0 X39.53604060913705 Y56.98274111675127
G1 Z-1.5730964467005075 F200
G1 X39.535532994923855 Y39.317258883248726 F400
G1 X40.2005076142132 Y39.317258883248726
G1 X40.2005076142132 Y56.982233502538065
G1 X39.535532994923855 Y56.982233502538065
G1 X36.99593908629441 Y59.52284263959391 F400
G1 X36.99492385786802 Y36.776649746192895 F400
G1 X42.74111675126903 Y36.776649746192895
G1 X42.74111675126903 Y59.52284263959391
G1 X36.99492385786802 Y59.52284263959391
G1 X34.456091370558376 Y60.4502538071066 F400
G1 X34.45685279187818 Y35.8502538071066 F400
G3 X34.578680203045685 Y35.233502538071065 I1.6116751269035534 J0
G3 X34.92893401015229 Y34.710659898477154 I1.4898477157360408 J0.616751269035533
G3 X35.45177664974619 Y34.36040609137056 I1.1395939086294418 J1.1395939086294418
G3 X36.068527918781726 Y34.23857868020305 I0.616751269035533 J1.4898477157360408
G1 X43.66751269035533 Y34.23857868020305
G3 X44.286802030456855 Y34.36040609137056 I0 J1.6116751269035534
G3 X44.809644670050766 Y34.710659898477154 I-0.616751269035533 J1.4898477157360408
G3 X45.15736040609137 Y35.233502538071065 I-1.1395939086294418 J1.1395939086294418
G3 X45.28172588832487 Y35.8502538071066 I-1.4898477157360408 J0.616751269035533
G1 X45.28172588832487 Y60.4492385786802
G3 X45.15736040609137 Y61.068527918781726 I-1.6116751269035534 J0
G3 X44.809644670050766 Y61.59137055837563 I-1.4898477157360408 J-0.616751269035533
G3 X44.286802030456855 Y61.93908629441624 I-1.1395939086294418 J-1.1395939086294418
G3 X43.66751269035533 Y62.06345177664975 I-0.616751269035533 J-1.4898477157360408
G1 X36.068527918781726 Y62.06345177664975
G3 X35.45177664974619 Y61.93908629441624 I0 J-1.6116751269035534
G3 X34.92893401015229 Y61.59137055837563 I0.616751269035533 J-1.4898477157360408
G3 X34.578680203045685 Y61.068527918781726 I1.1395939086294418 J-1.1395939086294418
G3 X34.45685279187818 Y60.4492385786802 I1.4898477157360408 J-0.616751269035533
G0 Z1
G0 X39.53604060913705 Y56.98274111675127
G1 Z-1.6479695431472081 F200
G1 X39.535532994923855 Y39.317258883248726 F400
G1 X40.2005076142132 Y39.317258883248726
G1 X40.2005076142132 Y56.982233502538065
G1 X39.535532994923855 Y56.982233502538065
G1 X36.99593908629441 Y59.52284263959391 F400
G1 X36.99492385786802 Y36.776649746192895 F400
G1 X42.74111675126903 Y36.776649746192895
G1 X42.74111675126903 Y59.52284263959391
G1 X36.99492385786802 Y59.52284263959391
G1 X34.456091370558376 Y60.4502538071066 F400
G1 X34.45685279187818 Y35.8502538071066 F400
G3 X34.578680203045685 Y35.233502538071065 I1.6116751269035534 J0
G3 X34.92893401015229 Y34.710659898477154 I1.4898477157360408 J0.616751269035533
G3 X35.45177664974619 Y34.36040609137056 I1.1395939086294418 J1.1395939086294418
G3 X36.068527918781726 Y34.23857868020305 I0.616751269035533 J1.4898477157360408
G1 X43.66751269035533 Y34.23857868020305
G3 X44.286802030456855 Y34.36040609137056 I0 J1.6116751269035534
G3 X44.809644670050766 Y34.710659898477154 I-0.616751269035533 J1.4898477157360408
G3 X45.15736040609137 Y35.233502538071065 I-1.1395939086294418 J1.1395939086294418
G3 X45.28172588832487 Y35.8502538071066 I-1.4898477157360408 J0.616751269035533
G1 X45.28172588832487 Y60.4492385786802
G3 X45.15736040609137 Y61.068527918781726 I-1.6116751269035534 J0
G3 X44.809644670050766 Y61.59137055837563 I-1.4898477157360408 J-0.616751269035533
G3 X44.286802030456855 Y61.93908629441624 I-1.1395939086294418 J-1.1395939086294418
G3 X43.66751269035533 Y62.06345177664975 I-0.616751269035533 J-1.4898477157360408
G1 X36.068527918781726 Y62.06345177664975
G3 X35.45177664974619 Y61.93908629441624 I0 J-1.6116751269035534
G3 X34.92893401015229 Y61.59137055837563 I0.616751269035533 J-1.4898477157360408
G3 X34.578680203045685 Y61.068527918781726 I1.1395939086294418 J-1.1395939086294418
G3 X34.45685279187818 Y60.4492385786802 I1.4898477157360408 J-0.616751269035533
G0 Z1
G0 X39.53604060913705 Y56.98274111675127
G1 Z-1.7228426395939087 F200
G1 X39.535532994923855 Y39.317258883248726 F400
G1 X40.2005076142132 Y39.317258883248726
G1 X40.2005076142132 Y56.982233502538065
G1 X39.535532994923855 Y56.982233502538065
G1 X36.99593908629441 Y59.52284263959391 F400
G1 X36.99492385786802 Y36.776649746192895 F400
G1 X42.74111675126903 Y36.776649746192895
G1 X42.74111675126903 Y59.52284263959391
G1 X36.99492385786802 Y59.52284263959391
G1 X34.456091370558376 Y60.4502538071066 F400
G1 X34.45685279187818 Y35.8502538071066 F400
G3 X34.578680203045685 Y35.233502538071065 I1.6116751269035534 J0
G3 X34.92893401015229 Y34.710659898477154 I1.4898477157360408 J0.616751269035533
G3 X35.45177664974619 Y34.36040609137056 I1.1395939086294418 J1.1395939086294418
G3 X36.068527918781726 Y34.23857868020305 I0.616751269035533 J1.4898477157360408
G1 X43.66751269035533 Y34.23857868020305
G3 X44.286802030456855 Y34.36040609137056 I0 J1.6116751269035534
G3 X44.809644670050766 Y34.710659898477154 I-0.616751269035533 J1.4898477157360408
G3 X45.15736040609137 Y35.233502538071065 I-1.1395939086294418 J1.1395939086294418
G3 X45.28172588832487 Y35.8502538071066 I-1.4898477157360408 J0.616751269035533
G1 X45.28172588832487 Y60.4492385786802
G3 X45.15736040609137 Y61.068527918781726 I-1.6116751269035534 J0
G3 X44.809644670050766 Y61.59137055837563 I-1.4898477157360408 J-0.616751269035533
G3 X44.286802030456855 Y61.93908629441624 I-1.1395939086294418 J-1.1395939086294418
G3 X43.66751269035533 Y62.06345177664975 I-0.616751269035533 J-1.4898477157360408
G1 X36.068527918781726 Y62.06345177664975
G3 X35.45177664974619 Y61.93908629441624 I0 J-1.6116751269035534
G3 X34.92893401015229 Y61.59137055837563 I0.616751269035533 J-1.4898477157360408
G3 X34.578680203045685 Y61.068527918781726 I1.1395939086294418 J-1.1395939086294418
G3 X34.45685279187818 Y60.4492385786802 I1.4898477157360408 J-0.616751269035533
G0 Z1
G0 X39.53604060913705 Y56.98274111675127
G1 Z-1.797715736040609 F200
G1 X39.535532994923855 Y39.317258883248726 F400
G1 X40.2005076142132 Y39.317258883248726
G1 X40.2005076142132 Y56.982233502538065
G1 X39.535532994923855 Y56.982233502538065
G1 X36.99593908629441 Y59.52284263959391 F400
G1 X36.99492385786802 Y36.776649746192895 F400
G1 X42.74111675126903 Y36.776649746192895
G1 X42.74111675126903 Y59.52284263959391
G1 X36.99492385786802 Y59.52284263959391
G1 X34.456091370558376 Y60.4502538071066 F400
G1 X34.45685279187818 Y35.8502538071066 F400
G3 X34.578680203045685 Y35.233502538071065 I1.6116751269035534 J0
G3 X34.92893401015229 Y34.710659898477154 I1.4898477157360408 J0.616751269035533
G3 X35.45177664974619 Y34.36040609137056 I1.1395939086294418 J1.1395939086294418
G3 X36.068527918781726 Y34.23857868020305 I0.616751269035533 J1.4898477157360408
G1 X43.66751269035533 Y34.23857868020305
G3 X44.286802030456855 Y34.36040609137056 I0 J1.6116751269035534
G3 X44.809644670050766 Y34.710659898477154 I-0.616751269035533 J1.4898477157360408
G3 X45.15736040609137 Y35.233502538071065 I-1.1395939086294418 J1.1395939086294418
G3 X45.28172588832487 Y35.8502538071066 I-1.4898477157360408 J0.616751269035533
G1 X45.28172588832487 Y60.4492385786802
G3 X45.15736040609137 Y61.068527918781726 I-1.6116751269035534 J0
G3 X44.809644670050766 Y61.59137055837563 I-1.4898477157360408 J-0.616751269035533
G3 X44.286802030456855 Y61.93908629441624 I-1.1395939086294418 J-1.1395939086294418
G3 X43.66751269035533 Y62.06345177664975 I-0.616751269035533 J-1.4898477157360408
G1 X36.068527918781726 Y62.06345177664975
G3 X35.45177664974619 Y61.93908629441624 I0 J-1.6116751269035534
G3 X34.92893401015229 Y61.59137055837563 I0.616751269035533 J-1.4898477157360408
G3 X34.578680203045685 Y61.068527918781726 I1.1395939086294418 J-1.1395939086294418
G3 X34.45685279187818 Y60.4492385786802 I1.4898477157360408 J-0.616751269035533
G0 Z1
G0 X39.53604060913705 Y56.98274111675127
G1 Z-1.8725888324873097 F200
G1 X39.535532994923855 Y39.317258883248726 F400
G1 X40.2005076142132 Y39.317258883248726
G1 X40.2005076142132 Y56.982233502538065
G1 X39.535532994923855 Y56.982233502538065
G1 X36.99593908629441 Y59.52284263959391 F400
G1 X36.99492385786802 Y36.776649746192895 F400
G1 X42.74111675126903 Y36.776649746192895
G1 X42.74111675126903 Y59.52284263959391
G1 X36.99492385786802 Y59.52284263959391
G1 X34.456091370558376 Y60.4502538071066 F400
G1 X34.45685279187818 Y35.8502538071066 F400
G3 X34.578680203045685 Y35.233502538071065 I1.6116751269035534 J0
G3 X34.92893401015229 Y34.710659898477154 I1.4898477157360408 J0.616751269035533
G3 X35.45177664974619 Y34.36040609137056 I1.1395939086294418 J1.1395939086294418
G3 X36.068527918781726 Y34.23857868020305 I0.616751269035533 J1.4898477157360408
G1 X43.66751269035533 Y34.23857868020305
G3 X44.286802030456855 Y34.36040609137056 I0 J1.6116751269035534
G3 X44.809644670050766 Y34.710659898477154 I-0.616751269035533 J1.4898477157360408
G3 X45.15736040609137 Y35.233502538071065 I-1.1395939086294418 J1.1395939086294418
G3 X45.28172588832487 Y35.8502538071066 I-1.4898477157360408 J0.616751269035533
G1 X45.28172588832487 Y60.4492385786802
G3 X45.15736040609137 Y61.068527918781726 I-1.6116751269035534 J0
G3 X44.809644670050766 Y61.59137055837563 I-1.4898477157360408 J-0.616751269035533
G3 X44.286802030456855 Y61.93908629441624 I-1.1395939086294418 J-1.1395939086294418
G3 X43.66751269035533 Y62.06345177664975 I-0.616751269035533 J-1.4898477157360408
G1 X36.068527918781726 Y62.06345177664975
G3 X35.45177664974619 Y61.93908629441624 I0 J-1.6116751269035534
G3 X34.92893401015229 Y61.59137055837563 I0.616751269035533 J-1.4898477157360408
G3 X34.578680203045685 Y61.068527918781726 I1.1395939086294418 J-1.1395939086294418
G3 X34.45685279187818 Y60.4492385786802 I1.4898477157360408 J-0.616751269035533
G0 Z1
G0 X39.53604060913705 Y56.98274111675127
G1 Z-1.94746192893401 F200
G1 X39.535532994923855 Y39.317258883248726 F400
G1 X40.2005076142132 Y39.317258883248726
G1 X40.2005076142132 Y56.982233502538065
G1 X39.535532994923855 Y56.982233502538065
G1 X36.99593908629441 Y59.52284263959391 F400
G1 X36.99492385786802 Y36.776649746192895 F400
G1 X42.74111675126903 Y36.776649746192895
G1 X42.74111675126903 Y59.52284263959391
G1 X36.99492385786802 Y59.52284263959391
G1 X34.456091370558376 Y60.4502538071066 F400
G1 X34.45685279187818 Y35.8502538071066 F400
G3 X34.578680203045685 Y35.233502538071065 I1.6116751269035534 J0
G3 X34.92893401015229 Y34.710659898477154 I1.4898477157360408 J0.616751269035533
G3 X35.45177664974619 Y34.36040609137056 I1.1395939086294418 J1.1395939086294418
G3 X36.068527918781726 Y34.23857868020305 I0.616751269035533 J1.4898477157360408
G1 X43.66751269035533 Y34.23857868020305
G3 X44.286802030456855 Y34.36040609137056 I0 J1.6116751269035534
G3 X44.809644670050766 Y34.710659898477154 I-0.616751269035533 J1.4898477157360408
G3 X45.15736040609137 Y35.233502538071065 I-1.1395939086294418 J1.1395939086294418
G3 X45.28172588832487 Y35.8502538071066 I-1.4898477157360408 J0.616751269035533
G1 X45.28172588832487 Y60.4492385786802
G3 X45.15736040609137 Y61.068527918781726 I-1.6116751269035534 J0
G3 X44.809644670050766 Y61.59137055837563 I-1.4898477157360408 J-0.616751269035533
G3 X44.286802030456855 Y61.93908629441624 I-1.1395939086294418 J-1.1395939086294418
G3 X43.66751269035533 Y62.06345177664975 I-0.616751269035533 J-1.4898477157360408
G1 X36.068527918781726 Y62.06345177664975
G3 X35.45177664974619 Y61.93908629441624 I0 J-1.6116751269035534
G3 X34.92893401015229 Y61.59137055837563 I0.616751269035533 J-1.4898477157360408
G3 X34.578680203045685 Y61.068527918781726 I1.1395939086294418 J-1.1395939086294418
G3 X34.45685279187818 Y60.4492385786802 I1.4898477157360408 J-0.616751269035533
G0 Z1
G0 X39.53604060913705 Y56.98274111675127
G1 Z-2.022335025380711 F200
G1 X39.535532994923855 Y39.317258883248726 F400
G1 X40.2005076142132 Y39.317258883248726
G1 X40.2005076142132 Y56.982233502538065
G1 X39.535532994923855 Y56.982233502538065
G1 X36.99593908629441 Y59.52284263959391 F400
G1 X36.99492385786802 Y36.776649746192895 F400
G1 X42.74111675126903 Y36.776649746192895
G1 X42.74111675126903 Y59.52284263959391
G1 X36.99492385786802 Y59.52284263959391
G1 X34.456091370558376 Y60.4502538071066 F400
G1 X34.45685279187818 Y35.8502538071066 F400
G3 X34.578680203045685 Y35.233502538071065 I1.6116751269035534 J0
G3 X34.92893401015229 Y34.710659898477154 I1.4898477157360408 J0.616751269035533
G3 X35.45177664974619 Y34.36040609137056 I1.1395939086294418 J1.1395939086294418
G3 X36.068527918781726 Y34.23857868020305 I0.616751269035533 J1.4898477157360408
G1 X43.66751269035533 Y34.23857868020305
G3 X44.286802030456855 Y34.36040609137056 I0 J1.6116751269035534
G3 X44.809644670050766 Y34.710659898477154 I-0.616751269035533 J1.4898477157360408
G3 X45.15736040609137 Y35.233502538071065 I-1.1395939086294418 J1.1395939086294418
G3 X45.28172588832487 Y35.8502538071066 I-1.4898477157360408 J0.616751269035533
G1 X45.28172588832487 Y60.4492385786802
G3 X45.15736040609137 Y61.068527918781726 I-1.6116751269035534 J0
G3 X44.809644670050766 Y61.59137055837563 I-1.4898477157360408 J-0.616751269035533
G3 X44.286802030456855 Y61.93908629441624 I-1.1395939086294418 J-1.1395939086294418
G3 X43.66751269035533 Y62.06345177664975 I-0.616751269035533 J-1.4898477157360408
G1 X36.068527918781726 Y62.06345177664975
G3 X35.45177664974619 Y61.93908629441624 I0 J-1.6116751269035534
G3 X34.92893401015229 Y61.59137055837563 I0.616751269035533 J-1.4898477157360408
G3 X34.578680203045685 Y61.068527918781726 I1.1395939086294418 J-1.1395939086294418
G3 X34.45685279187818 Y60.4492385786802 I1.4898477157360408 J-0.616751269035533
G0 Z1
G0 X39.53604060913705 Y56.98274111675127
G1 Z-2.09746192893401 F200
G1 X39.535532994923855 Y39.317258883248726 F400
G1 X40.2005076142132 Y39.317258883248726
G1 X40.2005076142132 Y56.982233502538065
G1 X39.535532994923855 Y56.982233502538065
G1 X36.99593908629441 Y59.52284263959391 F400
G1 X36.99492385786802 Y36.776649746192895 F400
G1 X42.74111675126903 Y36.776649746192895
G1 X42.74111675126903 Y59.52284263959391
G1 X36.99492385786802 Y59.52284263959391
G1 X34.456091370558376 Y60.4502538071066 F400
G1 X34.45685279187818 Y35.8502538071066 F400
G3 X34.578680203045685 Y35.233502538071065 I1.6116751269035534 J0
G3 X34.92893401015229 Y34.710659898477154 I1.4898477157360408 J0.616751269035533
G3 X35.45177664974619 Y34.36040609137056 I1.1395939086294418 J1.1395939086294418
G3 X36.068527918781726 Y34.23857868020305 I0.616751269035533 J1.4898477157360408
G1 X43.66751269035533 Y34.23857868020305
G3 X44.286802030456855 Y34.36040609137056 I0 J1.6116751269035534
G3 X44.809644670050766 Y34.710659898477154 I-0.616751269035533 J1.4898477157360408
G3 X45.15736040609137 Y35.233502538071065 I-1.1395939086294418 J1.1395939086294418
G3 X45.28172588832487 Y35.8502538071066 I-1.4898477157360408 J0.616751269035533
G1 X45.28172588832487 Y60.4492385786802
G3 X45.15736040609137 Y61.068527918781726 I-1.6116751269035534 J0
G3 X44.809644670050766 Y61.59137055837563 I-1.4898477157360408 J-0.616751269035533
G3 X44.286802030456855 Y61.93908629441624 I-1.1395939086294418 J-1.1395939086294418
G3 X43.66751269035533 Y62.06345177664975 I-0.616751269035533 J-1.4898477157360408
G1 X36.068527918781726 Y62.06345177664975
G3 X35.45177664974619 Y61.93908629441624 I0 J-1.6116751269035534
G3 X34.92893401015229 Y61.59137055837563 I0.616751269035533 J-1.4898477157360408
G3 X34.578680203045685 Y61.068527918781726 I1.1395939086294418 J-1.1395939086294418
G3 X34.45685279187818 Y60.4492385786802 I1.4898477157360408 J-0.616751269035533
G0 Z1
G0 X39.53604060913705 Y56.98274111675127
G1 Z-2.1723350253807108 F200
G1 X39.535532994923855 Y39.317258883248726 F400
G1 X40.2005076142132 Y39.317258883248726
G1 X40.2005076142132 Y56.982233502538065
G1 X39.535532994923855 Y56.982233502538065
G1 X36.99593908629441 Y59.52284263959391 F400
G1 X36.99492385786802 Y36.776649746192895 F400
G1 X42.74111675126903 Y36.776649746192895
G1 X42.74111675126903 Y59.52284263959391
G1 X36.99492385786802 Y59.52284263959391
G1 X34.456091370558376 Y60.4502538071066 F400
G1 X34.45685279187818 Y35.8502538071066 F400
G3 X34.578680203045685 Y35.233502538071065 I1.6116751269035534 J0
G3 X34.92893401015229 Y34.710659898477154 I1.4898477157360408 J0.616751269035533
G3 X35.45177664974619 Y34.36040609137056 I1.1395939086294418 J1.1395939086294418
G3 X36.068527918781726 Y34.23857868020305 I0.616751269035533 J1.4898477157360408
G1 X43.66751269035533 Y34.23857868020305
G3 X44.286802030456855 Y34.36040609137056 I0 J1.6116751269035534
G3 X44.809644670050766 Y34.710659898477154 I-0.616751269035533 J1.4898477157360408
G3 X45.15736040609137 Y35.233502538071065 I-1.1395939086294418 J1.1395939086294418
G3 X45.28172588832487 Y35.8502538071066 I-1.4898477157360408 J0.616751269035533
G1 X45.28172588832487 Y60.4492385786802
G3 X45.15736040609137 Y61.068527918781726 I-1.6116751269035534 J0
G3 X44.809644670050766 Y61.59137055837563 I-1.4898477157360408 J-0.616751269035533
G3 X44.286802030456855 Y61.93908629441624 I-1.1395939086294418 J-1.1395939086294418
G3 X43.66751269035533 Y62.06345177664975 I-0.616751269035533 J-1.4898477157360408
G1 X36.068527918781726 Y62.06345177664975
G3 X35.45177664974619 Y61.93908629441624 I0 J-1.6116751269035534
G3 X34.92893401015229 Y61.59137055837563 I0.616751269035533 J-1.4898477157360408
G3 X34.578680203045685 Y61.068527918781726 I1.1395939086294418 J-1.1395939086294418
G3 X34.45685279187818 Y60.4492385786802 I1.4898477157360408 J-0.616751269035533
G0 Z1
G0 X39.53604060913705 Y56.98274111675127
G1 Z-2.24746192893401 F200
G1 X39.535532994923855 Y39.317258883248726 F400
G1 X40.2005076142132 Y39.317258883248726
G1 X40.2005076142132 Y56.982233502538065
G1 X39.535532994923855 Y56.982233502538065
G1 X36.99593908629441 Y59.52284263959391 F400
G1 X36.99492385786802 Y36.776649746192895 F400
G1 X42.74111675126903 Y36.776649746192895
G1 X42.74111675126903 Y59.52284263959391
G1 X36.99492385786802 Y59.52284263959391
G1 X34.456091370558376 Y60.4502538071066 F400
G1 X34.45685279187818 Y35.8502538071066 F400
G3 X34.578680203045685 Y35.233502538071065 I1.6116751269035534 J0
G3 X34.92893401015229 Y34.710659898477154 I1.4898477157360408 J0.616751269035533
G3 X35.45177664974619 Y34.36040609137056 I1.1395939086294418 J1.1395939086294418
G3 X36.068527918781726 Y34.23857868020305 I0.616751269035533 J1.4898477157360408
G1 X43.66751269035533 Y34.23857868020305
G3 X44.286802030456855 Y34.36040609137056 I0 J1.6116751269035534
G3 X44.809644670050766 Y34.710659898477154 I-0.616751269035533 J1.4898477157360408
G3 X45.15736040609137 Y35.233502538071065 I-1.1395939086294418 J1.1395939086294418
G3 X45.28172588832487 Y35.8502538071066 I-1.4898477157360408 J0.616751269035533
G1 X45.28172588832487 Y60.4492385786802
G3 X45.15736040609137 Y61.068527918781726 I-1.6116751269035534 J0
G3 X44.809644670050766 Y61.59137055837563 I-1.4898477157360408 J-0.616751269035533
G3 X44.286802030456855 Y61.93908629441624 I-1.1395939086294418 J-1.1395939086294418
G3 X43.66751269035533 Y62.06345177664975 I-0.616751269035533 J-1.4898477157360408
G1 X36.068527918781726 Y62.06345177664975
G3 X35.45177664974619 Y61.93908629441624 I0 J-1.6116751269035534
G3 X34.92893401015229 Y61.59137055837563 I0.616751269035533 J-1.4898477157360408
G3 X34.578680203045685 Y61.068527918781726 I1.1395939086294418 J-1.1395939086294418
G3 X34.45685279187818 Y60.4492385786802 I1.4898477157360408 J-0.616751269035533
G0 Z1
G0 X39.53604060913705 Y56.98274111675127
G1 Z-2.3223350253807107 F200
G1 X39.535532994923855 Y39.317258883248726 F400
G1 X40.2005076142132 Y39.317258883248726
G1 X40.2005076142132 Y56.982233502538065
G1 X39.535532994923855 Y56.982233502538065
G1 X36.99593908629441 Y59.52284263959391 F400
G1 X36.99492385786802 Y36.776649746192895 F400
G1 X42.74111675126903 Y36.776649746192895
G1 X42.74111675126903 Y59.52284263959391
G1 X36.99492385786802 Y59.52284263959391
G1 X34.456091370558376 Y60.4502538071066 F400
G1 X34.45685279187818 Y35.8502538071066 F400
G3 X34.578680203045685 Y35.233502538071065 I1.6116751269035534 J0
G3 X34.92893401015229 Y34.710659898477154 I1.4898477157360408 J0.616751269035533
G3 X35.45177664974619 Y34.36040609137056 I1.1395939086294418 J1.1395939086294418
G3 X36.068527918781726 Y34.23857868020305 I0.616751269035533 J1.4898477157360408
G1 X43.66751269035533 Y34.23857868020305
G3 X44.286802030456855 Y34.36040609137056 I0 J1.6116751269035534
G3 X44.809644670050766 Y34.710659898477154 I-0.616751269035533 J1.4898477157360408
G3 X45.15736040609137 Y35.233502538071065 I-1.1395939086294418 J1.1395939086294418
G3 X45.28172588832487 Y35.8502538071066 I-1.4898477157360408 J0.616751269035533
G1 X45.28172588832487 Y60.4492385786802
G3 X45.15736040609137 Y61.068527918781726 I-1.6116751269035534 J0
G3 X44.809644670050766 Y61.59137055837563 I-1.4898477157360408 J-0.616751269035533
G3 X44.286802030456855 Y61.93908629441624 I-1.1395939086294418 J-1.1395939086294418
G3 X43.66751269035533 Y62.06345177664975 I-0.616751269035533 J-1.4898477157360408
G1 X36.068527918781726 Y62.06345177664975
G3 X35.45177664974619 Y61.93908629441624 I0 J-1.6116751269035534
G3 X34.92893401015229 Y61.59137055837563 I0.616751269035533 J-1.4898477157360408
G3 X34.578680203045685 Y61.068527918781726 I1.1395939086294418 J-1.1395939086294418
G3 X34.45685279187818 Y60.4492385786802 I1.4898477157360408 J-0.616751269035533
G0 Z1
G0 X39.53604060913705 Y56.98274111675127
G1 Z-2.3972081218274113 F200
G1 X39.535532994923855 Y39.317258883248726 F400
G1 X40.2005076142132 Y39.317258883248726
G1 X40.2005076142132 Y56.982233502538065
G1 X39.535532994923855 Y56.982233502538065
G1 X36.99593908629441 Y59.52284263959391 F400
G1 X36.99492385786802 Y36.776649746192895 F400
G1 X42.74111675126903 Y36.776649746192895
G1 X42.74111675126903 Y59.52284263959391
G1 X36.99492385786802 Y59.52284263959391
G1 X34.456091370558376 Y60.4502538071066 F400
G1 X34.45685279187818 Y35.8502538071066 F400
G3 X34.578680203045685 Y35.233502538071065 I1.6116751269035534 J0
G3 X34.92893401015229 Y34.710659898477154 I1.4898477157360408 J0.616751269035533
G3 X35.45177664974619 Y34.36040609137056 I1.1395939086294418 J1.1395939086294418
G3 X36.068527918781726 Y34.23857868020305 I0.616751269035533 J1.4898477157360408
G1 X43.66751269035533 Y34.23857868020305
G3 X44.286802030456855 Y34.36040609137056 I0 J1.6116751269035534
G3 X44.809644670050766 Y34.710659898477154 I-0.616751269035533 J1.4898477157360408
G3 X45.15736040609137 Y35.233502538071065 I-1.1395939086294418 J1.1395939086294418
G3 X45.28172588832487 Y35.8502538071066 I-1.4898477157360408 J0.616751269035533
G1 X45.28172588832487 Y60.4492385786802
G3 X45.15736040609137 Y61.068527918781726 I-1.6116751269035534 J0
G3 X44.809644670050766 Y61.59137055837563 I-1.4898477157360408 J-0.616751269035533
G3 X44.286802030456855 Y61.93908629441624 I-1.1395939086294418 J-1.1395939086294418
G3 X43.66751269035533 Y62.06345177664975 I-0.616751269035533 J-1.4898477157360408
G1 X36.068527918781726 Y62.06345177664975
G3 X35.45177664974619 Y61.93908629441624 I0 J-1.6116751269035534
G3 X34.92893401015229 Y61.59137055837563 I0.616751269035533 J-1.4898477157360408
G3 X34.578680203045685 Y61.068527918781726 I1.1395939086294418 J-1.1395939086294418
G3 X34.45685279187818 Y60.4492385786802 I1.4898477157360408 J-0.616751269035533
G0 Z1
G0 X39.53604060913705 Y56.98274111675127
G1 Z-2.4723350253807106 F200
G1 X39.535532994923855 Y39.317258883248726 F400
G1 X40.2005076142132 Y39.317258883248726
G1 X40.2005076142132 Y56.982233502538065
G1 X39.535532994923855 Y56.982233502538065
G1 X36.99593908629441 Y59.52284263959391 F400
G1 X36.99492385786802 Y36.776649746192895 F400
G1 X42.74111675126903 Y36.776649746192895
G1 X42.74111675126903 Y59.52284263959391
G1 X36.99492385786802 Y59.52284263959391
G1 X34.456091370558376 Y60.4502538071066 F400
G1 X34.45685279187818 Y35.8502538071066 F400
G3 X34.578680203045685 Y35.233502538071065 I1.6116751269035534 J0
G3 X34.92893401015229 Y34.710659898477154 I1.4898477157360408 J0.616751269035533
G3 X35.45177664974619 Y34.36040609137056 I1.1395939086294418 J1.1395939086294418
G3 X36.068527918781726 Y34.23857868020305 I0.616751269035533 J1.4898477157360408
G1 X43.66751269035533 Y34.23857868020305
G3 X44.286802030456855 Y34.36040609137056 I0 J1.6116751269035534
G3 X44.809644670050766 Y34.710659898477154 I-0.616751269035533 J1.4898477157360408
G3 X45.15736040609137 Y35.233502538071065 I-1.1395939086294418 J1.1395939086294418
G3 X45.28172588832487 Y35.8502538071066 I-1.4898477157360408 J0.616751269035533
G1 X45.28172588832487 Y60.4492385786802
G3 X45.15736040609137 Y61.068527918781726 I-1.6116751269035534 J0
G3 X44.809644670050766 Y61.59137055837563 I-1.4898477157360408 J-0.616751269035533
G3 X44.286802030456855 Y61.93908629441624 I-1.1395939086294418 J-1.1395939086294418
G3 X43.66751269035533 Y62.06345177664975 I-0.616751269035533 J-1.4898477157360408
G1 X36.068527918781726 Y62.06345177664975
G3 X35.45177664974619 Y61.93908629441624 I0 J-1.6116751269035534
G3 X34.92893401015229 Y61.59137055837563 I0.616751269035533 J-1.4898477157360408
G3 X34.578680203045685 Y61.068527918781726 I1.1395939086294418 J-1.1395939086294418
G3 X34.45685279187818 Y60.4492385786802 I1.4898477157360408 J-0.616751269035533
G0 Z1
G0 X39.53604060913705 Y56.98274111675127
G1 Z-2.547208121827411 F200
G1 X39.535532994923855 Y39.317258883248726 F400
G1 X40.2005076142132 Y39.317258883248726
G1 X40.2005076142132 Y56.982233502538065
G1 X39.535532994923855 Y56.982233502538065
G1 X36.99593908629441 Y59.52284263959391 F400
G1 X36.99492385786802 Y36.776649746192895 F400
G1 X42.74111675126903 Y36.776649746192895
G1 X42.74111675126903 Y59.52284263959391
G1 X36.99492385786802 Y59.52284263959391
G1 X34.456091370558376 Y60.4502538071066 F400
G1 X34.45685279187818 Y35.8502538071066 F400
G3 X34.578680203045685 Y35.233502538071065 I1.6116751269035534 J0
G3 X34.92893401015229 Y34.710659898477154 I1.4898477157360408 J0.616751269035533
G3 X35.45177664974619 Y34.36040609137056 I1.1395939086294418 J1.1395939086294418
G3 X36.068527918781726 Y34.23857868020305 I0.616751269035533 J1.4898477157360408
G1 X43.66751269035533 Y34.23857868020305
G3 X44.286802030456855 Y34.36040609137056 I0 J1.6116751269035534
G3 X44.809644670050766 Y34.710659898477154 I-0.616751269035533 J1.4898477157360408
G3 X45.15736040609137 Y35.233502538071065 I-1.1395939086294418 J1.1395939086294418
G3 X45.28172588832487 Y35.8502538071066 I-1.4898477157360408 J0.616751269035533
G1 X45.28172588832487 Y60.4492385786802
G3 X45.15736040609137 Y61.068527918781726 I-1.6116751269035534 J0
G3 X44.809644670050766 Y61.59137055837563 I-1.4898477157360408 J-0.616751269035533
G3 X44.286802030456855 Y61.93908629441624 I-1.1395939086294418 J-1.1395939086294418
G3 X43.66751269035533 Y62.06345177664975 I-0.616751269035533 J-1.4898477157360408
G1 X36.068527918781726 Y62.06345177664975
G3 X35.45177664974619 Y61.93908629441624 I0 J-1.6116751269035534
G3 X34.92893401015229 Y61.59137055837563 I0.616751269035533 J-1.4898477157360408
G3 X34.578680203045685 Y61.068527918781726 I1.1395939086294418 J-1.1395939086294418
G3 X34.45685279187818 Y60.4492385786802 I1.4898477157360408 J-0.616751269035533
G0 Z1
G0 X39.53604060913705 Y56.98274111675127
G1 Z-2.622081218274112 F200
G1 X39.535532994923855 Y39.317258883248726 F400
G1 X40.2005076142132 Y39.317258883248726
G1 X40.2005076142132 Y56.982233502538065
G1 X39.535532994923855 Y56.982233502538065
G1 X36.99593908629441 Y59.52284263959391 F400
G1 X36.99492385786802 Y36.776649746192895 F400
G1 X42.74111675126903 Y36.776649746192895
G1 X42.74111675126903 Y59.52284263959391
G1 X36.99492385786802 Y59.52284263959391
G1 X34.456091370558376 Y60.4502538071066 F400
G1 X34.45685279187818 Y35.8502538071066 F400
G3 X34.578680203045685 Y35.233502538071065 I1.6116751269035534 J0
G3 X34.92893401015229 Y34.710659898477154 I1.4898477157360408 J0.616751269035533
G3 X35.45177664974619 Y34.36040609137056 I1.1395939086294418 J1.1395939086294418
G3 X36.068527918781726 Y34.23857868020305 I0.616751269035533 J1.4898477157360408
G1 X43.66751269035533 Y34.23857868020305
G3 X44.286802030456855 Y34.36040609137056 I0 J1.6116751269035534
G3 X44.809644670050766 Y34.710659898477154 I-0.616751269035533 J1.4898477157360408
G3 X45.15736040609137 Y35.233502538071065 I-1.1395939086294418 J1.1395939086294418
G3 X45.28172588832487 Y35.8502538071066 I-1.4898477157360408 J0.616751269035533
G1 X45.28172588832487 Y60.4492385786802
G3 X45.15736040609137 Y61.068527918781726 I-1.6116751269035534 J0
G3 X44.809644670050766 Y61.59137055837563 I-1.4898477157360408 J-0.616751269035533
G3 X44.286802030456855 Y61.93908629441624 I-1.1395939086294418 J-1.1395939086294418
G3 X43.66751269035533 Y62.06345177664975 I-0.616751269035533 J-1.4898477157360408
G1 X36.068527918781726 Y62.06345177664975
G3 X35.45177664974619 Y61.93908629441624 I0 J-1.6116751269035534
G3 X34.92893401015229 Y61.59137055837563 I0.616751269035533 J-1.4898477157360408
G3 X34.578680203045685 Y61.068527918781726 I1.1395939086294418 J-1.1395939086294418
G3 X34.45685279187818 Y60.4492385786802 I1.4898477157360408 J-0.616751269035533
G0 Z1
G0 X39.53604060913705 Y56.98274111675127
G1 Z-2.697208121827411 F200
G1 X39.535532994923855 Y39.317258883248726 F400
G1 X40.2005076142132 Y39.317258883248726
G1 X40.2005076142132 Y56.982233502538065
G1 X39.535532994923855 Y56.982233502538065
G1 X36.99593908629441 Y59.52284263959391 F400
G1 X36.99492385786802 Y36.776649746192895 F400
G1 X42.74111675126903 Y36.776649746192895
G1 X42.74111675126903 Y59.52284263959391
G1 X36.99492385786802 Y59.52284263959391
G1 X34.456091370558376 Y60.4502538071066 F400
G1 X34.45685279187818 Y35.8502538071066 F400
G3 X34.578680203045685 Y35.233502538071065 I1.6116751269035534 J0
G3 X34.92893401015229 Y34.710659898477154 I1.4898477157360408 J0.616751269035533
G3 X35.45177664974619 Y34.36040609137056 I1.1395939086294418 J1.1395939086294418
G3 X36.068527918781726 Y34.23857868020305 I0.616751269035533 J1.4898477157360408
G1 X43.66751269035533 Y34.23857868020305
G3 X44.286802030456855 Y34.36040609137056 I0 J1.6116751269035534
G3 X44.809644670050766 Y34.710659898477154 I-0.616751269035533 J1.4898477157360408
G3 X45.15736040609137 Y35.233502538071065 I-1.1395939086294418 J1.1395939086294418
G3 X45.28172588832487 Y35.8502538071066 I-1.4898477157360408 J0.616751269035533
G1 X45.28172588832487 Y60.4492385786802
G3 X45.15736040609137 Y61.068527918781726 I-1.6116751269035534 J0
G3 X44.809644670050766 Y61.59137055837563 I-1.4898477157360408 J-0.616751269035533
G3 X44.286802030456855 Y61.93908629441624 I-1.1395939086294418 J-1.1395939086294418
G3 X43.66751269035533 Y62.06345177664975 I-0.616751269035533 J-1.4898477157360408
G1 X36.068527918781726 Y62.06345177664975
G3 X35.45177664974619 Y61.93908629441624 I0 J-1.6116751269035534
G3 X34.92893401015229 Y61.59137055837563 I0.616751269035533 J-1.4898477157360408
G3 X34.578680203045685 Y61.068527918781726 I1.1395939086294418 J-1.1395939086294418
G3 X34.45685279187818 Y60.4492385786802 I1.4898477157360408 J-0.616751269035533
G0 Z1
G0 X39.53604060913705 Y56.98274111675127
G1 Z-2.7720812182741117 F200
G1 X39.535532994923855 Y39.317258883248726 F400
G1 X40.2005076142132 Y39.317258883248726
G1 X40.2005076142132 Y56.982233502538065
G1 X39.535532994923855 Y56.982233502538065
G1 X36.99593908629441 Y59.52284263959391 F400
G1 X36.99492385786802 Y36.776649746192895 F400
G1 X42.74111675126903 Y36.776649746192895
G1 X42.74111675126903 Y59.52284263959391
G1 X36.99492385786802 Y59.52284263959391
G1 X34.456091370558376 Y60.4502538071066 F400
G1 X34.45685279187818 Y35.8502538071066 F400
G3 X34.578680203045685 Y35.233502538071065 I1.6116751269035534 J0
G3 X34.92893401015229 Y34.710659898477154 I1.4898477157360408 J0.616751269035533
G3 X35.45177664974619 Y34.36040609137056 I1.1395939086294418 J1.1395939086294418
G3 X36.068527918781726 Y34.23857868020305 I0.616751269035533 J1.4898477157360408
G1 X43.66751269035533 Y34.23857868020305
G3 X44.286802030456855 Y34.36040609137056 I0 J1.6116751269035534
G3 X44.809644670050766 Y34.710659898477154 I-0.616751269035533 J1.4898477157360408
G3 X45.15736040609137 Y35.233502538071065 I-1.1395939086294418 J1.1395939086294418
G3 X45.28172588832487 Y35.8502538071066 I-1.4898477157360408 J0.616751269035533
G1 X45.28172588832487 Y60.4492385786802
G3 X45.15736040609137 Y61.068527918781726 I-1.6116751269035534 J0
G3 X44.809644670050766 Y61.59137055837563 I-1.4898477157360408 J-0.616751269035533
G3 X44.286802030456855 Y61.93908629441624 I-1.1395939086294418 J-1.1395939086294418
G3 X43.66751269035533 Y62.06345177664975 I-0.616751269035533 J-1.4898477157360408
G1 X36.068527918781726 Y62.06345177664975
G3 X35.45177664974619 Y61.93908629441624 I0 J-1.6116751269035534
G3 X34.92893401015229 Y61.59137055837563 I0.616751269035533 J-1.4898477157360408
G3 X34.578680203045685 Y61.068527918781726 I1.1395939086294418 J-1.1395939086294418
G3 X34.45685279187818 Y60.4492385786802 I1.4898477157360408 J-0.616751269035533
G0 Z1
G0 X39.53604060913705 Y56.98274111675127
G1 Z-2.8469543147208123 F200
G1 X39.535532994923855 Y39.317258883248726 F400
G1 X40.2005076142132 Y39.317258883248726
G1 X40.2005076142132 Y56.982233502538065
G1 X39.535532994923855 Y56.982233502538065
G1 X36.99593908629441 Y59.52284263959391 F400
G1 X36.99492385786802 Y36.776649746192895 F400
G1 X42.74111675126903 Y36.776649746192895
G1 X42.74111675126903 Y59.52284263959391
G1 X36.99492385786802 Y59.52284263959391
G1 X34.456091370558376 Y60.4502538071066 F400
G1 X34.45685279187818 Y35.8502538071066 F400
G3 X34.578680203045685 Y35.233502538071065 I1.6116751269035534 J0
G3 X34.92893401015229 Y34.710659898477154 I1.4898477157360408 J0.616751269035533
G3 X35.45177664974619 Y34.36040609137056 I1.1395939086294418 J1.1395939086294418
G3 X36.068527918781726 Y34.23857868020305 I0.616751269035533 J1.4898477157360408
G1 X43.66751269035533 Y34.23857868020305
G3 X44.286802030456855 Y34.36040609137056 I0 J1.6116751269035534
G3 X44.809644670050766 Y34.710659898477154 I-0.616751269035533 J1.4898477157360408
G3 X45.15736040609137 Y35.233502538071065 I-1.1395939086294418 J1.1395939086294418
G3 X45.28172588832487 Y35.8502538071066 I-1.4898477157360408 J0.616751269035533
G1 X45.28172588832487 Y60.4492385786802
G3 X45.15736040609137 Y61.068527918781726 I-1.6116751269035534 J0
G3 X44.809644670050766 Y61.59137055837563 I-1.4898477157360408 J-0.616751269035533
G3 X44.286802030456855 Y61.93908629441624 I-1.1395939086294418 J-1.1395939086294418
G3 X43.66751269035533 Y62.06345177664975 I-0.616751269035533 J-1.4898477157360408
G1 X36.068527918781726 Y62.06345177664975
G3 X35.45177664974619 Y61.93908629441624 I0 J-1.6116751269035534
G3 X34.92893401015229 Y61.59137055837563 I0.616751269035533 J-1.4898477157360408
G3 X34.578680203045685 Y61.068527918781726 I1.1395939086294418 J-1.1395939086294418
G3 X34.45685279187818 Y60.4492385786802 I1.4898477157360408 J-0.616751269035533
G0 Z1
G0 X39.53604060913705 Y56.98274111675127
G1 Z-2.9220812182741116 F200
G1 X39.535532994923855 Y39.317258883248726 F400
G1 X40.2005076142132 Y39.317258883248726
G1 X40.2005076142132 Y56.982233502538065
G1 X39.535532994923855 Y56.982233502538065
G1 X36.99593908629441 Y59.52284263959391 F400
G1 X36.99492385786802 Y36.776649746192895 F400
G1 X42.74111675126903 Y36.776649746192895
G1 X42.74111675126903 Y59.52284263959391
G1 X36.99492385786802 Y59.52284263959391
G1 X34.456091370558376 Y60.4502538071066 F400
G1 X34.45685279187818 Y35.8502538071066 F400
G3 X34.578680203045685 Y35.233502538071065 I1.6116751269035534 J0
G3 X34.92893401015229 Y34.710659898477154 I1.4898477157360408 J0.616751269035533
G3 X35.45177664974619 Y34.36040609137056 I1.1395939086294418 J1.1395939086294418
G3 X36.068527918781726 Y34.23857868020305 I0.616751269035533 J1.4898477157360408
G1 X43.66751269035533 Y34.23857868020305
G3 X44.286802030456855 Y34.36040609137056 I0 J1.6116751269035534
G3 X44.809644670050766 Y34.710659898477154 I-0.616751269035533 J1.4898477157360408
G3 X45.15736040609137 Y35.233502538071065 I-1.1395939086294418 J1.1395939086294418
G3 X45.28172588832487 Y35.8502538071066 I-1.4898477157360408 J0.616751269035533
G1 X45.28172588832487 Y60.4492385786802
G3 X45.15736040609137 Y61.068527918781726 I-1.6116751269035534 J0
G3 X44.809644670050766 Y61.59137055837563 I-1.4898477157360408 J-0.616751269035533
G3 X44.286802030456855 Y61.93908629441624 I-1.1395939086294418 J-1.1395939086294418
G3 X43.66751269035533 Y62.06345177664975 I-0.616751269035533 J-1.4898477157360408
G1 X36.068527918781726 Y62.06345177664975
G3 X35.45177664974619 Y61.93908629441624 I0 J-1.6116751269035534
G3 X34.92893401015229 Y61.59137055837563 I0.616751269035533 J-1.4898477157360408
G3 X34.578680203045685 Y61.068527918781726 I1.1395939086294418 J-1.1395939086294418
G3 X34.45685279187818 Y60.4492385786802 I1.4898477157360408 J-0.616751269035533
G0 Z1
G0 X39.53604060913705 Y56.98274111675127
G1 Z-2.996954314720812 F200
G1 X39.535532994923855 Y39.317258883248726 F400
G1 X40.2005076142132 Y39.317258883248726
G1 X40.2005076142132 Y56.982233502538065
G1 X39.535532994923855 Y56.982233502538065
G1 X36.99593908629441 Y59.52284263959391 F400
G1 X36.99492385786802 Y36.776649746192895 F400
G1 X42.74111675126903 Y36.776649746192895
G1 X42.74111675126903 Y59.52284263959391
G1 X36.99492385786802 Y59.52284263959391
G1 X34.456091370558376 Y60.4502538071066 F400
G1 X34.45685279187818 Y35.8502538071066 F400
G3 X34.578680203045685 Y35.233502538071065 I1.6116751269035534 J0
G3 X34.92893401015229 Y34.710659898477154 I1.4898477157360408 J0.616751269035533
G3 X35.45177664974619 Y34.36040609137056 I1.1395939086294418 J1.1395939086294418
G3 X36.068527918781726 Y34.23857868020305 I0.616751269035533 J1.4898477157360408
G1 X43.66751269035533 Y34.23857868020305
G3 X44.286802030456855 Y34.36040609137056 I0 J1.6116751269035534
G3 X44.809644670050766 Y34.710659898477154 I-0.616751269035533 J1.4898477157360408
G3 X45.15736040609137 Y35.233502538071065 I-1.1395939086294418 J1.1395939086294418
G3 X45.28172588832487 Y35.8502538071066 I-1.4898477157360408 J0.616751269035533
G1 X45.28172588832487 Y60.4492385786802
G3 X45.15736040609137 Y61.068527918781726 I-1.6116751269035534 J0
G3 X44.809644670050766 Y61.59137055837563 I-1.4898477157360408 J-0.616751269035533
G3 X44.286802030456855 Y61.93908629441624 I-1.1395939086294418 J-1.1395939086294418
G3 X43.66751269035533 Y62.06345177664975 I-0.616751269035533 J-1.4898477157360408
G1 X36.068527918781726 Y62.06345177664975
G3 X35.45177664974619 Y61.93908629441624 I0 J-1.6116751269035534
G3 X34.92893401015229 Y61.59137055837563 I0.616751269035533 J-1.4898477157360408
G3 X34.578680203045685 Y61.068527918781726 I1.1395939086294418 J-1.1395939086294418
G3 X34.45685279187818 Y60.4492385786802 I1.4898477157360408 J-0.616751269035533
G0 Z1
G0 X39.53604060913705 Y56.98274111675127
G1 Z-3.071827411167513 F200
G1 X39.535532994923855 Y39.317258883248726 F400
G1 X40.2005076142132 Y39.317258883248726
G1 X40.2005076142132 Y56.982233502538065
G1 X39.535532994923855 Y56.982233502538065
G1 X36.99593908629441 Y59.52284263959391 F400
G1 X36.99492385786802 Y36.776649746192895 F400
G1 X42.74111675126903 Y36.776649746192895
G1 X42.74111675126903 Y59.52284263959391
G1 X36.99492385786802 Y59.52284263959391
G1 X34.456091370558376 Y60.4502538071066 F400
G1 X34.45685279187818 Y35.8502538071066 F400
G3 X34.578680203045685 Y35.233502538071065 I1.6116751269035534 J0
G3 X34.92893401015229 Y34.710659898477154 I1.4898477157360408 J0.616751269035533
G3 X35.45177664974619 Y34.36040609137056 I1.1395939086294418 J1.1395939086294418
G3 X36.068527918781726 Y34.23857868020305 I0.616751269035533 J1.4898477157360408
G1 X43.66751269035533 Y34.23857868020305
G3 X44.286802030456855 Y34.36040609137056 I0 J1.6116751269035534
G3 X44.809644670050766 Y34.710659898477154 I-0.616751269035533 J1.4898477157360408
G3 X45.15736040609137 Y35.233502538071065 I-1.1395939086294418 J1.1395939086294418
G3 X45.28172588832487 Y35.8502538071066 I-1.4898477157360408 J0.616751269035533
G1 X45.28172588832487 Y60.4492385786802
G3 X45.15736040609137 Y61.068527918781726 I-1.6116751269035534 J0
G3 X44.809644670050766 Y61.59137055837563 I-1.4898477157360408 J-0.616751269035533
G3 X44.286802030456855 Y61.93908629441624 I-1.1395939086294418 J-1.1395939086294418
G3 X43.66751269035533 Y62.06345177664975 I-0.616751269035533 J-1.4898477157360408
G1 X36.068527918781726 Y62.06345177664975
G3 X35.45177664974619 Y61.93908629441624 I0 J-1.6116751269035534
G3 X34.92893401015229 Y61.59137055837563 I0.616751269035533 J-1.4898477157360408
G3 X34.578680203045685 Y61.068527918781726 I1.1395939086294418 J-1.1395939086294418
G3 X34.45685279187818 Y60.4492385786802 I1.4898477157360408 J-0.616751269035533
G0 Z1
G0 X39.53604060913705 Y56.98274111675127
G1 Z-3.146954314720812 F200
G1 X39.535532994923855 Y39.317258883248726 F400
G1 X40.2005076142132 Y39.317258883248726
G1 X40.2005076142132 Y56.982233502538065
G1 X39.535532994923855 Y56.982233502538065
G1 X36.99593908629441 Y59.52284263959391 F400
G1 X36.99492385786802 Y36.776649746192895 F400
G1 X42.74111675126903 Y36.776649746192895
G1 X42.74111675126903 Y59.52284263959391
G1 X36.99492385786802 Y59.52284263959391
G1 X34.456091370558376 Y60.4502538071066 F400
G1 X34.45685279187818 Y35.8502538071066 F400
G3 X34.578680203045685 Y35.233502538071065 I1.6116751269035534 J0
G3 X34.92893401015229 Y34.710659898477154 I1.4898477157360408 J0.616751269035533
G3 X35.45177664974619 Y34.36040609137056 I1.1395939086294418 J1.1395939086294418
G3 X36.068527918781726 Y34.23857868020305 I0.616751269035533 J1.4898477157360408
G1 X43.66751269035533 Y34.23857868020305
G3 X44.286802030456855 Y34.36040609137056 I0 J1.6116751269035534
G3 X44.809644670050766 Y34.710659898477154 I-0.616751269035533 J1.4898477157360408
G3 X45.15736040609137 Y35.233502538071065 I-1.1395939086294418 J1.1395939086294418
G3 X45.28172588832487 Y35.8502538071066 I-1.4898477157360408 J0.616751269035533
G1 X45.28172588832487 Y60.4492385786802
G3 X45.15736040609137 Y61.068527918781726 I-1.6116751269035534 J0
G3 X44.809644670050766 Y61.59137055837563 I-1.4898477157360408 J-0.616751269035533
G3 X44.286802030456855 Y61.93908629441624 I-1.1395939086294418 J-1.1395939086294418
G3 X43.66751269035533 Y62.06345177664975 I-0.616751269035533 J-1.4898477157360408
G1 X36.068527918781726 Y62.06345177664975
G3 X35.45177664974619 Y61.93908629441624 I0 J-1.6116751269035534
G3 X34.92893401015229 Y61.59137055837563 I0.616751269035533 J-1.4898477157360408
G3 X34.578680203045685 Y61.068527918781726 I1.1395939086294418 J-1.1395939086294418
G3 X34.45685279187818 Y60.4492385786802 I1.4898477157360408 J-0.616751269035533
G0 Z1
G0 X39.53604060913705 Y56.98274111675127
G1 Z-3.2218274111675127 F200
G1 X39.535532994923855 Y39.317258883248726 F400
G1 X40.2005076142132 Y39.317258883248726
G1 X40.2005076142132 Y56.982233502538065
G1 X39.535532994923855 Y56.982233502538065
G1 X36.99593908629441 Y59.52284263959391 F400
G1 X36.99492385786802 Y36.776649746192895 F400
G1 X42.74111675126903 Y36.776649746192895
G1 X42.74111675126903 Y59.52284263959391
G1 X36.99492385786802 Y59.52284263959391
G1 X34.456091370558376 Y60.4502538071066 F400
G1 X34.45685279187818 Y35.8502538071066 F400
G3 X34.578680203045685 Y35.233502538071065 I1.6116751269035534 J0
G3 X34.92893401015229 Y34.710659898477154 I1.4898477157360408 J0.616751269035533
G3 X35.45177664974619 Y34.36040609137056 I1.1395939086294418 J1.1395939086294418
G3 X36.068527918781726 Y34.23857868020305 I0.616751269035533 J1.4898477157360408
G1 X43.66751269035533 Y34.23857868020305
G3 X44.286802030456855 Y34.36040609137056 I0 J1.6116751269035534
G3 X44.809644670050766 Y34.710659898477154 I-0.616751269035533 J1.4898477157360408
G3 X45.15736040609137 Y35.233502538071065 I-1.1395939086294418 J1.1395939086294418
G3 X45.28172588832487 Y35.8502538071066 I-1.4898477157360408 J0.616751269035533
G1 X45.28172588832487 Y60.4492385786802
G3 X45.15736040609137 Y61.068527918781726 I-1.6116751269035534 J0
G3 X44.809644670050766 Y61.59137055837563 I-1.4898477157360408 J-0.616751269035533
G3 X44.286802030456855 Y61.93908629441624 I-1.1395939086294418 J-1.1395939086294418
G3 X43.66751269035533 Y62.06345177664975 I-0.616751269035533 J-1.4898477157360408
G1 X36.068527918781726 Y62.06345177664975
G3 X35.45177664974619 Y61.93908629441624 I0 J-1.6116751269035534
G3 X34.92893401015229 Y61.59137055837563 I0.616751269035533 J-1.4898477157360408
G3 X34.578680203045685 Y61.068527918781726 I1.1395939086294418 J-1.1395939086294418
G3 X34.45685279187818 Y60.4492385786802 I1.4898477157360408 J-0.616751269035533
G0 Z1
G0 X39.53604060913705 Y56.98274111675127
G1 Z-3.2967005076142133 F200
G1 X39.535532994923855 Y39.317258883248726 F400
G1 X40.2005076142132 Y39.317258883248726
G1 X40.2005076142132 Y56.982233502538065
G1 X39.535532994923855 Y56.982233502538065
G1 X36.99593908629441 Y59.52284263959391 F400
G1 X36.99492385786802 Y36.776649746192895 F400
G1 X42.74111675126903 Y36.776649746192895
G1 X42.74111675126903 Y59.52284263959391
G1 X36.99492385786802 Y59.52284263959391
G1 X34.456091370558376 Y60.4502538071066 F400
G1 X34.45685279187818 Y35.8502538071066 F400
G3 X34.578680203045685 Y35.233502538071065 I1.6116751269035534 J0
G3 X34.92893401015229 Y34.710659898477154 I1.4898477157360408 J0.616751269035533
G3 X35.45177664974619 Y34.36040609137056 I1.1395939086294418 J1.1395939086294418
G3 X36.068527918781726 Y34.23857868020305 I0.616751269035533 J1.4898477157360408
G1 X43.66751269035533 Y34.23857868020305
G3 X44.286802030456855 Y34.36040609137056 I0 J1.6116751269035534
G3 X44.809644670050766 Y34.710659898477154 I-0.616751269035533 J1.4898477157360408
G3 X45.15736040609137 Y35.233502538071065 I-1.1395939086294418 J1.1395939086294418
G3 X45.28172588832487 Y35.8502538071066 I-1.4898477157360408 J0.616751269035533
G1 X45.28172588832487 Y60.4492385786802
G3 X45.15736040609137 Y61.068527918781726 I-1.6116751269035534 J0
G3 X44.809644670050766 Y61.59137055837563 I-1.4898477157360408 J-0.616751269035533
G3 X44.286802030456855 Y61.93908629441624 I-1.1395939086294418 J-1.1395939086294418
G3 X43.66751269035533 Y62.06345177664975 I-0.616751269035533 J-1.4898477157360408
G1 X36.068527918781726 Y62.06345177664975
G3 X35.45177664974619 Y61.93908629441624 I0 J-1.6116751269035534
G3 X34.92893401015229 Y61.59137055837563 I0.616751269035533 J-1.4898477157360408
G3 X34.578680203045685 Y61.068527918781726 I1.1395939086294418 J-1.1395939086294418
G3 X34.45685279187818 Y60.4492385786802 I1.4898477157360408 J-0.616751269035533
G0 Z1
G0 X39.53604060913705 Y56.98274111675127
G1 Z-3.3718274111675126 F200
G1 X39.535532994923855 Y39.317258883248726 F400
G1 X40.2005076142132 Y39.317258883248726
G1 X40.2005076142132 Y56.982233502538065
G1 X39.535532994923855 Y56.982233502538065
G1 X36.99593908629441 Y59.52284263959391 F400
G1 X36.99492385786802 Y36.776649746192895 F400
G1 X42.74111675126903 Y36.776649746192895
G1 X42.74111675126903 Y59.52284263959391
G1 X36.99492385786802 Y59.52284263959391
G1 X34.456091370558376 Y60.4502538071066 F400
G1 X34.45685279187818 Y35.8502538071066 F400
G3 X34.578680203045685 Y35.233502538071065 I1.6116751269035534 J0
G3 X34.92893401015229 Y34.710659898477154 I1.4898477157360408 J0.616751269035533
G3 X35.45177664974619 Y34.36040609137056 I1.1395939086294418 J1.1395939086294418
G3 X36.068527918781726 Y34.23857868020305 I0.616751269035533 J1.4898477157360408
G1 X43.66751269035533 Y34.23857868020305
G3 X44.286802030456855 Y34.36040609137056 I0 J1.6116751269035534
G3 X44.809644670050766 Y34.710659898477154 I-0.616751269035533 J1.4898477157360408
G3 X45.15736040609137 Y35.233502538071065 I-1.1395939086294418 J1.1395939086294418
G3 X45.28172588832487 Y35.8502538071066 I-1.4898477157360408 J0.616751269035533
G1 X45.28172588832487 Y60.4492385786802
G3 X45.15736040609137 Y61.068527918781726 I-1.6116751269035534 J0
G3 X44.809644670050766 Y61.59137055837563 I-1.4898477157360408 J-0.616751269035533
G3 X44.286802030456855 Y61.93908629441624 I-1.1395939086294418 J-1.1395939086294418
G3 X43.66751269035533 Y62.06345177664975 I-0.616751269035533 J-1.4898477157360408
G1 X36.068527918781726 Y62.06345177664975
G3 X35.45177664974619 Y61.93908629441624 I0 J-1.6116751269035534
G3 X34.92893401015229 Y61.59137055837563 I0.616751269035533 J-1.4898477157360408
G3 X34.578680203045685 Y61.068527918781726 I1.1395939086294418 J-1.1395939086294418
G3 X34.45685279187818 Y60.4492385786802 I1.4898477157360408 J-0.616751269035533
G0 Z1
G0 X39.53604060913705 Y56.98274111675127
G1 Z-3.446700507614213 F200
G1 X39.535532994923855 Y39.317258883248726 F400
G1 X40.2005076142132 Y39.317258883248726
G1 X40.2005076142132 Y56.982233502538065
G1 X39.535532994923855 Y56.982233502538065
G1 X36.99593908629441 Y59.52284263959391 F400
G1 X36.99492385786802 Y36.776649746192895 F400
G1 X42.74111675126903 Y36.776649746192895
G1 X42.74111675126903 Y59.52284263959391
G1 X36.99492385786802 Y59.52284263959391
G1 X34.456091370558376 Y60.4502538071066 F400
G1 X34.45685279187818 Y35.8502538071066 F400
G3 X34.578680203045685 Y35.233502538071065 I1.6116751269035534 J0
G3 X34.92893401015229 Y34.710659898477154 I1.4898477157360408 J0.616751269035533
G3 X35.45177664974619 Y34.36040609137056 I1.1395939086294418 J1.1395939086294418
G3 X36.068527918781726 Y34.23857868020305 I0.616751269035533 J1.4898477157360408
G1 X43.66751269035533 Y34.23857868020305
G3 X44.286802030456855 Y34.36040609137056 I0 J1.6116751269035534
G3 X44.809644670050766 Y34.710659898477154 I-0.616751269035533 J1.4898477157360408
G3 X45.15736040609137 Y35.233502538071065 I-1.1395939086294418 J1.1395939086294418
G3 X45.28172588832487 Y35.8502538071066 I-1.4898477157360408 J0.616751269035533
G1 X45.28172588832487 Y60.4492385786802
G3 X45.15736040609137 Y61.068527918781726 I-1.6116751269035534 J0
G3 X44.809644670050766 Y61.59137055837563 I-1.4898477157360408 J-0.616751269035533
G3 X44.286802030456855 Y61.93908629441624 I-1.1395939086294418 J-1.1395939086294418
G3 X43.66751269035533 Y62.06345177664975 I-0.616751269035533 J-1.4898477157360408
G1 X36.068527918781726 Y62.06345177664975
G3 X35.45177664974619 Y61.93908629441624 I0 J-1.6116751269035534
G3 X34.92893401015229 Y61.59137055837563 I0.616751269035533 J-1.4898477157360408
G3 X34.578680203045685 Y61.068527918781726 I1.1395939086294418 J-1.1395939086294418
G3 X34.45685279187818 Y60.4492385786802 I1.4898477157360408 J-0.616751269035533
G0 Z1
G0 X39.53604060913705 Y56.98274111675127
G1 Z-3.521573604060914 F200
G1 X39.535532994923855 Y39.317258883248726 F400
G1 X40.2005076142132 Y39.317258883248726
G1 X40.2005076142132 Y56.982233502538065
G1 X39.535532994923855 Y56.982233502538065
G1 X36.99593908629441 Y59.52284263959391 F400
G1 X36.99492385786802 Y36.776649746192895 F400
G1 X42.74111675126903 Y36.776649746192895
G1 X42.74111675126903 Y59.52284263959391
G1 X36.99492385786802 Y59.52284263959391
G1 X34.456091370558376 Y60.4502538071066 F400
G1 X34.45685279187818 Y35.8502538071066 F400
G3 X34.578680203045685 Y35.233502538071065 I1.6116751269035534 J0
G3 X34.92893401015229 Y34.710659898477154 I1.4898477157360408 J0.616751269035533
G3 X35.45177664974619 Y34.36040609137056 I1.1395939086294418 J1.1395939086294418
G3 X36.068527918781726 Y34.23857868020305 I0.616751269035533 J1.4898477157360408
G1 X43.66751269035533 Y34.23857868020305
G3 X44.286802030456855 Y34.36040609137056 I0 J1.6116751269035534
G3 X44.809644670050766 Y34.710659898477154 I-0.616751269035533 J1.4898477157360408
G3 X45.15736040609137 Y35.233502538071065 I-1.1395939086294418 J1.1395939086294418
G3 X45.28172588832487 Y35.8502538071066 I-1.4898477157360408 J0.616751269035533
G1 X45.28172588832487 Y60.4492385786802
G3 X45.15736040609137 Y61.068527918781726 I-1.6116751269035534 J0
G3 X44.809644670050766 Y61.59137055837563 I-1.4898477157360408 J-0.616751269035533
G3 X44.286802030456855 Y61.93908629441624 I-1.1395939086294418 J-1.1395939086294418
G3 X43.66751269035533 Y62.06345177664975 I-0.616751269035533 J-1.4898477157360408
G1 X36.068527918781726 Y62.06345177664975
G3 X35.45177664974619 Y61.93908629441624 I0 J-1.6116751269035534
G3 X34.92893401015229 Y61.59137055837563 I0.616751269035533 J-1.4898477157360408
G3 X34.578680203045685 Y61.068527918781726 I1.1395939086294418 J-1.1395939086294418
G3 X34.45685279187818 Y60.4492385786802 I1.4898477157360408 J-0.616751269035533
G0 Z1
G0 X39.53604060913705 Y56.98274111675127
G1 Z-3.596700507614213 F200
G1 X39.535532994923855 Y39.317258883248726 F400
G1 X40.2005076142132 Y39.317258883248726
G1 X40.2005076142132 Y56.982233502538065
G1 X39.535532994923855 Y56.982233502538065
G1 X36.99593908629441 Y59.52284263959391 F400
G1 X36.99492385786802 Y36.776649746192895 F400
G1 X42.74111675126903 Y36.776649746192895
G1 X42.74111675126903 Y59.52284263959391
G1 X36.99492385786802 Y59.52284263959391
G1 X34.456091370558376 Y60.4502538071066 F400
G1 X34.45685279187818 Y35.8502538071066 F400
G3 X34.578680203045685 Y35.233502538071065 I1.6116751269035534 J0
G3 X34.92893401015229 Y34.710659898477154 I1.4898477157360408 J0.616751269035533
G3 X35.45177664974619 Y34.36040609137056 I1.1395939086294418 J1.1395939086294418
G3 X36.068527918781726 Y34.23857868020305 I0.616751269035533 J1.4898477157360408
G1 X43.66751269035533 Y34.23857868020305
G3 X44.286802030456855 Y34.36040609137056 I0 J1.6116751269035534
G3 X44.809644670050766 Y34.710659898477154 I-0.616751269035533 J1.4898477157360408
G3 X45.15736040609137 Y35.233502538071065 I-1.1395939086294418 J1.1395939086294418
G3 X45.28172588832487 Y35.8502538071066 I-1.4898477157360408 J0.616751269035533
G1 X45.28172588832487 Y60.4492385786802
G3 X45.15736040609137 Y61.068527918781726 I-1.6116751269035534 J0
G3 X44.809644670050766 Y61.59137055837563 I-1.4898477157360408 J-0.616751269035533
G3 X44.286802030456855 Y61.93908629441624 I-1.1395939086294418 J-1.1395939086294418
G3 X43.66751269035533 Y62.06345177664975 I-0.616751269035533 J-1.4898477157360408
G1 X36.068527918781726 Y62.06345177664975
G3 X35.45177664974619 Y61.93908629441624 I0 J-1.6116751269035534
G3 X34.92893401015229 Y61.59137055837563 I0.616751269035533 J-1.4898477157360408
G3 X34.578680203045685 Y61.068527918781726 I1.1395939086294418 J-1.1395939086294418
G3 X34.45685279187818 Y60.4492385786802 I1.4898477157360408 J-0.616751269035533
G0 Z1
G0 X39.53604060913705 Y56.98274111675127
G1 Z-3.6715736040609137 F200
G1 X39.535532994923855 Y39.317258883248726 F400
G1 X40.2005076142132 Y39.317258883248726
G1 X40.2005076142132 Y56.982233502538065
G1 X39.535532994923855 Y56.982233502538065
G1 X36.99593908629441 Y59.52284263959391 F400
G1 X36.99492385786802 Y36.776649746192895 F400
G1 X42.74111675126903 Y36.776649746192895
G1 X42.74111675126903 Y59.52284263959391
G1 X36.99492385786802 Y59.52284263959391
G1 X34.456091370558376 Y60.4502538071066 F400
G1 X34.45685279187818 Y35.8502538071066 F400
G3 X34.578680203045685 Y35.233502538071065 I1.6116751269035534 J0
G3 X34.92893401015229 Y34.710659898477154 I1.4898477157360408 J0.616751269035533
G3 X35.45177664974619 Y34.36040609137056 I1.1395939086294418 J1.1395939086294418
G3 X36.068527918781726 Y34.23857868020305 I0.616751269035533 J1.4898477157360408
G1 X43.66751269035533 Y34.23857868020305
G3 X44.286802030456855 Y34.36040609137056 I0 J1.6116751269035534
G3 X44.809644670050766 Y34.710659898477154 I-0.616751269035533 J1.4898477157360408
G3 X45.15736040609137 Y35.233502538071065 I-1.1395939086294418 J1.1395939086294418
G3 X45.28172588832487 Y35.8502538071066 I-1.4898477157360408 J0.616751269035533
G1 X45.28172588832487 Y60.4492385786802
G3 X45.15736040609137 Y61.068527918781726 I-1.6116751269035534 J0
G3 X44.809644670050766 Y61.59137055837563 I-1.4898477157360408 J-0.616751269035533
G3 X44.286802030456855 Y61.93908629441624 I-1.1395939086294418 J-1.1395939086294418
G3 X43.66751269035533 Y62.06345177664975 I-0.616751269035533 J-1.4898477157360408
G1 X36.068527918781726 Y62.06345177664975
G3 X35.45177664974619 Y61.93908629441624 I0 J-1.6116751269035534
G3 X34.92893401015229 Y61.59137055837563 I0.616751269035533 J-1.4898477157360408
G3 X34.578680203045685 Y61.068527918781726 I1.1395939086294418 J-1.1395939086294418
G3 X34.45685279187818 Y60.4492385786802 I1.4898477157360408 J-0.616751269035533
G0 Z1
G0 X39.53604060913705 Y56.98274111675127
G1 Z-3.7464467005076143 F200
G1 X39.535532994923855 Y39.317258883248726 F400
G1 X40.2005076142132 Y39.317258883248726
G1 X40.2005076142132 Y56.982233502538065
G1 X39.535532994923855 Y56.982233502538065
G1 X36.99593908629441 Y59.52284263959391 F400
G1 X36.99492385786802 Y36.776649746192895 F400
G1 X42.74111675126903 Y36.776649746192895
G1 X42.74111675126903 Y59.52284263959391
G1 X36.99492385786802 Y59.52284263959391
G1 X34.456091370558376 Y60.4502538071066 F400
G1 X34.45685279187818 Y35.8502538071066 F400
G3 X34.578680203045685 Y35.233502538071065 I1.6116751269035534 J0
G3 X34.92893401015229 Y34.710659898477154 I1.4898477157360408 J0.616751269035533
G3 X35.45177664974619 Y34.36040609137056 I1.1395939086294418 J1.1395939086294418
G3 X36.068527918781726 Y34.23857868020305 I0.616751269035533 J1.4898477157360408
G1 X43.66751269035533 Y34.23857868020305
G3 X44.286802030456855 Y34.36040609137056 I0 J1.6116751269035534
G3 X44.809644670050766 Y34.710659898477154 I-0.616751269035533 J1.4898477157360408
G3 X45.15736040609137 Y35.233502538071065 I-1.1395939086294418 J1.1395939086294418
G3 X45.28172588832487 Y35.8502538071066 I-1.4898477157360408 J0.616751269035533
G1 X45.28172588832487 Y60.4492385786802
G3 X45.15736040609137 Y61.068527918781726 I-1.6116751269035534 J0
G3 X44.809644670050766 Y61.59137055837563 I-1.4898477157360408 J-0.616751269035533
G3 X44.286802030456855 Y61.93908629441624 I-1.1395939086294418 J-1.1395939086294418
G3 X43.66751269035533 Y62.06345177664975 I-0.616751269035533 J-1.4898477157360408
G1 X36.068527918781726 Y62.06345177664975
G3 X35.45177664974619 Y61.93908629441624 I0 J-1.6116751269035534
G3 X34.92893401015229 Y61.59137055837563 I0.616751269035533 J-1.4898477157360408
G3 X34.578680203045685 Y61.068527918781726 I1.1395939086294418 J-1.1395939086294418
G3 X34.45685279187818 Y60.4492385786802 I1.4898477157360408 J-0.616751269035533
G0 Z1
G0 X39.53604060913705 Y56.98274111675127
G1 Z-3.8215736040609136 F200
G1 X39.535532994923855 Y39.317258883248726 F400
G1 X40.2005076142132 Y39.317258883248726
G1 X40.2005076142132 Y56.982233502538065
G1 X39.535532994923855 Y56.982233502538065
G1 X36.99593908629441 Y59.52284263959391 F400
G1 X36.99492385786802 Y36.776649746192895 F400
G1 X42.74111675126903 Y36.776649746192895
G1 X42.74111675126903 Y59.52284263959391
G1 X36.99492385786802 Y59.52284263959391
G1 X34.456091370558376 Y60.4502538071066 F400
G1 X34.45685279187818 Y35.8502538071066 F400
G3 X34.578680203045685 Y35.233502538071065 I1.6116751269035534 J0
G3 X34.92893401015229 Y34.710659898477154 I1.4898477157360408 J0.616751269035533
G3 X35.45177664974619 Y34.36040609137056 I1.1395939086294418 J1.1395939086294418
G3 X36.068527918781726 Y34.23857868020305 I0.616751269035533 J1.4898477157360408
G1 X43.66751269035533 Y34.23857868020305
G3 X44.286802030456855 Y34.36040609137056 I0 J1.6116751269035534
G3 X44.809644670050766 Y34.710659898477154 I-0.616751269035533 J1.4898477157360408
G3 X45.15736040609137 Y35.233502538071065 I-1.1395939086294418 J1.1395939086294418
G3 X45.28172588832487 Y35.8502538071066 I-1.4898477157360408 J0.616751269035533
G1 X45.28172588832487 Y60.4492385786802
G3 X45.15736040609137 Y61.068527918781726 I-1.6116751269035534 J0
G3 X44.809644670050766 Y61.59137055837563 I-1.4898477157360408 J-0.616751269035533
G3 X44.286802030456855 Y61.93908629441624 I-1.1395939086294418 J-1.1395939086294418
G3 X43.66751269035533 Y62.06345177664975 I-0.616751269035533 J-1.4898477157360408
G1 X36.068527918781726 Y62.06345177664975
G3 X35.45177664974619 Y61.93908629441624 I0 J-1.6116751269035534
G3 X34.92893401015229 Y61.59137055837563 I0.616751269035533 J-1.4898477157360408
G3 X34.578680203045685 Y61.068527918781726 I1.1395939086294418 J-1.1395939086294418
G3 X34.45685279187818 Y60.4492385786802 I1.4898477157360408 J-0.616751269035533
G0 Z1
G0 X39.53604060913705 Y56.98274111675127
G1 Z-3.896446700507614 F200
G1 X39.535532994923855 Y39.317258883248726 F400
G1 X40.2005076142132 Y39.317258883248726
G1 X40.2005076142132 Y56.982233502538065
G1 X39.535532994923855 Y56.982233502538065
G1 X36.99593908629441 Y59.52284263959391 F400
G1 X36.99492385786802 Y36.776649746192895 F400
G1 X42.74111675126903 Y36.776649746192895
G1 X42.74111675126903 Y59.52284263959391
G1 X36.99492385786802 Y59.52284263959391
G1 X34.456091370558376 Y60.4502538071066 F400
G1 X34.45685279187818 Y35.8502538071066 F400
G3 X34.578680203045685 Y35.233502538071065 I1.6116751269035534 J0
G3 X34.92893401015229 Y34.710659898477154 I1.4898477157360408 J0.616751269035533
G3 X35.45177664974619 Y34.36040609137056 I1.1395939086294418 J1.1395939086294418
G3 X36.068527918781726 Y34.23857868020305 I0.616751269035533 J1.4898477157360408
G1 X43.66751269035533 Y34.23857868020305
G3 X44.286802030456855 Y34.36040609137056 I0 J1.6116751269035534
G3 X44.809644670050766 Y34.710659898477154 I-0.616751269035533 J1.4898477157360408
G3 X45.15736040609137 Y35.233502538071065 I-1.1395939086294418 J1.1395939086294418
G3 X45.28172588832487 Y35.8502538071066 I-1.4898477157360408 J0.616751269035533
G1 X45.28172588832487 Y60.4492385786802
G3 X45.15736040609137 Y61.068527918781726 I-1.6116751269035534 J0
G3 X44.809644670050766 Y61.59137055837563 I-1.4898477157360408 J-0.616751269035533
G3 X44.286802030456855 Y61.93908629441624 I-1.1395939086294418 J-1.1395939086294418
G3 X43.66751269035533 Y62.06345177664975 I-0.616751269035533 J-1.4898477157360408
G1 X36.068527918781726 Y62.06345177664975
G3 X35.45177664974619 Y61.93908629441624 I0 J-1.6116751269035534
G3 X34.92893401015229 Y61.59137055837563 I0.616751269035533 J-1.4898477157360408
