(Generated by PartKam Version 0.05)

G21 G90 G40

(motor_inlay_front)
G0 Z1
T0 M6
G17
M3
G0 X30.217258883248732 Y26.880964467005075
G1 Z-0.1 F200
G3 X30.703045685279186 Y27.46954314720812 I-2.8705583756345177 J2.8705583756345177 F400
G3 X30.799492385786806 Y27.64467005076142 I-0.8045685279187818 J0.5456852791878173
G3 X30.855329949238577 Y27.83248730964467 I-0.8984771573604061 J0.3730964467005076
G3 X30.926395939086294 Y28.59390862944162 I-3.9873096446700504 J0.7614213197969544
G3 X30.855329949238577 Y29.355329949238577 I-4.058375634517766 J0
G3 X30.799492385786806 Y29.54314720812183 I-0.9543147208121827 J-0.18274111675126906
G3 X30.703045685279186 Y29.71827411167513 I-0.8984771573604061 J-0.3730964467005076
G3 X30.218274111675125 Y30.307106598984774 I-3.3553299492385786 J-2.281725888324873
G3 X29.62944162436548 Y30.794416243654823 I-2.8705583756345177 J-2.8705583756345177
G3 X29.45431472081218 Y30.888324873096447 I-0.5456852791878173 J-0.8045685279187818
G3 X29.263959390862944 Y30.944162436548226 I-0.3730964467005076 J-0.8984771573604061
G3 X28.50507614213198 Y31.017766497461928 I-0.7614213197969544 J-3.9873096446700504
G3 X27.743654822335024 Y30.944162436548226 I0 J-4.058375634517766
G3 X27.553299492385786 Y30.888324873096447 I0.18274111675126906 J-0.9543147208121827
G3 X27.380710659898476 Y30.794416243654823 I0.3730964467005076 J-0.8984771573604061
G3 X26.791878172588834 Y30.307106598984774 I2.281725888324873 J-3.3553299492385786
G3 X26.304568527918782 Y29.71827411167513 I2.8705583756345177 J-2.8705583756345177
G3 X26.210659898477154 Y29.54314720812183 I0.8045685279187818 J-0.5456852791878173
G3 X26.154822335025383 Y29.355329949238577 I0.8984771573604061 J-0.3730964467005076
G3 X26.081218274111677 Y28.59390862944162 I3.9873096446700504 J-0.7614213197969544
G3 X26.154822335025383 Y27.83248730964467 I4.058375634517766 J0
G3 X26.210659898477154 Y27.64467005076142 I0.9543147208121827 J0.18274111675126906
G3 X26.304568527918782 Y27.46954314720812 I0.8984771573604061 J0.3730964467005076
G3 X26.791878172588834 Y26.880710659898476 I3.3553299492385786 J2.281725888324873
G3 X27.380710659898476 Y26.393401015228427 I2.8705583756345177 J2.8705583756345177
G3 X27.553299492385786 Y26.299492385786802 I0.5456852791878173 J0.8045685279187818
G3 X27.743654822335024 Y26.243654822335024 I0.3730964467005076 J0.8984771573604061
G3 X28.50507614213198 Y26.17258883248731 I0.7614213197969544 J3.9873096446700504
G3 X29.263959390862944 Y26.243654822335024 I0 J4.058375634517766
G3 X29.45431472081218 Y26.299492385786802 I-0.18274111675126906 J0.9543147208121827
G3 X29.62944162436548 Y26.393401015228427 I-0.3730964467005076 J0.8984771573604061
G3 X30.218274111675125 Y26.880710659898476 I-2.281725888324873 J3.3553299492385786
G1 X32.013451776649745 Y25.08502538071066 F400
G3 X32.80456852791878 Y26.04060913705584 I-4.66497461928934 J4.66497461928934 F400
G3 X33.14467005076142 Y26.67258883248731 I-2.9035532994923856 J1.9746192893401016
G3 X33.3502538071066 Y27.35786802030457 I-3.2436548223350252 J1.3451776649746192
G3 X33.46700507614213 Y28.59390862944162 I-6.482233502538071 J1.236040609137056
G3 X33.3502538071066 Y29.82994923857868 I-6.598984771573604 J0
G3 X33.14467005076142 Y30.51522842639594 I-3.449238578680203 J-0.6573604060913706
G3 X32.80456852791878 Y31.14720812182741 I-3.2436548223350252 J-1.3451776649746192
G3 X32.01269035532995 Y32.10406091370559 I-5.456852791878173 J-3.708121827411168
G3 X31.055837563451778 Y32.89340101522843 I-4.66497461928934 J-4.66497461928934
G3 X30.42639593908629 Y33.233502538071065 I-1.9746192893401016 J-2.9035532994923856
G3 X29.741116751269033 Y33.43908629441624 I-1.3451776649746192 J-3.2436548223350252
G3 X28.50507614213198 Y33.555837563451774 I-1.236040609137056 J-6.482233502538071
G3 X27.269035532994927 Y33.43908629441624 I0 J-6.598984771573604
G3 X26.581218274111677 Y33.233502538071065 I0.6573604060913706 J-3.449238578680203
G3 X25.951776649746193 Y32.89340101522843 I1.3451776649746192 J-3.2436548223350252
G3 X24.99492385786802 Y32.10406091370559 I3.708121827411168 J-5.456852791878173
G3 X24.203045685279186 Y31.14720812182741 I4.66497461928934 J-4.66497461928934
G3 X23.86294416243655 Y30.51522842639594 I2.9035532994923856 J-1.9746192893401016
G3 X23.659898477157363 Y29.82994923857868 I3.2436548223350252 J-1.3451776649746192
G3 X23.54314720812183 Y28.59390862944162 I6.482233502538071 J-1.236040609137056
G3 X23.659898477157363 Y27.35786802030457 I6.598984771573604 J0
G3 X23.86294416243655 Y26.67258883248731 I3.449238578680203 J0.6573604060913706
G3 X24.203045685279186 Y26.04060913705584 I3.2436548223350252 J1.3451776649746192
G3 X24.99492385786802 Y25.08375634517766 I5.456852791878173 J3.708121827411168
G3 X25.951776649746193 Y24.294416243654823 I4.66497461928934 J4.66497461928934
G3 X26.581218274111677 Y23.954314720812185 I1.9746192893401016 J2.9035532994923856
G3 X27.269035532994927 Y23.748730964467004 I1.3451776649746192 J3.2436548223350252
G3 X28.50507614213198 Y23.631979695431472 I1.236040609137056 J6.482233502538071
G3 X29.741116751269033 Y23.748730964467004 I0 J6.598984771573604
G3 X30.42639593908629 Y23.954314720812185 I-0.6573604060913706 J3.449238578680203
G3 X31.055837563451778 Y24.294416243654823 I-1.3451776649746192 J3.2436548223350252
G3 X32.01269035532995 Y25.08375634517766 I-3.708121827411168 J5.456852791878173
G1 X33.80939086294416 Y23.288832487309644 F400
G3 X34.90609137055837 Y24.614213197969544 I-6.461928934010153 J6.461928934010153 F400
G3 X35.49238578680203 Y25.7005076142132 I-5.00507614213198 J3.401015228426396
G3 X35.84517766497462 Y26.880710659898476 I-5.591370558375635 J2.314720812182741
G3 X36.00761421319797 Y28.59390862944162 I-8.977157360406093 J1.7131979695431472
G3 X35.84517766497462 Y30.307106598984774 I-9.137055837563452 J0
G3 X35.49238578680203 Y31.48730964467005 I-5.944162436548224 J-1.134517766497462
G3 X34.90609137055837 Y32.57360406091371 I-5.591370558375635 J-2.314720812182741
G3 X33.80964467005076 Y33.898477157360404 I-7.558375634517766 J-5.1370558375634525
G3 X32.48477157360406 Y34.994923857868024 I-6.461928934010153 J-6.461928934010153
G3 X31.398477157360407 Y35.58121827411168 I-3.401015228426396 J-5.00507614213198
G3 X30.215736040609137 Y35.934010152284266 I-2.314720812182741 J-5.591370558375635
G3 X28.50507614213198 Y36.09644670050761 I-1.7131979695431472 J-8.977157360406093
G3 X26.791878172588834 Y35.934010152284266 I0 J-9.137055837563452
G3 X25.609137055837564 Y35.58121827411168 I1.134517766497462 J-5.944162436548224
G3 X24.525380710659896 Y34.994923857868024 I2.314720812182741 J-5.591370558375635
G3 X23.2005076142132 Y33.898477157360404 I5.1370558375634525 J-7.558375634517766
G3 X22.104060913705585 Y32.57360406091371 I6.461928934010153 J-6.461928934010153
G3 X21.517766497461928 Y31.48730964467005 I5.00507614213198 J-3.401015228426396
G3 X21.16497461928934 Y30.307106598984774 I5.591370558375635 J-2.314720812182741
G3 X21.002538071065988 Y28.59390862944162 I8.977157360406093 J-1.7131979695431472
G3 X21.16497461928934 Y26.880710659898476 I9.137055837563452 J0
G3 X21.517766497461928 Y25.7005076142132 I5.944162436548224 J1.134517766497462
G3 X22.104060913705585 Y24.614213197969544 I5.591370558375635 J2.314720812182741
G3 X23.2005076142132 Y23.289340101522843 I7.558375634517766 J5.1370558375634525
G3 X24.525380710659896 Y22.192893401015226 I6.461928934010153 J6.461928934010153
G3 X25.609137055837564 Y21.606598984771573 I3.401015228426396 J5.00507614213198
G3 X26.791878172588834 Y21.253807106598984 I2.314720812182741 J5.591370558375635
G3 X28.50507614213198 Y21.091370558375637 I1.7131979695431472 J8.977157360406093
G3 X30.215736040609137 Y21.253807106598984 I0 J9.137055837563452
G3 X31.398477157360407 Y21.606598984771573 I-1.134517766497462 J5.944162436548224
G3 X32.48477157360406 Y22.192893401015226 I-2.314720812182741 J5.591370558375635
G3 X33.80964467005076 Y23.289340101522843 I-5.1370558375634525 J7.558375634517766
G1 X35.605583756345176 Y21.492893401015227 F400
G3 X37.00761421319797 Y23.185279187817258 I-8.258883248730966 J8.258883248730966 F400
G3 X37.83756345177665 Y24.728426395939085 I-7.106598984771574 J4.82994923857868
G3 X38.34010152284264 Y26.40609137055838 I-7.936548223350254 J3.286802030456853
G3 X38.545685279187815 Y28.59390862944162 I-11.472081218274113 J2.1878172588832485
G3 X38.34010152284264 Y30.78172588832487 I-11.677664974619288 J0
G3 X37.83756345177665 Y32.45939086294416 I-8.439086294416244 J-1.6091370558375635
G3 X37.00761421319797 Y34.00253807106599 I-7.936548223350254 J-3.286802030456853
G3 X35.60659898477157 Y35.69543147208122 I-9.657360406091371 J-6.563451776649746
G3 X33.911167512690355 Y37.09644670050761 I-8.258883248730966 J-8.258883248730966
G3 X32.370558375634516 Y37.92893401015228 I-4.82994923857868 J-7.106598984771574
G3 X30.69289340101523 Y38.42893401015228 I-3.286802030456853 J-7.936548223350254
G3 X28.50507614213198 Y38.63705583756345 I-2.1878172588832485 J-11.472081218274113
G3 X26.31725888324873 Y38.42893401015228 I0 J-11.677664974619288
G3 X24.63705583756345 Y37.92893401015228 I1.6091370558375635 J-8.439086294416244
G3 X23.096446700507617 Y37.09644670050761 I3.286802030456853 J-7.936548223350254
G3 X21.403553299492387 Y35.69543147208122 I6.563451776649746 J-9.657360406091371
G3 X20.00253807106599 Y34.00253807106599 I8.258883248730966 J-8.258883248730966
G3 X19.17005076142132 Y32.45939086294416 I7.106598984771574 J-4.82994923857868
G3 X18.66751269035533 Y30.78172588832487 I7.936548223350254 J-3.286802030456853
G3 X18.461928934010153 Y28.59390862944162 I11.472081218274113 J-2.1878172588832485
G3 X18.66751269035533 Y26.40609137055838 I11.677664974619288 J0
G3 X19.17005076142132 Y24.728426395939085 I8.439086294416244 J1.6091370558375635
G3 X20.00253807106599 Y23.185279187817258 I7.936548223350254 J3.286802030456853
G3 X21.403553299492387 Y21.49238578680203 I9.657360406091371 J6.563451776649746
G3 X23.096446700507617 Y20.091370558375633 I8.258883248730966 J8.258883248730966
G3 X24.63705583756345 Y19.261421319796955 I4.82994923857868 J7.106598984771574
G3 X26.31725888324873 Y18.758883248730964 I3.286802030456853 J7.936548223350254
G3 X28.50507614213198 Y18.550761421319798 I2.1878172588832485 J11.472081218274113
G3 X30.69289340101523 Y18.758883248730964 I0 J11.677664974619288
G3 X32.370558375634516 Y19.261421319796955 I-1.6091370558375635 J8.439086294416244
G3 X33.911167512690355 Y20.091370558375633 I-3.286802030456853 J7.936548223350254
G3 X35.60659898477157 Y21.49238578680203 I-6.563451776649746 J9.657360406091371
G1 X37.401522842639594 Y19.696954314720813 F400
G3 X39.10659898477157 Y21.758883248730964 I-10.053299492385788 J10.053299492385788 F400
G3 X40.18527918781726 Y23.756345177664976 I-9.205583756345177 J6.256345177664975
G3 X40.83502538071066 Y25.928934010152282 I-10.284263959390863 J4.258883248730965
G3 X41.08629441624365 Y28.59390862944162 I-13.967005076142131 J2.66497461928934
G3 X40.83502538071066 Y31.258883248730967 I-14.218274111675127 J0
G3 X40.18527918781726 Y33.431472081218274 I-10.934010152284264 J-2.0862944162436547
G3 X39.10659898477157 Y35.42893401015228 I-10.284263959390863 J-4.258883248730965
G3 X37.401015228426395 Y37.49238578680203 I-11.758883248730964 J-7.992385786802031
G3 X35.34010152284264 Y39.19796954314721 I-10.053299492385788 J-10.053299492385788
G3 X33.34263959390863 Y40.2741116751269 I-6.256345177664975 J-9.205583756345177
G3 X31.167512690355327 Y40.923857868020306 I-4.258883248730965 J-10.284263959390863
G3 X28.50507614213198 Y41.17766497461929 I-2.66497461928934 J-13.967005076142131
G3 X25.84010152284264 Y40.923857868020306 I0 J-14.218274111675127
G3 X23.66497461928934 Y40.2741116751269 I2.0862944162436547 J-10.934010152284264
G3 X21.67005076142132 Y39.19796954314721 I4.258883248730965 J-10.284263959390863
G3 X19.606598984771573 Y37.49238578680203 I7.992385786802031 J-11.758883248730964
G3 X17.901015228426395 Y35.42893401015228 I10.053299492385788 J-10.053299492385788
G3 X16.8248730964467 Y33.431472081218274 I9.205583756345177 J-6.256345177664975
G3 X16.17258883248731 Y31.258883248730967 I10.284263959390863 J-4.258883248730965
G3 X15.921319796954315 Y28.59390862944162 I13.967005076142131 J-2.66497461928934
G3 X16.17258883248731 Y25.928934010152282 I14.218274111675127 J0
G3 X16.8248730964467 Y23.756345177664976 I10.934010152284264 J2.0862944162436547
G3 X17.901015228426395 Y21.758883248730964 I10.284263959390863 J4.258883248730965
G3 X19.606598984771573 Y19.69796954314721 I11.758883248730964 J7.992385786802031
G3 X21.67005076142132 Y17.99238578680203 I10.053299492385788 J10.053299492385788
G3 X23.66497461928934 Y16.913705583756343 I6.256345177664975 J9.205583756345177
G3 X25.84010152284264 Y16.263959390862944 I4.258883248730965 J10.284263959390863
G3 X28.50507614213198 Y16.012690355329948 I2.66497461928934 J13.967005076142131
G3 X31.167512690355327 Y16.263959390862944 I0 J14.218274111675127
G3 X33.34263959390863 Y16.913705583756343 I-2.0862944162436547 J10.934010152284264
G3 X35.34010152284264 Y17.99238578680203 I-4.258883248730965 J10.284263959390863
G3 X37.401015228426395 Y19.69796954314721 I-7.992385786802031 J11.758883248730964
G1 X39.19771573604061 Y17.900761421319796 F400
G3 X41.20812182741116 Y20.329949238578678 I-11.850253807106599 J11.850253807106599 F400
G3 X42.530456852791886 Y22.784263959390863 I-11.30710659898477 J7.685279187817259
G3 X43.32994923857868 Y25.454314720812185 I-12.631979695431472 J5.230964467005076
G3 X43.62690355329949 Y28.59390862944162 I-16.461928934010153 J3.1395939086294415
G3 X43.32994923857868 Y31.733502538071065 I-16.758883248730964 J0
G3 X42.530456852791886 Y34.40355329949239 I-13.428934010152284 J-2.560913705583756
G3 X41.20812182741116 Y36.85786802030457 I-12.631979695431472 J-5.230964467005076
G3 X39.19796954314721 Y39.286802030456855 I-13.860406091370558 J-9.418781725888325
G3 X36.766497461928935 Y41.29695431472081 I-11.850253807106599 J-11.850253807106599
G3 X34.31472081218274 Y42.621827411167516 I-7.685279187817259 J-11.30710659898477
G3 X31.644670050761423 Y43.41878172588832 I-5.230964467005076 J-12.631979695431472
G3 X28.50507614213198 Y43.71573604060914 I-3.1395939086294415 J-16.461928934010153
G3 X25.365482233502537 Y43.41878172588832 I0 J-16.758883248730964
G3 X22.695431472081218 Y42.621827411167516 I2.560913705583756 J-13.428934010152284
G3 X20.241116751269036 Y41.29695431472081 I5.230964467005076 J-12.631979695431472
G3 X17.81218274111675 Y39.286802030456855 I9.418781725888325 J-13.860406091370558
G3 X15.80203045685279 Y36.85786802030457 I11.850253807106599 J-11.850253807106599
G3 X14.477157360406093 Y34.40355329949239 I11.30710659898477 J-7.685279187817259
G3 X13.67766497461929 Y31.733502538071065 I12.631979695431472 J-5.230964467005076
G3 X13.380710659898478 Y28.59390862944162 I16.461928934010153 J-3.1395939086294415
G3 X13.67766497461929 Y25.454314720812185 I16.758883248730964 J0
G3 X14.477157360406093 Y22.784263959390863 I13.428934010152284 J2.560913705583756
G3 X15.80203045685279 Y20.329949238578678 I12.631979695431472 J5.230964467005076
G3 X17.81218274111675 Y17.901015228426395 I13.860406091370558 J9.418781725888325
G3 X20.241116751269036 Y15.890862944162436 I11.850253807106599 J11.850253807106599
G3 X22.695431472081218 Y14.565989847715738 I7.685279187817259 J11.30710659898477
G3 X25.365482233502537 Y13.769035532994923 I5.230964467005076 J12.631979695431472
G3 X28.50507614213198 Y13.472081218274113 I3.1395939086294415 J16.461928934010153
G3 X31.644670050761423 Y13.769035532994923 I0 J16.758883248730964
G3 X34.31472081218274 Y14.565989847715738 I-2.560913705583756 J13.428934010152284
G3 X36.766497461928935 Y15.890862944162436 I-5.230964467005076 J12.631979695431472
G3 X39.19796954314721 Y17.901015228426395 I-9.418781725888325 J13.860406091370558
G1 X40.993654822335024 Y16.104822335025382 F400
G3 X43.30964467005076 Y18.903553299492387 I-13.64467005076142 J13.64467005076142 F400
G3 X44.878172588832484 Y21.81218274111675 I-13.408629441624365 J9.111675126903553
G3 X45.8248730964467 Y24.977157360406093 I-14.97715736040609 J6.203045685279188
G3 X46.16751269035533 Y28.59390862944162 I-18.95685279187817 J3.6167512690355332
G3 X45.8248730964467 Y32.210659898477154 I-19.29695431472081 J0
G3 X44.878172588832484 Y35.3756345177665 I-15.923857868020303 J-3.0380710659898473
G3 X43.30964467005076 Y38.28426395939086 I-14.97715736040609 J-6.203045685279188
G3 X40.994923857868024 Y41.08375634517767 I-15.961928934010153 J-10.847715736040609
G3 X38.19543147208122 Y43.39847715736041 I-13.64467005076142 J-13.64467005076142
G3 X35.286802030456855 Y44.96700507614214 I-9.111675126903553 J-13.408629441624365
G3 X32.119289340101524 Y45.91370558375634 I-6.203045685279188 J-14.97715736040609
G3 X28.50507614213198 Y46.25634517766497 I-3.6167512690355332 J-18.95685279187817
G3 X24.888324873096444 Y45.91370558375634 I0 J-19.29695431472081
G3 X21.72335025380711 Y44.96700507614214 I3.0380710659898473 J-15.923857868020303
G3 X18.814720812182742 Y43.39847715736041 I6.203045685279188 J-14.97715736040609
G3 X16.01522842639594 Y41.08375634517767 I10.847715736040609 J-15.961928934010153
G3 X13.700507614213198 Y38.28426395939086 I13.64467005076142 J-13.64467005076142
G3 X12.129441624365482 Y35.3756345177665 I13.408629441624365 J-9.111675126903553
G3 X11.18274111675127 Y32.210659898477154 I14.97715736040609 J-6.203045685279188
G3 X10.842639593908629 Y28.59390862944162 I18.95685279187817 J-3.6167512690355332
G3 X11.18274111675127 Y24.977157360406093 I19.29695431472081 J0
G3 X12.129441624365482 Y21.81218274111675 I15.923857868020303 J3.0380710659898473
G3 X13.700507614213198 Y18.903553299492387 I14.97715736040609 J6.203045685279188
G3 X16.01522842639594 Y16.104060913705585 I15.961928934010153 J10.847715736040609
G3 X18.814720812182742 Y13.789340101522843 I13.64467005076142 J13.64467005076142
G3 X21.72335025380711 Y12.220812182741117 I9.111675126903553 J13.408629441624365
G3 X24.888324873096444 Y11.274111675126903 I6.203045685279188 J14.97715736040609
G3 X28.50507614213198 Y10.931472081218274 I3.6167512690355332 J18.95685279187817
G3 X32.119289340101524 Y11.274111675126903 I0 J19.29695431472081
G3 X35.286802030456855 Y12.220812182741117 I-3.0380710659898473 J15.923857868020303
G3 X38.19543147208122 Y13.789340101522843 I-6.203045685279188 J14.97715736040609
G3 X40.994923857868024 Y16.104060913705585 I-10.847715736040609 J15.961928934010153
G0 Z1
G0 X30.217258883248732 Y26.880964467005075
G1 Z-0.2 F200
G3 X30.703045685279186 Y27.46954314720812 I-2.8705583756345177 J2.8705583756345177 F400
G3 X30.799492385786806 Y27.64467005076142 I-0.8045685279187818 J0.5456852791878173
G3 X30.855329949238577 Y27.83248730964467 I-0.8984771573604061 J0.3730964467005076
G3 X30.926395939086294 Y28.59390862944162 I-3.9873096446700504 J0.7614213197969544
G3 X30.855329949238577 Y29.355329949238577 I-4.058375634517766 J0
G3 X30.799492385786806 Y29.54314720812183 I-0.9543147208121827 J-0.18274111675126906
G3 X30.703045685279186 Y29.71827411167513 I-0.8984771573604061 J-0.3730964467005076
G3 X30.218274111675125 Y30.307106598984774 I-3.3553299492385786 J-2.281725888324873
G3 X29.62944162436548 Y30.794416243654823 I-2.8705583756345177 J-2.8705583756345177
G3 X29.45431472081218 Y30.888324873096447 I-0.5456852791878173 J-0.8045685279187818
G3 X29.263959390862944 Y30.944162436548226 I-0.3730964467005076 J-0.8984771573604061
G3 X28.50507614213198 Y31.017766497461928 I-0.7614213197969544 J-3.9873096446700504
G3 X27.743654822335024 Y30.944162436548226 I0 J-4.058375634517766
G3 X27.553299492385786 Y30.888324873096447 I0.18274111675126906 J-0.9543147208121827
G3 X27.380710659898476 Y30.794416243654823 I0.3730964467005076 J-0.8984771573604061
G3 X26.791878172588834 Y30.307106598984774 I2.281725888324873 J-3.3553299492385786
G3 X26.304568527918782 Y29.71827411167513 I2.8705583756345177 J-2.8705583756345177
G3 X26.210659898477154 Y29.54314720812183 I0.8045685279187818 J-0.5456852791878173
G3 X26.154822335025383 Y29.355329949238577 I0.8984771573604061 J-0.3730964467005076
G3 X26.081218274111677 Y28.59390862944162 I3.9873096446700504 J-0.7614213197969544
G3 X26.154822335025383 Y27.83248730964467 I4.058375634517766 J0
G3 X26.210659898477154 Y27.64467005076142 I0.9543147208121827 J0.18274111675126906
G3 X26.304568527918782 Y27.46954314720812 I0.8984771573604061 J0.3730964467005076
G3 X26.791878172588834 Y26.880710659898476 I3.3553299492385786 J2.281725888324873
G3 X27.380710659898476 Y26.393401015228427 I2.8705583756345177 J2.8705583756345177
G3 X27.553299492385786 Y26.299492385786802 I0.5456852791878173 J0.8045685279187818
G3 X27.743654822335024 Y26.243654822335024 I0.3730964467005076 J0.8984771573604061
G3 X28.50507614213198 Y26.17258883248731 I0.7614213197969544 J3.9873096446700504
G3 X29.263959390862944 Y26.243654822335024 I0 J4.058375634517766
G3 X29.45431472081218 Y26.299492385786802 I-0.18274111675126906 J0.9543147208121827
G3 X29.62944162436548 Y26.393401015228427 I-0.3730964467005076 J0.8984771573604061
G3 X30.218274111675125 Y26.880710659898476 I-2.281725888324873 J3.3553299492385786
G1 X32.013451776649745 Y25.08502538071066 F400
G3 X32.80456852791878 Y26.04060913705584 I-4.66497461928934 J4.66497461928934 F400
G3 X33.14467005076142 Y26.67258883248731 I-2.9035532994923856 J1.9746192893401016
G3 X33.3502538071066 Y27.35786802030457 I-3.2436548223350252 J1.3451776649746192
G3 X33.46700507614213 Y28.59390862944162 I-6.482233502538071 J1.236040609137056
G3 X33.3502538071066 Y29.82994923857868 I-6.598984771573604 J0
G3 X33.14467005076142 Y30.51522842639594 I-3.449238578680203 J-0.6573604060913706
G3 X32.80456852791878 Y31.14720812182741 I-3.2436548223350252 J-1.3451776649746192
G3 X32.01269035532995 Y32.10406091370559 I-5.456852791878173 J-3.708121827411168
G3 X31.055837563451778 Y32.89340101522843 I-4.66497461928934 J-4.66497461928934
G3 X30.42639593908629 Y33.233502538071065 I-1.9746192893401016 J-2.9035532994923856
G3 X29.741116751269033 Y33.43908629441624 I-1.3451776649746192 J-3.2436548223350252
G3 X28.50507614213198 Y33.555837563451774 I-1.236040609137056 J-6.482233502538071
G3 X27.269035532994927 Y33.43908629441624 I0 J-6.598984771573604
G3 X26.581218274111677 Y33.233502538071065 I0.6573604060913706 J-3.449238578680203
G3 X25.951776649746193 Y32.89340101522843 I1.3451776649746192 J-3.2436548223350252
G3 X24.99492385786802 Y32.10406091370559 I3.708121827411168 J-5.456852791878173
G3 X24.203045685279186 Y31.14720812182741 I4.66497461928934 J-4.66497461928934
G3 X23.86294416243655 Y30.51522842639594 I2.9035532994923856 J-1.9746192893401016
G3 X23.659898477157363 Y29.82994923857868 I3.2436548223350252 J-1.3451776649746192
G3 X23.54314720812183 Y28.59390862944162 I6.482233502538071 J-1.236040609137056
G3 X23.659898477157363 Y27.35786802030457 I6.598984771573604 J0
G3 X23.86294416243655 Y26.67258883248731 I3.449238578680203 J0.6573604060913706
G3 X24.203045685279186 Y26.04060913705584 I3.2436548223350252 J1.3451776649746192
G3 X24.99492385786802 Y25.08375634517766 I5.456852791878173 J3.708121827411168
G3 X25.951776649746193 Y24.294416243654823 I4.66497461928934 J4.66497461928934
G3 X26.581218274111677 Y23.954314720812185 I1.9746192893401016 J2.9035532994923856
G3 X27.269035532994927 Y23.748730964467004 I1.3451776649746192 J3.2436548223350252
G3 X28.50507614213198 Y23.631979695431472 I1.236040609137056 J6.482233502538071
G3 X29.741116751269033 Y23.748730964467004 I0 J6.598984771573604
G3 X30.42639593908629 Y23.954314720812185 I-0.6573604060913706 J3.449238578680203
G3 X31.055837563451778 Y24.294416243654823 I-1.3451776649746192 J3.2436548223350252
G3 X32.01269035532995 Y25.08375634517766 I-3.708121827411168 J5.456852791878173
G1 X33.80939086294416 Y23.288832487309644 F400
G3 X34.90609137055837 Y24.614213197969544 I-6.461928934010153 J6.461928934010153 F400
G3 X35.49238578680203 Y25.7005076142132 I-5.00507614213198 J3.401015228426396
G3 X35.84517766497462 Y26.880710659898476 I-5.591370558375635 J2.314720812182741
G3 X36.00761421319797 Y28.59390862944162 I-8.977157360406093 J1.7131979695431472
G3 X35.84517766497462 Y30.307106598984774 I-9.137055837563452 J0
G3 X35.49238578680203 Y31.48730964467005 I-5.944162436548224 J-1.134517766497462
G3 X34.90609137055837 Y32.57360406091371 I-5.591370558375635 J-2.314720812182741
G3 X33.80964467005076 Y33.898477157360404 I-7.558375634517766 J-5.1370558375634525
G3 X32.48477157360406 Y34.994923857868024 I-6.461928934010153 J-6.461928934010153
G3 X31.398477157360407 Y35.58121827411168 I-3.401015228426396 J-5.00507614213198
G3 X30.215736040609137 Y35.934010152284266 I-2.314720812182741 J-5.591370558375635
G3 X28.50507614213198 Y36.09644670050761 I-1.7131979695431472 J-8.977157360406093
G3 X26.791878172588834 Y35.934010152284266 I0 J-9.137055837563452
G3 X25.609137055837564 Y35.58121827411168 I1.134517766497462 J-5.944162436548224
G3 X24.525380710659896 Y34.994923857868024 I2.314720812182741 J-5.591370558375635
G3 X23.2005076142132 Y33.898477157360404 I5.1370558375634525 J-7.558375634517766
G3 X22.104060913705585 Y32.57360406091371 I6.461928934010153 J-6.461928934010153
G3 X21.517766497461928 Y31.48730964467005 I5.00507614213198 J-3.401015228426396
G3 X21.16497461928934 Y30.307106598984774 I5.591370558375635 J-2.314720812182741
G3 X21.002538071065988 Y28.59390862944162 I8.977157360406093 J-1.7131979695431472
G3 X21.16497461928934 Y26.880710659898476 I9.137055837563452 J0
G3 X21.517766497461928 Y25.7005076142132 I5.944162436548224 J1.134517766497462
G3 X22.104060913705585 Y24.614213197969544 I5.591370558375635 J2.314720812182741
G3 X23.2005076142132 Y23.289340101522843 I7.558375634517766 J5.1370558375634525
G3 X24.525380710659896 Y22.192893401015226 I6.461928934010153 J6.461928934010153
G3 X25.609137055837564 Y21.606598984771573 I3.401015228426396 J5.00507614213198
G3 X26.791878172588834 Y21.253807106598984 I2.314720812182741 J5.591370558375635
G3 X28.50507614213198 Y21.091370558375637 I1.7131979695431472 J8.977157360406093
G3 X30.215736040609137 Y21.253807106598984 I0 J9.137055837563452
G3 X31.398477157360407 Y21.606598984771573 I-1.134517766497462 J5.944162436548224
G3 X32.48477157360406 Y22.192893401015226 I-2.314720812182741 J5.591370558375635
G3 X33.80964467005076 Y23.289340101522843 I-5.1370558375634525 J7.558375634517766
G1 X35.605583756345176 Y21.492893401015227 F400
G3 X37.00761421319797 Y23.185279187817258 I-8.258883248730966 J8.258883248730966 F400
G3 X37.83756345177665 Y24.728426395939085 I-7.106598984771574 J4.82994923857868
G3 X38.34010152284264 Y26.40609137055838 I-7.936548223350254 J3.286802030456853
G3 X38.545685279187815 Y28.59390862944162 I-11.472081218274113 J2.1878172588832485
G3 X38.34010152284264 Y30.78172588832487 I-11.677664974619288 J0
G3 X37.83756345177665 Y32.45939086294416 I-8.439086294416244 J-1.6091370558375635
G3 X37.00761421319797 Y34.00253807106599 I-7.936548223350254 J-3.286802030456853
G3 X35.60659898477157 Y35.69543147208122 I-9.657360406091371 J-6.563451776649746
G3 X33.911167512690355 Y37.09644670050761 I-8.258883248730966 J-8.258883248730966
G3 X32.370558375634516 Y37.92893401015228 I-4.82994923857868 J-7.106598984771574
G3 X30.69289340101523 Y38.42893401015228 I-3.286802030456853 J-7.936548223350254
G3 X28.50507614213198 Y38.63705583756345 I-2.1878172588832485 J-11.472081218274113
G3 X26.31725888324873 Y38.42893401015228 I0 J-11.677664974619288
G3 X24.63705583756345 Y37.92893401015228 I1.6091370558375635 J-8.439086294416244
G3 X23.096446700507617 Y37.09644670050761 I3.286802030456853 J-7.936548223350254
G3 X21.403553299492387 Y35.69543147208122 I6.563451776649746 J-9.657360406091371
G3 X20.00253807106599 Y34.00253807106599 I8.258883248730966 J-8.258883248730966
G3 X19.17005076142132 Y32.45939086294416 I7.106598984771574 J-4.82994923857868
G3 X18.66751269035533 Y30.78172588832487 I7.936548223350254 J-3.286802030456853
G3 X18.461928934010153 Y28.59390862944162 I11.472081218274113 J-2.1878172588832485
G3 X18.66751269035533 Y26.40609137055838 I11.677664974619288 J0
G3 X19.17005076142132 Y24.728426395939085 I8.439086294416244 J1.6091370558375635
G3 X20.00253807106599 Y23.185279187817258 I7.936548223350254 J3.286802030456853
G3 X21.403553299492387 Y21.49238578680203 I9.657360406091371 J6.563451776649746
G3 X23.096446700507617 Y20.091370558375633 I8.258883248730966 J8.258883248730966
G3 X24.63705583756345 Y19.261421319796955 I4.82994923857868 J7.106598984771574
G3 X26.31725888324873 Y18.758883248730964 I3.286802030456853 J7.936548223350254
G3 X28.50507614213198 Y18.550761421319798 I2.1878172588832485 J11.472081218274113
G3 X30.69289340101523 Y18.758883248730964 I0 J11.677664974619288
G3 X32.370558375634516 Y19.261421319796955 I-1.6091370558375635 J8.439086294416244
G3 X33.911167512690355 Y20.091370558375633 I-3.286802030456853 J7.936548223350254
G3 X35.60659898477157 Y21.49238578680203 I-6.563451776649746 J9.657360406091371
G1 X37.401522842639594 Y19.696954314720813 F400
G3 X39.10659898477157 Y21.758883248730964 I-10.053299492385788 J10.053299492385788 F400
G3 X40.18527918781726 Y23.756345177664976 I-9.205583756345177 J6.256345177664975
G3 X40.83502538071066 Y25.928934010152282 I-10.284263959390863 J4.258883248730965
G3 X41.08629441624365 Y28.59390862944162 I-13.967005076142131 J2.66497461928934
G3 X40.83502538071066 Y31.258883248730967 I-14.218274111675127 J0
G3 X40.18527918781726 Y33.431472081218274 I-10.934010152284264 J-2.0862944162436547
G3 X39.10659898477157 Y35.42893401015228 I-10.284263959390863 J-4.258883248730965
G3 X37.401015228426395 Y37.49238578680203 I-11.758883248730964 J-7.992385786802031
G3 X35.34010152284264 Y39.19796954314721 I-10.053299492385788 J-10.053299492385788
G3 X33.34263959390863 Y40.2741116751269 I-6.256345177664975 J-9.205583756345177
G3 X31.167512690355327 Y40.923857868020306 I-4.258883248730965 J-10.284263959390863
G3 X28.50507614213198 Y41.17766497461929 I-2.66497461928934 J-13.967005076142131
G3 X25.84010152284264 Y40.923857868020306 I0 J-14.218274111675127
G3 X23.66497461928934 Y40.2741116751269 I2.0862944162436547 J-10.934010152284264
G3 X21.67005076142132 Y39.19796954314721 I4.258883248730965 J-10.284263959390863
G3 X19.606598984771573 Y37.49238578680203 I7.992385786802031 J-11.758883248730964
G3 X17.901015228426395 Y35.42893401015228 I10.053299492385788 J-10.053299492385788
G3 X16.8248730964467 Y33.431472081218274 I9.205583756345177 J-6.256345177664975
G3 X16.17258883248731 Y31.258883248730967 I10.284263959390863 J-4.258883248730965
G3 X15.921319796954315 Y28.59390862944162 I13.967005076142131 J-2.66497461928934
G3 X16.17258883248731 Y25.928934010152282 I14.218274111675127 J0
G3 X16.8248730964467 Y23.756345177664976 I10.934010152284264 J2.0862944162436547
G3 X17.901015228426395 Y21.758883248730964 I10.284263959390863 J4.258883248730965
G3 X19.606598984771573 Y19.69796954314721 I11.758883248730964 J7.992385786802031
G3 X21.67005076142132 Y17.99238578680203 I10.053299492385788 J10.053299492385788
G3 X23.66497461928934 Y16.913705583756343 I6.256345177664975 J9.205583756345177
G3 X25.84010152284264 Y16.263959390862944 I4.258883248730965 J10.284263959390863
G3 X28.50507614213198 Y16.012690355329948 I2.66497461928934 J13.967005076142131
G3 X31.167512690355327 Y16.263959390862944 I0 J14.218274111675127
G3 X33.34263959390863 Y16.913705583756343 I-2.0862944162436547 J10.934010152284264
G3 X35.34010152284264 Y17.99238578680203 I-4.258883248730965 J10.284263959390863
G3 X37.401015228426395 Y19.69796954314721 I-7.992385786802031 J11.758883248730964
G1 X39.19771573604061 Y17.900761421319796 F400
G3 X41.20812182741116 Y20.329949238578678 I-11.850253807106599 J11.850253807106599 F400
G3 X42.530456852791886 Y22.784263959390863 I-11.30710659898477 J7.685279187817259
G3 X43.32994923857868 Y25.454314720812185 I-12.631979695431472 J5.230964467005076
G3 X43.62690355329949 Y28.59390862944162 I-16.461928934010153 J3.1395939086294415
G3 X43.32994923857868 Y31.733502538071065 I-16.758883248730964 J0
G3 X42.530456852791886 Y34.40355329949239 I-13.428934010152284 J-2.560913705583756
G3 X41.20812182741116 Y36.85786802030457 I-12.631979695431472 J-5.230964467005076
G3 X39.19796954314721 Y39.286802030456855 I-13.860406091370558 J-9.418781725888325
G3 X36.766497461928935 Y41.29695431472081 I-11.850253807106599 J-11.850253807106599
G3 X34.31472081218274 Y42.621827411167516 I-7.685279187817259 J-11.30710659898477
G3 X31.644670050761423 Y43.41878172588832 I-5.230964467005076 J-12.631979695431472
G3 X28.50507614213198 Y43.71573604060914 I-3.1395939086294415 J-16.461928934010153
G3 X25.365482233502537 Y43.41878172588832 I0 J-16.758883248730964
G3 X22.695431472081218 Y42.621827411167516 I2.560913705583756 J-13.428934010152284
G3 X20.241116751269036 Y41.29695431472081 I5.230964467005076 J-12.631979695431472
G3 X17.81218274111675 Y39.286802030456855 I9.418781725888325 J-13.860406091370558
G3 X15.80203045685279 Y36.85786802030457 I11.850253807106599 J-11.850253807106599
G3 X14.477157360406093 Y34.40355329949239 I11.30710659898477 J-7.685279187817259
G3 X13.67766497461929 Y31.733502538071065 I12.631979695431472 J-5.230964467005076
G3 X13.380710659898478 Y28.59390862944162 I16.461928934010153 J-3.1395939086294415
G3 X13.67766497461929 Y25.454314720812185 I16.758883248730964 J0
G3 X14.477157360406093 Y22.784263959390863 I13.428934010152284 J2.560913705583756
G3 X15.80203045685279 Y20.329949238578678 I12.631979695431472 J5.230964467005076
G3 X17.81218274111675 Y17.901015228426395 I13.860406091370558 J9.418781725888325
G3 X20.241116751269036 Y15.890862944162436 I11.850253807106599 J11.850253807106599
G3 X22.695431472081218 Y14.565989847715738 I7.685279187817259 J11.30710659898477
G3 X25.365482233502537 Y13.769035532994923 I5.230964467005076 J12.631979695431472
G3 X28.50507614213198 Y13.472081218274113 I3.1395939086294415 J16.461928934010153
G3 X31.644670050761423 Y13.769035532994923 I0 J16.758883248730964
G3 X34.31472081218274 Y14.565989847715738 I-2.560913705583756 J13.428934010152284
G3 X36.766497461928935 Y15.890862944162436 I-5.230964467005076 J12.631979695431472
G3 X39.19796954314721 Y17.901015228426395 I-9.418781725888325 J13.860406091370558
G1 X40.993654822335024 Y16.104822335025382 F400
G3 X43.30964467005076 Y18.903553299492387 I-13.64467005076142 J13.64467005076142 F400
G3 X44.878172588832484 Y21.81218274111675 I-13.408629441624365 J9.111675126903553
G3 X45.8248730964467 Y24.977157360406093 I-14.97715736040609 J6.203045685279188
G3 X46.16751269035533 Y28.59390862944162 I-18.95685279187817 J3.6167512690355332
G3 X45.8248730964467 Y32.210659898477154 I-19.29695431472081 J0
G3 X44.878172588832484 Y35.3756345177665 I-15.923857868020303 J-3.0380710659898473
G3 X43.30964467005076 Y38.28426395939086 I-14.97715736040609 J-6.203045685279188
G3 X40.994923857868024 Y41.08375634517767 I-15.961928934010153 J-10.847715736040609
G3 X38.19543147208122 Y43.39847715736041 I-13.64467005076142 J-13.64467005076142
G3 X35.286802030456855 Y44.96700507614214 I-9.111675126903553 J-13.408629441624365
G3 X32.119289340101524 Y45.91370558375634 I-6.203045685279188 J-14.97715736040609
G3 X28.50507614213198 Y46.25634517766497 I-3.6167512690355332 J-18.95685279187817
G3 X24.888324873096444 Y45.91370558375634 I0 J-19.29695431472081
G3 X21.72335025380711 Y44.96700507614214 I3.0380710659898473 J-15.923857868020303
G3 X18.814720812182742 Y43.39847715736041 I6.203045685279188 J-14.97715736040609
G3 X16.01522842639594 Y41.08375634517767 I10.847715736040609 J-15.961928934010153
G3 X13.700507614213198 Y38.28426395939086 I13.64467005076142 J-13.64467005076142
G3 X12.129441624365482 Y35.3756345177665 I13.408629441624365 J-9.111675126903553
G3 X11.18274111675127 Y32.210659898477154 I14.97715736040609 J-6.203045685279188
G3 X10.842639593908629 Y28.59390862944162 I18.95685279187817 J-3.6167512690355332
G3 X11.18274111675127 Y24.977157360406093 I19.29695431472081 J0
G3 X12.129441624365482 Y21.81218274111675 I15.923857868020303 J3.0380710659898473
G3 X13.700507614213198 Y18.903553299492387 I14.97715736040609 J6.203045685279188
G3 X16.01522842639594 Y16.104060913705585 I15.961928934010153 J10.847715736040609
G3 X18.814720812182742 Y13.789340101522843 I13.64467005076142 J13.64467005076142
G3 X21.72335025380711 Y12.220812182741117 I9.111675126903553 J13.408629441624365
G3 X24.888324873096444 Y11.274111675126903 I6.203045685279188 J14.97715736040609
G3 X28.50507614213198 Y10.931472081218274 I3.6167512690355332 J18.95685279187817
G3 X32.119289340101524 Y11.274111675126903 I0 J19.29695431472081
G3 X35.286802030456855 Y12.220812182741117 I-3.0380710659898473 J15.923857868020303
G3 X38.19543147208122 Y13.789340101522843 I-6.203045685279188 J14.97715736040609
G3 X40.994923857868024 Y16.104060913705585 I-10.847715736040609 J15.961928934010153
G0 Z1
G0 X30.217258883248732 Y26.880964467005075
G1 Z-0.3 F200
G3 X30.703045685279186 Y27.46954314720812 I-2.8705583756345177 J2.8705583756345177 F400
G3 X30.799492385786806 Y27.64467005076142 I-0.8045685279187818 J0.5456852791878173
G3 X30.855329949238577 Y27.83248730964467 I-0.8984771573604061 J0.3730964467005076
G3 X30.926395939086294 Y28.59390862944162 I-3.9873096446700504 J0.7614213197969544
G3 X30.855329949238577 Y29.355329949238577 I-4.058375634517766 J0
G3 X30.799492385786806 Y29.54314720812183 I-0.9543147208121827 J-0.18274111675126906
G3 X30.703045685279186 Y29.71827411167513 I-0.8984771573604061 J-0.3730964467005076
G3 X30.218274111675125 Y30.307106598984774 I-3.3553299492385786 J-2.281725888324873
G3 X29.62944162436548 Y30.794416243654823 I-2.8705583756345177 J-2.8705583756345177
G3 X29.45431472081218 Y30.888324873096447 I-0.5456852791878173 J-0.8045685279187818
G3 X29.263959390862944 Y30.944162436548226 I-0.3730964467005076 J-0.8984771573604061
G3 X28.50507614213198 Y31.017766497461928 I-0.7614213197969544 J-3.9873096446700504
G3 X27.743654822335024 Y30.944162436548226 I0 J-4.058375634517766
G3 X27.553299492385786 Y30.888324873096447 I0.18274111675126906 J-0.9543147208121827
G3 X27.380710659898476 Y30.794416243654823 I0.3730964467005076 J-0.8984771573604061
G3 X26.791878172588834 Y30.307106598984774 I2.281725888324873 J-3.3553299492385786
G3 X26.304568527918782 Y29.71827411167513 I2.8705583756345177 J-2.8705583756345177
G3 X26.210659898477154 Y29.54314720812183 I0.8045685279187818 J-0.5456852791878173
G3 X26.154822335025383 Y29.355329949238577 I0.8984771573604061 J-0.3730964467005076
G3 X26.081218274111677 Y28.59390862944162 I3.9873096446700504 J-0.7614213197969544
G3 X26.154822335025383 Y27.83248730964467 I4.058375634517766 J0
G3 X26.210659898477154 Y27.64467005076142 I0.9543147208121827 J0.18274111675126906
G3 X26.304568527918782 Y27.46954314720812 I0.8984771573604061 J0.3730964467005076
G3 X26.791878172588834 Y26.880710659898476 I3.3553299492385786 J2.281725888324873
G3 X27.380710659898476 Y26.393401015228427 I2.8705583756345177 J2.8705583756345177
G3 X27.553299492385786 Y26.299492385786802 I0.5456852791878173 J0.8045685279187818
G3 X27.743654822335024 Y26.243654822335024 I0.3730964467005076 J0.8984771573604061
G3 X28.50507614213198 Y26.17258883248731 I0.7614213197969544 J3.9873096446700504
G3 X29.263959390862944 Y26.243654822335024 I0 J4.058375634517766
G3 X29.45431472081218 Y26.299492385786802 I-0.18274111675126906 J0.9543147208121827
G3 X29.62944162436548 Y26.393401015228427 I-0.3730964467005076 J0.8984771573604061
G3 X30.218274111675125 Y26.880710659898476 I-2.281725888324873 J3.3553299492385786
G1 X32.013451776649745 Y25.08502538071066 F400
G3 X32.80456852791878 Y26.04060913705584 I-4.66497461928934 J4.66497461928934 F400
G3 X33.14467005076142 Y26.67258883248731 I-2.9035532994923856 J1.9746192893401016
G3 X33.3502538071066 Y27.35786802030457 I-3.2436548223350252 J1.3451776649746192
G3 X33.46700507614213 Y28.59390862944162 I-6.482233502538071 J1.236040609137056
G3 X33.3502538071066 Y29.82994923857868 I-6.598984771573604 J0
G3 X33.14467005076142 Y30.51522842639594 I-3.449238578680203 J-0.6573604060913706
G3 X32.80456852791878 Y31.14720812182741 I-3.2436548223350252 J-1.3451776649746192
G3 X32.01269035532995 Y32.10406091370559 I-5.456852791878173 J-3.708121827411168
G3 X31.055837563451778 Y32.89340101522843 I-4.66497461928934 J-4.66497461928934
G3 X30.42639593908629 Y33.233502538071065 I-1.9746192893401016 J-2.9035532994923856
G3 X29.741116751269033 Y33.43908629441624 I-1.3451776649746192 J-3.2436548223350252
G3 X28.50507614213198 Y33.555837563451774 I-1.236040609137056 J-6.482233502538071
G3 X27.269035532994927 Y33.43908629441624 I0 J-6.598984771573604
G3 X26.581218274111677 Y33.233502538071065 I0.6573604060913706 J-3.449238578680203
G3 X25.951776649746193 Y32.89340101522843 I1.3451776649746192 J-3.2436548223350252
G3 X24.99492385786802 Y32.10406091370559 I3.708121827411168 J-5.456852791878173
G3 X24.203045685279186 Y31.14720812182741 I4.66497461928934 J-4.66497461928934
G3 X23.86294416243655 Y30.51522842639594 I2.9035532994923856 J-1.9746192893401016
G3 X23.659898477157363 Y29.82994923857868 I3.2436548223350252 J-1.3451776649746192
G3 X23.54314720812183 Y28.59390862944162 I6.482233502538071 J-1.236040609137056
G3 X23.659898477157363 Y27.35786802030457 I6.598984771573604 J0
G3 X23.86294416243655 Y26.67258883248731 I3.449238578680203 J0.6573604060913706
G3 X24.203045685279186 Y26.04060913705584 I3.2436548223350252 J1.3451776649746192
G3 X24.99492385786802 Y25.08375634517766 I5.456852791878173 J3.708121827411168
G3 X25.951776649746193 Y24.294416243654823 I4.66497461928934 J4.66497461928934
G3 X26.581218274111677 Y23.954314720812185 I1.9746192893401016 J2.9035532994923856
G3 X27.269035532994927 Y23.748730964467004 I1.3451776649746192 J3.2436548223350252
G3 X28.50507614213198 Y23.631979695431472 I1.236040609137056 J6.482233502538071
G3 X29.741116751269033 Y23.748730964467004 I0 J6.598984771573604
G3 X30.42639593908629 Y23.954314720812185 I-0.6573604060913706 J3.449238578680203
G3 X31.055837563451778 Y24.294416243654823 I-1.3451776649746192 J3.2436548223350252
G3 X32.01269035532995 Y25.08375634517766 I-3.708121827411168 J5.456852791878173
G1 X33.80939086294416 Y23.288832487309644 F400
G3 X34.90609137055837 Y24.614213197969544 I-6.461928934010153 J6.461928934010153 F400
G3 X35.49238578680203 Y25.7005076142132 I-5.00507614213198 J3.401015228426396
G3 X35.84517766497462 Y26.880710659898476 I-5.591370558375635 J2.314720812182741
G3 X36.00761421319797 Y28.59390862944162 I-8.977157360406093 J1.7131979695431472
G3 X35.84517766497462 Y30.307106598984774 I-9.137055837563452 J0
G3 X35.49238578680203 Y31.48730964467005 I-5.944162436548224 J-1.134517766497462
G3 X34.90609137055837 Y32.57360406091371 I-5.591370558375635 J-2.314720812182741
G3 X33.80964467005076 Y33.898477157360404 I-7.558375634517766 J-5.1370558375634525
G3 X32.48477157360406 Y34.994923857868024 I-6.461928934010153 J-6.461928934010153
G3 X31.398477157360407 Y35.58121827411168 I-3.401015228426396 J-5.00507614213198
G3 X30.215736040609137 Y35.934010152284266 I-2.314720812182741 J-5.591370558375635
G3 X28.50507614213198 Y36.09644670050761 I-1.7131979695431472 J-8.977157360406093
G3 X26.791878172588834 Y35.934010152284266 I0 J-9.137055837563452
G3 X25.609137055837564 Y35.58121827411168 I1.134517766497462 J-5.944162436548224
G3 X24.525380710659896 Y34.994923857868024 I2.314720812182741 J-5.591370558375635
G3 X23.2005076142132 Y33.898477157360404 I5.1370558375634525 J-7.558375634517766
G3 X22.104060913705585 Y32.57360406091371 I6.461928934010153 J-6.461928934010153
G3 X21.517766497461928 Y31.48730964467005 I5.00507614213198 J-3.401015228426396
G3 X21.16497461928934 Y30.307106598984774 I5.591370558375635 J-2.314720812182741
G3 X21.002538071065988 Y28.59390862944162 I8.977157360406093 J-1.7131979695431472
G3 X21.16497461928934 Y26.880710659898476 I9.137055837563452 J0
G3 X21.517766497461928 Y25.7005076142132 I5.944162436548224 J1.134517766497462
G3 X22.104060913705585 Y24.614213197969544 I5.591370558375635 J2.314720812182741
G3 X23.2005076142132 Y23.289340101522843 I7.558375634517766 J5.1370558375634525
G3 X24.525380710659896 Y22.192893401015226 I6.461928934010153 J6.461928934010153
G3 X25.609137055837564 Y21.606598984771573 I3.401015228426396 J5.00507614213198
G3 X26.791878172588834 Y21.253807106598984 I2.314720812182741 J5.591370558375635
G3 X28.50507614213198 Y21.091370558375637 I1.7131979695431472 J8.977157360406093
G3 X30.215736040609137 Y21.253807106598984 I0 J9.137055837563452
G3 X31.398477157360407 Y21.606598984771573 I-1.134517766497462 J5.944162436548224
G3 X32.48477157360406 Y22.192893401015226 I-2.314720812182741 J5.591370558375635
G3 X33.80964467005076 Y23.289340101522843 I-5.1370558375634525 J7.558375634517766
G1 X35.605583756345176 Y21.492893401015227 F400
G3 X37.00761421319797 Y23.185279187817258 I-8.258883248730966 J8.258883248730966 F400
G3 X37.83756345177665 Y24.728426395939085 I-7.106598984771574 J4.82994923857868
G3 X38.34010152284264 Y26.40609137055838 I-7.936548223350254 J3.286802030456853
G3 X38.545685279187815 Y28.59390862944162 I-11.472081218274113 J2.1878172588832485
G3 X38.34010152284264 Y30.78172588832487 I-11.677664974619288 J0
G3 X37.83756345177665 Y32.45939086294416 I-8.439086294416244 J-1.6091370558375635
G3 X37.00761421319797 Y34.00253807106599 I-7.936548223350254 J-3.286802030456853
G3 X35.60659898477157 Y35.69543147208122 I-9.657360406091371 J-6.563451776649746
G3 X33.911167512690355 Y37.09644670050761 I-8.258883248730966 J-8.258883248730966
G3 X32.370558375634516 Y37.92893401015228 I-4.82994923857868 J-7.106598984771574
G3 X30.69289340101523 Y38.42893401015228 I-3.286802030456853 J-7.936548223350254
G3 X28.50507614213198 Y38.63705583756345 I-2.1878172588832485 J-11.472081218274113
G3 X26.31725888324873 Y38.42893401015228 I0 J-11.677664974619288
G3 X24.63705583756345 Y37.92893401015228 I1.6091370558375635 J-8.439086294416244
G3 X23.096446700507617 Y37.09644670050761 I3.286802030456853 J-7.936548223350254
G3 X21.403553299492387 Y35.69543147208122 I6.563451776649746 J-9.657360406091371
G3 X20.00253807106599 Y34.00253807106599 I8.258883248730966 J-8.258883248730966
G3 X19.17005076142132 Y32.45939086294416 I7.106598984771574 J-4.82994923857868
G3 X18.66751269035533 Y30.78172588832487 I7.936548223350254 J-3.286802030456853
G3 X18.461928934010153 Y28.59390862944162 I11.472081218274113 J-2.1878172588832485
G3 X18.66751269035533 Y26.40609137055838 I11.677664974619288 J0
G3 X19.17005076142132 Y24.728426395939085 I8.439086294416244 J1.6091370558375635
G3 X20.00253807106599 Y23.185279187817258 I7.936548223350254 J3.286802030456853
G3 X21.403553299492387 Y21.49238578680203 I9.657360406091371 J6.563451776649746
G3 X23.096446700507617 Y20.091370558375633 I8.258883248730966 J8.258883248730966
G3 X24.63705583756345 Y19.261421319796955 I4.82994923857868 J7.106598984771574
G3 X26.31725888324873 Y18.758883248730964 I3.286802030456853 J7.936548223350254
G3 X28.50507614213198 Y18.550761421319798 I2.1878172588832485 J11.472081218274113
G3 X30.69289340101523 Y18.758883248730964 I0 J11.677664974619288
G3 X32.370558375634516 Y19.261421319796955 I-1.6091370558375635 J8.439086294416244
G3 X33.911167512690355 Y20.091370558375633 I-3.286802030456853 J7.936548223350254
G3 X35.60659898477157 Y21.49238578680203 I-6.563451776649746 J9.657360406091371
G1 X37.401522842639594 Y19.696954314720813 F400
G3 X39.10659898477157 Y21.758883248730964 I-10.053299492385788 J10.053299492385788 F400
G3 X40.18527918781726 Y23.756345177664976 I-9.205583756345177 J6.256345177664975
G3 X40.83502538071066 Y25.928934010152282 I-10.284263959390863 J4.258883248730965
G3 X41.08629441624365 Y28.59390862944162 I-13.967005076142131 J2.66497461928934
G3 X40.83502538071066 Y31.258883248730967 I-14.218274111675127 J0
G3 X40.18527918781726 Y33.431472081218274 I-10.934010152284264 J-2.0862944162436547
G3 X39.10659898477157 Y35.42893401015228 I-10.284263959390863 J-4.258883248730965
G3 X37.401015228426395 Y37.49238578680203 I-11.758883248730964 J-7.992385786802031
G3 X35.34010152284264 Y39.19796954314721 I-10.053299492385788 J-10.053299492385788
G3 X33.34263959390863 Y40.2741116751269 I-6.256345177664975 J-9.205583756345177
G3 X31.167512690355327 Y40.923857868020306 I-4.258883248730965 J-10.284263959390863
G3 X28.50507614213198 Y41.17766497461929 I-2.66497461928934 J-13.967005076142131
G3 X25.84010152284264 Y40.923857868020306 I0 J-14.218274111675127
G3 X23.66497461928934 Y40.2741116751269 I2.0862944162436547 J-10.934010152284264
G3 X21.67005076142132 Y39.19796954314721 I4.258883248730965 J-10.284263959390863
G3 X19.606598984771573 Y37.49238578680203 I7.992385786802031 J-11.758883248730964
G3 X17.901015228426395 Y35.42893401015228 I10.053299492385788 J-10.053299492385788
G3 X16.8248730964467 Y33.431472081218274 I9.205583756345177 J-6.256345177664975
G3 X16.17258883248731 Y31.258883248730967 I10.284263959390863 J-4.258883248730965
G3 X15.921319796954315 Y28.59390862944162 I13.967005076142131 J-2.66497461928934
G3 X16.17258883248731 Y25.928934010152282 I14.218274111675127 J0
G3 X16.8248730964467 Y23.756345177664976 I10.934010152284264 J2.0862944162436547
G3 X17.901015228426395 Y21.758883248730964 I10.284263959390863 J4.258883248730965
G3 X19.606598984771573 Y19.69796954314721 I11.758883248730964 J7.992385786802031
G3 X21.67005076142132 Y17.99238578680203 I10.053299492385788 J10.053299492385788
G3 X23.66497461928934 Y16.913705583756343 I6.256345177664975 J9.205583756345177
G3 X25.84010152284264 Y16.263959390862944 I4.258883248730965 J10.284263959390863
G3 X28.50507614213198 Y16.012690355329948 I2.66497461928934 J13.967005076142131
G3 X31.167512690355327 Y16.263959390862944 I0 J14.218274111675127
G3 X33.34263959390863 Y16.913705583756343 I-2.0862944162436547 J10.934010152284264
G3 X35.34010152284264 Y17.99238578680203 I-4.258883248730965 J10.284263959390863
G3 X37.401015228426395 Y19.69796954314721 I-7.992385786802031 J11.758883248730964
G1 X39.19771573604061 Y17.900761421319796 F400
G3 X41.20812182741116 Y20.329949238578678 I-11.850253807106599 J11.850253807106599 F400
G3 X42.530456852791886 Y22.784263959390863 I-11.30710659898477 J7.685279187817259
G3 X43.32994923857868 Y25.454314720812185 I-12.631979695431472 J5.230964467005076
G3 X43.62690355329949 Y28.59390862944162 I-16.461928934010153 J3.1395939086294415
G3 X43.32994923857868 Y31.733502538071065 I-16.758883248730964 J0
G3 X42.530456852791886 Y34.40355329949239 I-13.428934010152284 J-2.560913705583756
G3 X41.20812182741116 Y36.85786802030457 I-12.631979695431472 J-5.230964467005076
G3 X39.19796954314721 Y39.286802030456855 I-13.860406091370558 J-9.418781725888325
G3 X36.766497461928935 Y41.29695431472081 I-11.850253807106599 J-11.850253807106599
G3 X34.31472081218274 Y42.621827411167516 I-7.685279187817259 J-11.30710659898477
G3 X31.644670050761423 Y43.41878172588832 I-5.230964467005076 J-12.631979695431472
G3 X28.50507614213198 Y43.71573604060914 I-3.1395939086294415 J-16.461928934010153
G3 X25.365482233502537 Y43.41878172588832 I0 J-16.758883248730964
G3 X22.695431472081218 Y42.621827411167516 I2.560913705583756 J-13.428934010152284
G3 X20.241116751269036 Y41.29695431472081 I5.230964467005076 J-12.631979695431472
G3 X17.81218274111675 Y39.286802030456855 I9.418781725888325 J-13.860406091370558
G3 X15.80203045685279 Y36.85786802030457 I11.850253807106599 J-11.850253807106599
G3 X14.477157360406093 Y34.40355329949239 I11.30710659898477 J-7.685279187817259
G3 X13.67766497461929 Y31.733502538071065 I12.631979695431472 J-5.230964467005076
G3 X13.380710659898478 Y28.59390862944162 I16.461928934010153 J-3.1395939086294415
G3 X13.67766497461929 Y25.454314720812185 I16.758883248730964 J0
G3 X14.477157360406093 Y22.784263959390863 I13.428934010152284 J2.560913705583756
G3 X15.80203045685279 Y20.329949238578678 I12.631979695431472 J5.230964467005076
G3 X17.81218274111675 Y17.901015228426395 I13.860406091370558 J9.418781725888325
G3 X20.241116751269036 Y15.890862944162436 I11.850253807106599 J11.850253807106599
G3 X22.695431472081218 Y14.565989847715738 I7.685279187817259 J11.30710659898477
G3 X25.365482233502537 Y13.769035532994923 I5.230964467005076 J12.631979695431472
G3 X28.50507614213198 Y13.472081218274113 I3.1395939086294415 J16.461928934010153
G3 X31.644670050761423 Y13.769035532994923 I0 J16.758883248730964
G3 X34.31472081218274 Y14.565989847715738 I-2.560913705583756 J13.428934010152284
G3 X36.766497461928935 Y15.890862944162436 I-5.230964467005076 J12.631979695431472
G3 X39.19796954314721 Y17.901015228426395 I-9.418781725888325 J13.860406091370558
G1 X40.993654822335024 Y16.104822335025382 F400
G3 X43.30964467005076 Y18.903553299492387 I-13.64467005076142 J13.64467005076142 F400
G3 X44.878172588832484 Y21.81218274111675 I-13.408629441624365 J9.111675126903553
G3 X45.8248730964467 Y24.977157360406093 I-14.97715736040609 J6.203045685279188
G3 X46.16751269035533 Y28.59390862944162 I-18.95685279187817 J3.6167512690355332
G3 X45.8248730964467 Y32.210659898477154 I-19.29695431472081 J0
G3 X44.878172588832484 Y35.3756345177665 I-15.923857868020303 J-3.0380710659898473
G3 X43.30964467005076 Y38.28426395939086 I-14.97715736040609 J-6.203045685279188
G3 X40.994923857868024 Y41.08375634517767 I-15.961928934010153 J-10.847715736040609
G3 X38.19543147208122 Y43.39847715736041 I-13.64467005076142 J-13.64467005076142
G3 X35.286802030456855 Y44.96700507614214 I-9.111675126903553 J-13.408629441624365
G3 X32.119289340101524 Y45.91370558375634 I-6.203045685279188 J-14.97715736040609
G3 X28.50507614213198 Y46.25634517766497 I-3.6167512690355332 J-18.95685279187817
G3 X24.888324873096444 Y45.91370558375634 I0 J-19.29695431472081
G3 X21.72335025380711 Y44.96700507614214 I3.0380710659898473 J-15.923857868020303
G3 X18.814720812182742 Y43.39847715736041 I6.203045685279188 J-14.97715736040609
G3 X16.01522842639594 Y41.08375634517767 I10.847715736040609 J-15.961928934010153
G3 X13.700507614213198 Y38.28426395939086 I13.64467005076142 J-13.64467005076142
G3 X12.129441624365482 Y35.3756345177665 I13.408629441624365 J-9.111675126903553
G3 X11.18274111675127 Y32.210659898477154 I14.97715736040609 J-6.203045685279188
G3 X10.842639593908629 Y28.59390862944162 I18.95685279187817 J-3.6167512690355332
G3 X11.18274111675127 Y24.977157360406093 I19.29695431472081 J0
G3 X12.129441624365482 Y21.81218274111675 I15.923857868020303 J3.0380710659898473
G3 X13.700507614213198 Y18.903553299492387 I14.97715736040609 J6.203045685279188
G3 X16.01522842639594 Y16.104060913705585 I15.961928934010153 J10.847715736040609
G3 X18.814720812182742 Y13.789340101522843 I13.64467005076142 J13.64467005076142
G3 X21.72335025380711 Y12.220812182741117 I9.111675126903553 J13.408629441624365
G3 X24.888324873096444 Y11.274111675126903 I6.203045685279188 J14.97715736040609
G3 X28.50507614213198 Y10.931472081218274 I3.6167512690355332 J18.95685279187817
G3 X32.119289340101524 Y11.274111675126903 I0 J19.29695431472081
G3 X35.286802030456855 Y12.220812182741117 I-3.0380710659898473 J15.923857868020303
G3 X38.19543147208122 Y13.789340101522843 I-6.203045685279188 J14.97715736040609
G3 X40.994923857868024 Y16.104060913705585 I-10.847715736040609 J15.961928934010153
G0 Z1
G0 X30.217258883248732 Y26.880964467005075
G1 Z-0.4 F200
G3 X30.703045685279186 Y27.46954314720812 I-2.8705583756345177 J2.8705583756345177 F400
G3 X30.799492385786806 Y27.64467005076142 I-0.8045685279187818 J0.5456852791878173
G3 X30.855329949238577 Y27.83248730964467 I-0.8984771573604061 J0.3730964467005076
G3 X30.926395939086294 Y28.59390862944162 I-3.9873096446700504 J0.7614213197969544
G3 X30.855329949238577 Y29.355329949238577 I-4.058375634517766 J0
G3 X30.799492385786806 Y29.54314720812183 I-0.9543147208121827 J-0.18274111675126906
G3 X30.703045685279186 Y29.71827411167513 I-0.8984771573604061 J-0.3730964467005076
G3 X30.218274111675125 Y30.307106598984774 I-3.3553299492385786 J-2.281725888324873
G3 X29.62944162436548 Y30.794416243654823 I-2.8705583756345177 J-2.8705583756345177
G3 X29.45431472081218 Y30.888324873096447 I-0.5456852791878173 J-0.8045685279187818
G3 X29.263959390862944 Y30.944162436548226 I-0.3730964467005076 J-0.8984771573604061
G3 X28.50507614213198 Y31.017766497461928 I-0.7614213197969544 J-3.9873096446700504
G3 X27.743654822335024 Y30.944162436548226 I0 J-4.058375634517766
G3 X27.553299492385786 Y30.888324873096447 I0.18274111675126906 J-0.9543147208121827
G3 X27.380710659898476 Y30.794416243654823 I0.3730964467005076 J-0.8984771573604061
G3 X26.791878172588834 Y30.307106598984774 I2.281725888324873 J-3.3553299492385786
G3 X26.304568527918782 Y29.71827411167513 I2.8705583756345177 J-2.8705583756345177
G3 X26.210659898477154 Y29.54314720812183 I0.8045685279187818 J-0.5456852791878173
G3 X26.154822335025383 Y29.355329949238577 I0.8984771573604061 J-0.3730964467005076
G3 X26.081218274111677 Y28.59390862944162 I3.9873096446700504 J-0.7614213197969544
G3 X26.154822335025383 Y27.83248730964467 I4.058375634517766 J0
G3 X26.210659898477154 Y27.64467005076142 I0.9543147208121827 J0.18274111675126906
G3 X26.304568527918782 Y27.46954314720812 I0.8984771573604061 J0.3730964467005076
G3 X26.791878172588834 Y26.880710659898476 I3.3553299492385786 J2.281725888324873
G3 X27.380710659898476 Y26.393401015228427 I2.8705583756345177 J2.8705583756345177
G3 X27.553299492385786 Y26.299492385786802 I0.5456852791878173 J0.8045685279187818
G3 X27.743654822335024 Y26.243654822335024 I0.3730964467005076 J0.8984771573604061
G3 X28.50507614213198 Y26.17258883248731 I0.7614213197969544 J3.9873096446700504
G3 X29.263959390862944 Y26.243654822335024 I0 J4.058375634517766
G3 X29.45431472081218 Y26.299492385786802 I-0.18274111675126906 J0.9543147208121827
G3 X29.62944162436548 Y26.393401015228427 I-0.3730964467005076 J0.8984771573604061
G3 X30.218274111675125 Y26.880710659898476 I-2.281725888324873 J3.3553299492385786
G1 X32.013451776649745 Y25.08502538071066 F400
G3 X32.80456852791878 Y26.04060913705584 I-4.66497461928934 J4.66497461928934 F400
G3 X33.14467005076142 Y26.67258883248731 I-2.9035532994923856 J1.9746192893401016
G3 X33.3502538071066 Y27.35786802030457 I-3.2436548223350252 J1.3451776649746192
G3 X33.46700507614213 Y28.59390862944162 I-6.482233502538071 J1.236040609137056
G3 X33.3502538071066 Y29.82994923857868 I-6.598984771573604 J0
G3 X33.14467005076142 Y30.51522842639594 I-3.449238578680203 J-0.6573604060913706
G3 X32.80456852791878 Y31.14720812182741 I-3.2436548223350252 J-1.3451776649746192
G3 X32.01269035532995 Y32.10406091370559 I-5.456852791878173 J-3.708121827411168
G3 X31.055837563451778 Y32.89340101522843 I-4.66497461928934 J-4.66497461928934
G3 X30.42639593908629 Y33.233502538071065 I-1.9746192893401016 J-2.9035532994923856
G3 X29.741116751269033 Y33.43908629441624 I-1.3451776649746192 J-3.2436548223350252
G3 X28.50507614213198 Y33.555837563451774 I-1.236040609137056 J-6.482233502538071
G3 X27.269035532994927 Y33.43908629441624 I0 J-6.598984771573604
G3 X26.581218274111677 Y33.233502538071065 I0.6573604060913706 J-3.449238578680203
G3 X25.951776649746193 Y32.89340101522843 I1.3451776649746192 J-3.2436548223350252
G3 X24.99492385786802 Y32.10406091370559 I3.708121827411168 J-5.456852791878173
G3 X24.203045685279186 Y31.14720812182741 I4.66497461928934 J-4.66497461928934
G3 X23.86294416243655 Y30.51522842639594 I2.9035532994923856 J-1.9746192893401016
G3 X23.659898477157363 Y29.82994923857868 I3.2436548223350252 J-1.3451776649746192
G3 X23.54314720812183 Y28.59390862944162 I6.482233502538071 J-1.236040609137056
G3 X23.659898477157363 Y27.35786802030457 I6.598984771573604 J0
G3 X23.86294416243655 Y26.67258883248731 I3.449238578680203 J0.6573604060913706
G3 X24.203045685279186 Y26.04060913705584 I3.2436548223350252 J1.3451776649746192
G3 X24.99492385786802 Y25.08375634517766 I5.456852791878173 J3.708121827411168
G3 X25.951776649746193 Y24.294416243654823 I4.66497461928934 J4.66497461928934
G3 X26.581218274111677 Y23.954314720812185 I1.9746192893401016 J2.9035532994923856
G3 X27.269035532994927 Y23.748730964467004 I1.3451776649746192 J3.2436548223350252
G3 X28.50507614213198 Y23.631979695431472 I1.236040609137056 J6.482233502538071
G3 X29.741116751269033 Y23.748730964467004 I0 J6.598984771573604
G3 X30.42639593908629 Y23.954314720812185 I-0.6573604060913706 J3.449238578680203
G3 X31.055837563451778 Y24.294416243654823 I-1.3451776649746192 J3.2436548223350252
G3 X32.01269035532995 Y25.08375634517766 I-3.708121827411168 J5.456852791878173
G1 X33.80939086294416 Y23.288832487309644 F400
G3 X34.90609137055837 Y24.614213197969544 I-6.461928934010153 J6.461928934010153 F400
G3 X35.49238578680203 Y25.7005076142132 I-5.00507614213198 J3.401015228426396
G3 X35.84517766497462 Y26.880710659898476 I-5.591370558375635 J2.314720812182741
G3 X36.00761421319797 Y28.59390862944162 I-8.977157360406093 J1.7131979695431472
G3 X35.84517766497462 Y30.307106598984774 I-9.137055837563452 J0
G3 X35.49238578680203 Y31.48730964467005 I-5.944162436548224 J-1.134517766497462
G3 X34.90609137055837 Y32.57360406091371 I-5.591370558375635 J-2.314720812182741
G3 X33.80964467005076 Y33.898477157360404 I-7.558375634517766 J-5.1370558375634525
G3 X32.48477157360406 Y34.994923857868024 I-6.461928934010153 J-6.461928934010153
G3 X31.398477157360407 Y35.58121827411168 I-3.401015228426396 J-5.00507614213198
G3 X30.215736040609137 Y35.934010152284266 I-2.314720812182741 J-5.591370558375635
G3 X28.50507614213198 Y36.09644670050761 I-1.7131979695431472 J-8.977157360406093
G3 X26.791878172588834 Y35.934010152284266 I0 J-9.137055837563452
G3 X25.609137055837564 Y35.58121827411168 I1.134517766497462 J-5.944162436548224
G3 X24.525380710659896 Y34.994923857868024 I2.314720812182741 J-5.591370558375635
G3 X23.2005076142132 Y33.898477157360404 I5.1370558375634525 J-7.558375634517766
G3 X22.104060913705585 Y32.57360406091371 I6.461928934010153 J-6.461928934010153
G3 X21.517766497461928 Y31.48730964467005 I5.00507614213198 J-3.401015228426396
G3 X21.16497461928934 Y30.307106598984774 I5.591370558375635 J-2.314720812182741
G3 X21.002538071065988 Y28.59390862944162 I8.977157360406093 J-1.7131979695431472
G3 X21.16497461928934 Y26.880710659898476 I9.137055837563452 J0
G3 X21.517766497461928 Y25.7005076142132 I5.944162436548224 J1.134517766497462
G3 X22.104060913705585 Y24.614213197969544 I5.591370558375635 J2.314720812182741
G3 X23.2005076142132 Y23.289340101522843 I7.558375634517766 J5.1370558375634525
G3 X24.525380710659896 Y22.192893401015226 I6.461928934010153 J6.461928934010153
G3 X25.609137055837564 Y21.606598984771573 I3.401015228426396 J5.00507614213198
G3 X26.791878172588834 Y21.253807106598984 I2.314720812182741 J5.591370558375635
G3 X28.50507614213198 Y21.091370558375637 I1.7131979695431472 J8.977157360406093
G3 X30.215736040609137 Y21.253807106598984 I0 J9.137055837563452
G3 X31.398477157360407 Y21.606598984771573 I-1.134517766497462 J5.944162436548224
G3 X32.48477157360406 Y22.192893401015226 I-2.314720812182741 J5.591370558375635
G3 X33.80964467005076 Y23.289340101522843 I-5.1370558375634525 J7.558375634517766
G1 X35.605583756345176 Y21.492893401015227 F400
G3 X37.00761421319797 Y23.185279187817258 I-8.258883248730966 J8.258883248730966 F400
G3 X37.83756345177665 Y24.728426395939085 I-7.106598984771574 J4.82994923857868
G3 X38.34010152284264 Y26.40609137055838 I-7.936548223350254 J3.286802030456853
G3 X38.545685279187815 Y28.59390862944162 I-11.472081218274113 J2.1878172588832485
G3 X38.34010152284264 Y30.78172588832487 I-11.677664974619288 J0
G3 X37.83756345177665 Y32.45939086294416 I-8.439086294416244 J-1.6091370558375635
G3 X37.00761421319797 Y34.00253807106599 I-7.936548223350254 J-3.286802030456853
G3 X35.60659898477157 Y35.69543147208122 I-9.657360406091371 J-6.563451776649746
G3 X33.911167512690355 Y37.09644670050761 I-8.258883248730966 J-8.258883248730966
G3 X32.370558375634516 Y37.92893401015228 I-4.82994923857868 J-7.106598984771574
G3 X30.69289340101523 Y38.42893401015228 I-3.286802030456853 J-7.936548223350254
G3 X28.50507614213198 Y38.63705583756345 I-2.1878172588832485 J-11.472081218274113
G3 X26.31725888324873 Y38.42893401015228 I0 J-11.677664974619288
G3 X24.63705583756345 Y37.92893401015228 I1.6091370558375635 J-8.439086294416244
G3 X23.096446700507617 Y37.09644670050761 I3.286802030456853 J-7.936548223350254
G3 X21.403553299492387 Y35.69543147208122 I6.563451776649746 J-9.657360406091371
G3 X20.00253807106599 Y34.00253807106599 I8.258883248730966 J-8.258883248730966
G3 X19.17005076142132 Y32.45939086294416 I7.106598984771574 J-4.82994923857868
G3 X18.66751269035533 Y30.78172588832487 I7.936548223350254 J-3.286802030456853
G3 X18.461928934010153 Y28.59390862944162 I11.472081218274113 J-2.1878172588832485
G3 X18.66751269035533 Y26.40609137055838 I11.677664974619288 J0
G3 X19.17005076142132 Y24.728426395939085 I8.439086294416244 J1.6091370558375635
G3 X20.00253807106599 Y23.185279187817258 I7.936548223350254 J3.286802030456853
G3 X21.403553299492387 Y21.49238578680203 I9.657360406091371 J6.563451776649746
G3 X23.096446700507617 Y20.091370558375633 I8.258883248730966 J8.258883248730966
G3 X24.63705583756345 Y19.261421319796955 I4.82994923857868 J7.106598984771574
G3 X26.31725888324873 Y18.758883248730964 I3.286802030456853 J7.936548223350254
G3 X28.50507614213198 Y18.550761421319798 I2.1878172588832485 J11.472081218274113
G3 X30.69289340101523 Y18.758883248730964 I0 J11.677664974619288
G3 X32.370558375634516 Y19.261421319796955 I-1.6091370558375635 J8.439086294416244
G3 X33.911167512690355 Y20.091370558375633 I-3.286802030456853 J7.936548223350254
G3 X35.60659898477157 Y21.49238578680203 I-6.563451776649746 J9.657360406091371
G1 X37.401522842639594 Y19.696954314720813 F400
G3 X39.10659898477157 Y21.758883248730964 I-10.053299492385788 J10.053299492385788 F400
G3 X40.18527918781726 Y23.756345177664976 I-9.205583756345177 J6.256345177664975
G3 X40.83502538071066 Y25.928934010152282 I-10.284263959390863 J4.258883248730965
G3 X41.08629441624365 Y28.59390862944162 I-13.967005076142131 J2.66497461928934
G3 X40.83502538071066 Y31.258883248730967 I-14.218274111675127 J0
G3 X40.18527918781726 Y33.431472081218274 I-10.934010152284264 J-2.0862944162436547
G3 X39.10659898477157 Y35.42893401015228 I-10.284263959390863 J-4.258883248730965
G3 X37.401015228426395 Y37.49238578680203 I-11.758883248730964 J-7.992385786802031
G3 X35.34010152284264 Y39.19796954314721 I-10.053299492385788 J-10.053299492385788
G3 X33.34263959390863 Y40.2741116751269 I-6.256345177664975 J-9.205583756345177
G3 X31.167512690355327 Y40.923857868020306 I-4.258883248730965 J-10.284263959390863
G3 X28.50507614213198 Y41.17766497461929 I-2.66497461928934 J-13.967005076142131
G3 X25.84010152284264 Y40.923857868020306 I0 J-14.218274111675127
G3 X23.66497461928934 Y40.2741116751269 I2.0862944162436547 J-10.934010152284264
G3 X21.67005076142132 Y39.19796954314721 I4.258883248730965 J-10.284263959390863
G3 X19.606598984771573 Y37.49238578680203 I7.992385786802031 J-11.758883248730964
G3 X17.901015228426395 Y35.42893401015228 I10.053299492385788 J-10.053299492385788
G3 X16.8248730964467 Y33.431472081218274 I9.205583756345177 J-6.256345177664975
G3 X16.17258883248731 Y31.258883248730967 I10.284263959390863 J-4.258883248730965
G3 X15.921319796954315 Y28.59390862944162 I13.967005076142131 J-2.66497461928934
G3 X16.17258883248731 Y25.928934010152282 I14.218274111675127 J0
G3 X16.8248730964467 Y23.756345177664976 I10.934010152284264 J2.0862944162436547
G3 X17.901015228426395 Y21.758883248730964 I10.284263959390863 J4.258883248730965
G3 X19.606598984771573 Y19.69796954314721 I11.758883248730964 J7.992385786802031
G3 X21.67005076142132 Y17.99238578680203 I10.053299492385788 J10.053299492385788
G3 X23.66497461928934 Y16.913705583756343 I6.256345177664975 J9.205583756345177
G3 X25.84010152284264 Y16.263959390862944 I4.258883248730965 J10.284263959390863
G3 X28.50507614213198 Y16.012690355329948 I2.66497461928934 J13.967005076142131
G3 X31.167512690355327 Y16.263959390862944 I0 J14.218274111675127
G3 X33.34263959390863 Y16.913705583756343 I-2.0862944162436547 J10.934010152284264
G3 X35.34010152284264 Y17.99238578680203 I-4.258883248730965 J10.284263959390863
G3 X37.401015228426395 Y19.69796954314721 I-7.992385786802031 J11.758883248730964
G1 X39.19771573604061 Y17.900761421319796 F400
G3 X41.20812182741116 Y20.329949238578678 I-11.850253807106599 J11.850253807106599 F400
G3 X42.530456852791886 Y22.784263959390863 I-11.30710659898477 J7.685279187817259
G3 X43.32994923857868 Y25.454314720812185 I-12.631979695431472 J5.230964467005076
G3 X43.62690355329949 Y28.59390862944162 I-16.461928934010153 J3.1395939086294415
G3 X43.32994923857868 Y31.733502538071065 I-16.758883248730964 J0
G3 X42.530456852791886 Y34.40355329949239 I-13.428934010152284 J-2.560913705583756
G3 X41.20812182741116 Y36.85786802030457 I-12.631979695431472 J-5.230964467005076
G3 X39.19796954314721 Y39.286802030456855 I-13.860406091370558 J-9.418781725888325
G3 X36.766497461928935 Y41.29695431472081 I-11.850253807106599 J-11.850253807106599
G3 X34.31472081218274 Y42.621827411167516 I-7.685279187817259 J-11.30710659898477
G3 X31.644670050761423 Y43.41878172588832 I-5.230964467005076 J-12.631979695431472
G3 X28.50507614213198 Y43.71573604060914 I-3.1395939086294415 J-16.461928934010153
G3 X25.365482233502537 Y43.41878172588832 I0 J-16.758883248730964
G3 X22.695431472081218 Y42.621827411167516 I2.560913705583756 J-13.428934010152284
G3 X20.241116751269036 Y41.29695431472081 I5.230964467005076 J-12.631979695431472
G3 X17.81218274111675 Y39.286802030456855 I9.418781725888325 J-13.860406091370558
G3 X15.80203045685279 Y36.85786802030457 I11.850253807106599 J-11.850253807106599
G3 X14.477157360406093 Y34.40355329949239 I11.30710659898477 J-7.685279187817259
G3 X13.67766497461929 Y31.733502538071065 I12.631979695431472 J-5.230964467005076
G3 X13.380710659898478 Y28.59390862944162 I16.461928934010153 J-3.1395939086294415
G3 X13.67766497461929 Y25.454314720812185 I16.758883248730964 J0
G3 X14.477157360406093 Y22.784263959390863 I13.428934010152284 J2.560913705583756
G3 X15.80203045685279 Y20.329949238578678 I12.631979695431472 J5.230964467005076
G3 X17.81218274111675 Y17.901015228426395 I13.860406091370558 J9.418781725888325
G3 X20.241116751269036 Y15.890862944162436 I11.850253807106599 J11.850253807106599
G3 X22.695431472081218 Y14.565989847715738 I7.685279187817259 J11.30710659898477
G3 X25.365482233502537 Y13.769035532994923 I5.230964467005076 J12.631979695431472
G3 X28.50507614213198 Y13.472081218274113 I3.1395939086294415 J16.461928934010153
G3 X31.644670050761423 Y13.769035532994923 I0 J16.758883248730964
G3 X34.31472081218274 Y14.565989847715738 I-2.560913705583756 J13.428934010152284
G3 X36.766497461928935 Y15.890862944162436 I-5.230964467005076 J12.631979695431472
G3 X39.19796954314721 Y17.901015228426395 I-9.418781725888325 J13.860406091370558
G1 X40.993654822335024 Y16.104822335025382 F400
G3 X43.30964467005076 Y18.903553299492387 I-13.64467005076142 J13.64467005076142 F400
G3 X44.878172588832484 Y21.81218274111675 I-13.408629441624365 J9.111675126903553
G3 X45.8248730964467 Y24.977157360406093 I-14.97715736040609 J6.203045685279188
G3 X46.16751269035533 Y28.59390862944162 I-18.95685279187817 J3.6167512690355332
G3 X45.8248730964467 Y32.210659898477154 I-19.29695431472081 J0
G3 X44.878172588832484 Y35.3756345177665 I-15.923857868020303 J-3.0380710659898473
G3 X43.30964467005076 Y38.28426395939086 I-14.97715736040609 J-6.203045685279188
G3 X40.994923857868024 Y41.08375634517767 I-15.961928934010153 J-10.847715736040609
G3 X38.19543147208122 Y43.39847715736041 I-13.64467005076142 J-13.64467005076142
G3 X35.286802030456855 Y44.96700507614214 I-9.111675126903553 J-13.408629441624365
G3 X32.119289340101524 Y45.91370558375634 I-6.203045685279188 J-14.97715736040609
G3 X28.50507614213198 Y46.25634517766497 I-3.6167512690355332 J-18.95685279187817
G3 X24.888324873096444 Y45.91370558375634 I0 J-19.29695431472081
G3 X21.72335025380711 Y44.96700507614214 I3.0380710659898473 J-15.923857868020303
G3 X18.814720812182742 Y43.39847715736041 I6.203045685279188 J-14.97715736040609
G3 X16.01522842639594 Y41.08375634517767 I10.847715736040609 J-15.961928934010153
G3 X13.700507614213198 Y38.28426395939086 I13.64467005076142 J-13.64467005076142
G3 X12.129441624365482 Y35.3756345177665 I13.408629441624365 J-9.111675126903553
G3 X11.18274111675127 Y32.210659898477154 I14.97715736040609 J-6.203045685279188
G3 X10.842639593908629 Y28.59390862944162 I18.95685279187817 J-3.6167512690355332
G3 X11.18274111675127 Y24.977157360406093 I19.29695431472081 J0
G3 X12.129441624365482 Y21.81218274111675 I15.923857868020303 J3.0380710659898473
G3 X13.700507614213198 Y18.903553299492387 I14.97715736040609 J6.203045685279188
G3 X16.01522842639594 Y16.104060913705585 I15.961928934010153 J10.847715736040609
G3 X18.814720812182742 Y13.789340101522843 I13.64467005076142 J13.64467005076142
G3 X21.72335025380711 Y12.220812182741117 I9.111675126903553 J13.408629441624365
G3 X24.888324873096444 Y11.274111675126903 I6.203045685279188 J14.97715736040609
G3 X28.50507614213198 Y10.931472081218274 I3.6167512690355332 J18.95685279187817
G3 X32.119289340101524 Y11.274111675126903 I0 J19.29695431472081
G3 X35.286802030456855 Y12.220812182741117 I-3.0380710659898473 J15.923857868020303
G3 X38.19543147208122 Y13.789340101522843 I-6.203045685279188 J14.97715736040609
G3 X40.994923857868024 Y16.104060913705585 I-10.847715736040609 J15.961928934010153
G0 Z1
G0 X30.217258883248732 Y26.880964467005075
G1 Z-0.5 F200
G3 X30.703045685279186 Y27.46954314720812 I-2.8705583756345177 J2.8705583756345177 F400
G3 X30.799492385786806 Y27.64467005076142 I-0.8045685279187818 J0.5456852791878173
G3 X30.855329949238577 Y27.83248730964467 I-0.8984771573604061 J0.3730964467005076
G3 X30.926395939086294 Y28.59390862944162 I-3.9873096446700504 J0.7614213197969544
G3 X30.855329949238577 Y29.355329949238577 I-4.058375634517766 J0
G3 X30.799492385786806 Y29.54314720812183 I-0.9543147208121827 J-0.18274111675126906
G3 X30.703045685279186 Y29.71827411167513 I-0.8984771573604061 J-0.3730964467005076
G3 X30.218274111675125 Y30.307106598984774 I-3.3553299492385786 J-2.281725888324873
G3 X29.62944162436548 Y30.794416243654823 I-2.8705583756345177 J-2.8705583756345177
G3 X29.45431472081218 Y30.888324873096447 I-0.5456852791878173 J-0.8045685279187818
G3 X29.263959390862944 Y30.944162436548226 I-0.3730964467005076 J-0.8984771573604061
G3 X28.50507614213198 Y31.017766497461928 I-0.7614213197969544 J-3.9873096446700504
G3 X27.743654822335024 Y30.944162436548226 I0 J-4.058375634517766
G3 X27.553299492385786 Y30.888324873096447 I0.18274111675126906 J-0.9543147208121827
G3 X27.380710659898476 Y30.794416243654823 I0.3730964467005076 J-0.8984771573604061
G3 X26.791878172588834 Y30.307106598984774 I2.281725888324873 J-3.3553299492385786
G3 X26.304568527918782 Y29.71827411167513 I2.8705583756345177 J-2.8705583756345177
G3 X26.210659898477154 Y29.54314720812183 I0.8045685279187818 J-0.5456852791878173
G3 X26.154822335025383 Y29.355329949238577 I0.8984771573604061 J-0.3730964467005076
G3 X26.081218274111677 Y28.59390862944162 I3.9873096446700504 J-0.7614213197969544
G3 X26.154822335025383 Y27.83248730964467 I4.058375634517766 J0
G3 X26.210659898477154 Y27.64467005076142 I0.9543147208121827 J0.18274111675126906
G3 X26.304568527918782 Y27.46954314720812 I0.8984771573604061 J0.3730964467005076
G3 X26.791878172588834 Y26.880710659898476 I3.3553299492385786 J2.281725888324873
G3 X27.380710659898476 Y26.393401015228427 I2.8705583756345177 J2.8705583756345177
G3 X27.553299492385786 Y26.299492385786802 I0.5456852791878173 J0.8045685279187818
G3 X27.743654822335024 Y26.243654822335024 I0.3730964467005076 J0.8984771573604061
G3 X28.50507614213198 Y26.17258883248731 I0.7614213197969544 J3.9873096446700504
G3 X29.263959390862944 Y26.243654822335024 I0 J4.058375634517766
G3 X29.45431472081218 Y26.299492385786802 I-0.18274111675126906 J0.9543147208121827
G3 X29.62944162436548 Y26.393401015228427 I-0.3730964467005076 J0.8984771573604061
G3 X30.218274111675125 Y26.880710659898476 I-2.281725888324873 J3.3553299492385786
G1 X32.013451776649745 Y25.08502538071066 F400
G3 X32.80456852791878 Y26.04060913705584 I-4.66497461928934 J4.66497461928934 F400
G3 X33.14467005076142 Y26.67258883248731 I-2.9035532994923856 J1.9746192893401016
G3 X33.3502538071066 Y27.35786802030457 I-3.2436548223350252 J1.3451776649746192
G3 X33.46700507614213 Y28.59390862944162 I-6.482233502538071 J1.236040609137056
G3 X33.3502538071066 Y29.82994923857868 I-6.598984771573604 J0
G3 X33.14467005076142 Y30.51522842639594 I-3.449238578680203 J-0.6573604060913706
G3 X32.80456852791878 Y31.14720812182741 I-3.2436548223350252 J-1.3451776649746192
G3 X32.01269035532995 Y32.10406091370559 I-5.456852791878173 J-3.708121827411168
G3 X31.055837563451778 Y32.89340101522843 I-4.66497461928934 J-4.66497461928934
G3 X30.42639593908629 Y33.233502538071065 I-1.9746192893401016 J-2.9035532994923856
G3 X29.741116751269033 Y33.43908629441624 I-1.3451776649746192 J-3.2436548223350252
G3 X28.50507614213198 Y33.555837563451774 I-1.236040609137056 J-6.482233502538071
G3 X27.269035532994927 Y33.43908629441624 I0 J-6.598984771573604
G3 X26.581218274111677 Y33.233502538071065 I0.6573604060913706 J-3.449238578680203
G3 X25.951776649746193 Y32.89340101522843 I1.3451776649746192 J-3.2436548223350252
G3 X24.99492385786802 Y32.10406091370559 I3.708121827411168 J-5.456852791878173
G3 X24.203045685279186 Y31.14720812182741 I4.66497461928934 J-4.66497461928934
G3 X23.86294416243655 Y30.51522842639594 I2.9035532994923856 J-1.9746192893401016
G3 X23.659898477157363 Y29.82994923857868 I3.2436548223350252 J-1.3451776649746192
G3 X23.54314720812183 Y28.59390862944162 I6.482233502538071 J-1.236040609137056
G3 X23.659898477157363 Y27.35786802030457 I6.598984771573604 J0
G3 X23.86294416243655 Y26.67258883248731 I3.449238578680203 J0.6573604060913706
G3 X24.203045685279186 Y26.04060913705584 I3.2436548223350252 J1.3451776649746192
G3 X24.99492385786802 Y25.08375634517766 I5.456852791878173 J3.708121827411168
G3 X25.951776649746193 Y24.294416243654823 I4.66497461928934 J4.66497461928934
G3 X26.581218274111677 Y23.954314720812185 I1.9746192893401016 J2.9035532994923856
G3 X27.269035532994927 Y23.748730964467004 I1.3451776649746192 J3.2436548223350252
G3 X28.50507614213198 Y23.631979695431472 I1.236040609137056 J6.482233502538071
G3 X29.741116751269033 Y23.748730964467004 I0 J6.598984771573604
G3 X30.42639593908629 Y23.954314720812185 I-0.6573604060913706 J3.449238578680203
G3 X31.055837563451778 Y24.294416243654823 I-1.3451776649746192 J3.2436548223350252
G3 X32.01269035532995 Y25.08375634517766 I-3.708121827411168 J5.456852791878173
G1 X33.80939086294416 Y23.288832487309644 F400
G3 X34.90609137055837 Y24.614213197969544 I-6.461928934010153 J6.461928934010153 F400
G3 X35.49238578680203 Y25.7005076142132 I-5.00507614213198 J3.401015228426396
G3 X35.84517766497462 Y26.880710659898476 I-5.591370558375635 J2.314720812182741
G3 X36.00761421319797 Y28.59390862944162 I-8.977157360406093 J1.7131979695431472
G3 X35.84517766497462 Y30.307106598984774 I-9.137055837563452 J0
G3 X35.49238578680203 Y31.48730964467005 I-5.944162436548224 J-1.134517766497462
G3 X34.90609137055837 Y32.57360406091371 I-5.591370558375635 J-2.314720812182741
G3 X33.80964467005076 Y33.898477157360404 I-7.558375634517766 J-5.1370558375634525
G3 X32.48477157360406 Y34.994923857868024 I-6.461928934010153 J-6.461928934010153
G3 X31.398477157360407 Y35.58121827411168 I-3.401015228426396 J-5.00507614213198
G3 X30.215736040609137 Y35.934010152284266 I-2.314720812182741 J-5.591370558375635
G3 X28.50507614213198 Y36.09644670050761 I-1.7131979695431472 J-8.977157360406093
G3 X26.791878172588834 Y35.934010152284266 I0 J-9.137055837563452
G3 X25.609137055837564 Y35.58121827411168 I1.134517766497462 J-5.944162436548224
G3 X24.525380710659896 Y34.994923857868024 I2.314720812182741 J-5.591370558375635
G3 X23.2005076142132 Y33.898477157360404 I5.1370558375634525 J-7.558375634517766
G3 X22.104060913705585 Y32.57360406091371 I6.461928934010153 J-6.461928934010153
G3 X21.517766497461928 Y31.48730964467005 I5.00507614213198 J-3.401015228426396
G3 X21.16497461928934 Y30.307106598984774 I5.591370558375635 J-2.314720812182741
G3 X21.002538071065988 Y28.59390862944162 I8.977157360406093 J-1.7131979695431472
G3 X21.16497461928934 Y26.880710659898476 I9.137055837563452 J0
G3 X21.517766497461928 Y25.7005076142132 I5.944162436548224 J1.134517766497462
G3 X22.104060913705585 Y24.614213197969544 I5.591370558375635 J2.314720812182741
G3 X23.2005076142132 Y23.289340101522843 I7.558375634517766 J5.1370558375634525
G3 X24.525380710659896 Y22.192893401015226 I6.461928934010153 J6.461928934010153
G3 X25.609137055837564 Y21.606598984771573 I3.401015228426396 J5.00507614213198
G3 X26.791878172588834 Y21.253807106598984 I2.314720812182741 J5.591370558375635
G3 X28.50507614213198 Y21.091370558375637 I1.7131979695431472 J8.977157360406093
G3 X30.215736040609137 Y21.253807106598984 I0 J9.137055837563452
G3 X31.398477157360407 Y21.606598984771573 I-1.134517766497462 J5.944162436548224
G3 X32.48477157360406 Y22.192893401015226 I-2.314720812182741 J5.591370558375635
G3 X33.80964467005076 Y23.289340101522843 I-5.1370558375634525 J7.558375634517766
G1 X35.605583756345176 Y21.492893401015227 F400
G3 X37.00761421319797 Y23.185279187817258 I-8.258883248730966 J8.258883248730966 F400
G3 X37.83756345177665 Y24.728426395939085 I-7.106598984771574 J4.82994923857868
G3 X38.34010152284264 Y26.40609137055838 I-7.936548223350254 J3.286802030456853
G3 X38.545685279187815 Y28.59390862944162 I-11.472081218274113 J2.1878172588832485
G3 X38.34010152284264 Y30.78172588832487 I-11.677664974619288 J0
G3 X37.83756345177665 Y32.45939086294416 I-8.439086294416244 J-1.6091370558375635
G3 X37.00761421319797 Y34.00253807106599 I-7.936548223350254 J-3.286802030456853
G3 X35.60659898477157 Y35.69543147208122 I-9.657360406091371 J-6.563451776649746
G3 X33.911167512690355 Y37.09644670050761 I-8.258883248730966 J-8.258883248730966
G3 X32.370558375634516 Y37.92893401015228 I-4.82994923857868 J-7.106598984771574
G3 X30.69289340101523 Y38.42893401015228 I-3.286802030456853 J-7.936548223350254
G3 X28.50507614213198 Y38.63705583756345 I-2.1878172588832485 J-11.472081218274113
G3 X26.31725888324873 Y38.42893401015228 I0 J-11.677664974619288
G3 X24.63705583756345 Y37.92893401015228 I1.6091370558375635 J-8.439086294416244
G3 X23.096446700507617 Y37.09644670050761 I3.286802030456853 J-7.936548223350254
G3 X21.403553299492387 Y35.69543147208122 I6.563451776649746 J-9.657360406091371
G3 X20.00253807106599 Y34.00253807106599 I8.258883248730966 J-8.258883248730966
G3 X19.17005076142132 Y32.45939086294416 I7.106598984771574 J-4.82994923857868
G3 X18.66751269035533 Y30.78172588832487 I7.936548223350254 J-3.286802030456853
G3 X18.461928934010153 Y28.59390862944162 I11.472081218274113 J-2.1878172588832485
G3 X18.66751269035533 Y26.40609137055838 I11.677664974619288 J0
G3 X19.17005076142132 Y24.728426395939085 I8.439086294416244 J1.6091370558375635
G3 X20.00253807106599 Y23.185279187817258 I7.936548223350254 J3.286802030456853
G3 X21.403553299492387 Y21.49238578680203 I9.657360406091371 J6.563451776649746
G3 X23.096446700507617 Y20.091370558375633 I8.258883248730966 J8.258883248730966
G3 X24.63705583756345 Y19.261421319796955 I4.82994923857868 J7.106598984771574
G3 X26.31725888324873 Y18.758883248730964 I3.286802030456853 J7.936548223350254
G3 X28.50507614213198 Y18.550761421319798 I2.1878172588832485 J11.472081218274113
G3 X30.69289340101523 Y18.758883248730964 I0 J11.677664974619288
G3 X32.370558375634516 Y19.261421319796955 I-1.6091370558375635 J8.439086294416244
G3 X33.911167512690355 Y20.091370558375633 I-3.286802030456853 J7.936548223350254
G3 X35.60659898477157 Y21.49238578680203 I-6.563451776649746 J9.657360406091371
G1 X37.401522842639594 Y19.696954314720813 F400
G3 X39.10659898477157 Y21.758883248730964 I-10.053299492385788 J10.053299492385788 F400
G3 X40.18527918781726 Y23.756345177664976 I-9.205583756345177 J6.256345177664975
G3 X40.83502538071066 Y25.928934010152282 I-10.284263959390863 J4.258883248730965
G3 X41.08629441624365 Y28.59390862944162 I-13.967005076142131 J2.66497461928934
G3 X40.83502538071066 Y31.258883248730967 I-14.218274111675127 J0
G3 X40.18527918781726 Y33.431472081218274 I-10.934010152284264 J-2.0862944162436547
G3 X39.10659898477157 Y35.42893401015228 I-10.284263959390863 J-4.258883248730965
G3 X37.401015228426395 Y37.49238578680203 I-11.758883248730964 J-7.992385786802031
G3 X35.34010152284264 Y39.19796954314721 I-10.053299492385788 J-10.053299492385788
G3 X33.34263959390863 Y40.2741116751269 I-6.256345177664975 J-9.205583756345177
G3 X31.167512690355327 Y40.923857868020306 I-4.258883248730965 J-10.284263959390863
G3 X28.50507614213198 Y41.17766497461929 I-2.66497461928934 J-13.967005076142131
G3 X25.84010152284264 Y40.923857868020306 I0 J-14.218274111675127
G3 X23.66497461928934 Y40.2741116751269 I2.0862944162436547 J-10.934010152284264
G3 X21.67005076142132 Y39.19796954314721 I4.258883248730965 J-10.284263959390863
G3 X19.606598984771573 Y37.49238578680203 I7.992385786802031 J-11.758883248730964
G3 X17.901015228426395 Y35.42893401015228 I10.053299492385788 J-10.053299492385788
G3 X16.8248730964467 Y33.431472081218274 I9.205583756345177 J-6.256345177664975
G3 X16.17258883248731 Y31.258883248730967 I10.284263959390863 J-4.258883248730965
G3 X15.921319796954315 Y28.59390862944162 I13.967005076142131 J-2.66497461928934
G3 X16.17258883248731 Y25.928934010152282 I14.218274111675127 J0
G3 X16.8248730964467 Y23.756345177664976 I10.934010152284264 J2.0862944162436547
G3 X17.901015228426395 Y21.758883248730964 I10.284263959390863 J4.258883248730965
G3 X19.606598984771573 Y19.69796954314721 I11.758883248730964 J7.992385786802031
G3 X21.67005076142132 Y17.99238578680203 I10.053299492385788 J10.053299492385788
G3 X23.66497461928934 Y16.913705583756343 I6.256345177664975 J9.205583756345177
G3 X25.84010152284264 Y16.263959390862944 I4.258883248730965 J10.284263959390863
G3 X28.50507614213198 Y16.012690355329948 I2.66497461928934 J13.967005076142131
G3 X31.167512690355327 Y16.263959390862944 I0 J14.218274111675127
G3 X33.34263959390863 Y16.913705583756343 I-2.0862944162436547 J10.934010152284264
G3 X35.34010152284264 Y17.99238578680203 I-4.258883248730965 J10.284263959390863
G3 X37.401015228426395 Y19.69796954314721 I-7.992385786802031 J11.758883248730964
G1 X39.19771573604061 Y17.900761421319796 F400
G3 X41.20812182741116 Y20.329949238578678 I-11.850253807106599 J11.850253807106599 F400
G3 X42.530456852791886 Y22.784263959390863 I-11.30710659898477 J7.685279187817259
G3 X43.32994923857868 Y25.454314720812185 I-12.631979695431472 J5.230964467005076
G3 X43.62690355329949 Y28.59390862944162 I-16.461928934010153 J3.1395939086294415
G3 X43.32994923857868 Y31.733502538071065 I-16.758883248730964 J0
G3 X42.530456852791886 Y34.40355329949239 I-13.428934010152284 J-2.560913705583756
G3 X41.20812182741116 Y36.85786802030457 I-12.631979695431472 J-5.230964467005076
G3 X39.19796954314721 Y39.286802030456855 I-13.860406091370558 J-9.418781725888325
G3 X36.766497461928935 Y41.29695431472081 I-11.850253807106599 J-11.850253807106599
G3 X34.31472081218274 Y42.621827411167516 I-7.685279187817259 J-11.30710659898477
G3 X31.644670050761423 Y43.41878172588832 I-5.230964467005076 J-12.631979695431472
G3 X28.50507614213198 Y43.71573604060914 I-3.1395939086294415 J-16.461928934010153
G3 X25.365482233502537 Y43.41878172588832 I0 J-16.758883248730964
G3 X22.695431472081218 Y42.621827411167516 I2.560913705583756 J-13.428934010152284
G3 X20.241116751269036 Y41.29695431472081 I5.230964467005076 J-12.631979695431472
G3 X17.81218274111675 Y39.286802030456855 I9.418781725888325 J-13.860406091370558
G3 X15.80203045685279 Y36.85786802030457 I11.850253807106599 J-11.850253807106599
G3 X14.477157360406093 Y34.40355329949239 I11.30710659898477 J-7.685279187817259
G3 X13.67766497461929 Y31.733502538071065 I12.631979695431472 J-5.230964467005076
G3 X13.380710659898478 Y28.59390862944162 I16.461928934010153 J-3.1395939086294415
G3 X13.67766497461929 Y25.454314720812185 I16.758883248730964 J0
G3 X14.477157360406093 Y22.784263959390863 I13.428934010152284 J2.560913705583756
G3 X15.80203045685279 Y20.329949238578678 I12.631979695431472 J5.230964467005076
G3 X17.81218274111675 Y17.901015228426395 I13.860406091370558 J9.418781725888325
G3 X20.241116751269036 Y15.890862944162436 I11.850253807106599 J11.850253807106599
G3 X22.695431472081218 Y14.565989847715738 I7.685279187817259 J11.30710659898477
G3 X25.365482233502537 Y13.769035532994923 I5.230964467005076 J12.631979695431472
G3 X28.50507614213198 Y13.472081218274113 I3.1395939086294415 J16.461928934010153
G3 X31.644670050761423 Y13.769035532994923 I0 J16.758883248730964
G3 X34.31472081218274 Y14.565989847715738 I-2.560913705583756 J13.428934010152284
G3 X36.766497461928935 Y15.890862944162436 I-5.230964467005076 J12.631979695431472
G3 X39.19796954314721 Y17.901015228426395 I-9.418781725888325 J13.860406091370558
G1 X40.993654822335024 Y16.104822335025382 F400
G3 X43.30964467005076 Y18.903553299492387 I-13.64467005076142 J13.64467005076142 F400
G3 X44.878172588832484 Y21.81218274111675 I-13.408629441624365 J9.111675126903553
G3 X45.8248730964467 Y24.977157360406093 I-14.97715736040609 J6.203045685279188
G3 X46.16751269035533 Y28.59390862944162 I-18.95685279187817 J3.6167512690355332
G3 X45.8248730964467 Y32.210659898477154 I-19.29695431472081 J0
G3 X44.878172588832484 Y35.3756345177665 I-15.923857868020303 J-3.0380710659898473
G3 X43.30964467005076 Y38.28426395939086 I-14.97715736040609 J-6.203045685279188
G3 X40.994923857868024 Y41.08375634517767 I-15.961928934010153 J-10.847715736040609
G3 X38.19543147208122 Y43.39847715736041 I-13.64467005076142 J-13.64467005076142
G3 X35.286802030456855 Y44.96700507614214 I-9.111675126903553 J-13.408629441624365
G3 X32.119289340101524 Y45.91370558375634 I-6.203045685279188 J-14.97715736040609
G3 X28.50507614213198 Y46.25634517766497 I-3.6167512690355332 J-18.95685279187817
G3 X24.888324873096444 Y45.91370558375634 I0 J-19.29695431472081
G3 X21.72335025380711 Y44.96700507614214 I3.0380710659898473 J-15.923857868020303
G3 X18.814720812182742 Y43.39847715736041 I6.203045685279188 J-14.97715736040609
G3 X16.01522842639594 Y41.08375634517767 I10.847715736040609 J-15.961928934010153
G3 X13.700507614213198 Y38.28426395939086 I13.64467005076142 J-13.64467005076142
G3 X12.129441624365482 Y35.3756345177665 I13.408629441624365 J-9.111675126903553
G3 X11.18274111675127 Y32.210659898477154 I14.97715736040609 J-6.203045685279188
G3 X10.842639593908629 Y28.59390862944162 I18.95685279187817 J-3.6167512690355332
G3 X11.18274111675127 Y24.977157360406093 I19.29695431472081 J0
G3 X12.129441624365482 Y21.81218274111675 I15.923857868020303 J3.0380710659898473
G3 X13.700507614213198 Y18.903553299492387 I14.97715736040609 J6.203045685279188
G3 X16.01522842639594 Y16.104060913705585 I15.961928934010153 J10.847715736040609
G3 X18.814720812182742 Y13.789340101522843 I13.64467005076142 J13.64467005076142
G3 X21.72335025380711 Y12.220812182741117 I9.111675126903553 J13.408629441624365
G3 X24.888324873096444 Y11.274111675126903 I6.203045685279188 J14.97715736040609
G3 X28.50507614213198 Y10.931472081218274 I3.6167512690355332 J18.95685279187817
G3 X32.119289340101524 Y11.274111675126903 I0 J19.29695431472081
G3 X35.286802030456855 Y12.220812182741117 I-3.0380710659898473 J15.923857868020303
G3 X38.19543147208122 Y13.789340101522843 I-6.203045685279188 J14.97715736040609
G3 X40.994923857868024 Y16.104060913705585 I-10.847715736040609 J15.961928934010153
G0 Z1
G0 X30.217258883248732 Y26.880964467005075
G1 Z-0.6 F200
G3 X30.703045685279186 Y27.46954314720812 I-2.8705583756345177 J2.8705583756345177 F400
G3 X30.799492385786806 Y27.64467005076142 I-0.8045685279187818 J0.5456852791878173
G3 X30.855329949238577 Y27.83248730964467 I-0.8984771573604061 J0.3730964467005076
G3 X30.926395939086294 Y28.59390862944162 I-3.9873096446700504 J0.7614213197969544
G3 X30.855329949238577 Y29.355329949238577 I-4.058375634517766 J0
G3 X30.799492385786806 Y29.54314720812183 I-0.9543147208121827 J-0.18274111675126906
G3 X30.703045685279186 Y29.71827411167513 I-0.8984771573604061 J-0.3730964467005076
G3 X30.218274111675125 Y30.307106598984774 I-3.3553299492385786 J-2.281725888324873
G3 X29.62944162436548 Y30.794416243654823 I-2.8705583756345177 J-2.8705583756345177
G3 X29.45431472081218 Y30.888324873096447 I-0.5456852791878173 J-0.8045685279187818
G3 X29.263959390862944 Y30.944162436548226 I-0.3730964467005076 J-0.8984771573604061
G3 X28.50507614213198 Y31.017766497461928 I-0.7614213197969544 J-3.9873096446700504
G3 X27.743654822335024 Y30.944162436548226 I0 J-4.058375634517766
G3 X27.553299492385786 Y30.888324873096447 I0.18274111675126906 J-0.9543147208121827
G3 X27.380710659898476 Y30.794416243654823 I0.3730964467005076 J-0.8984771573604061
G3 X26.791878172588834 Y30.307106598984774 I2.281725888324873 J-3.3553299492385786
G3 X26.304568527918782 Y29.71827411167513 I2.8705583756345177 J-2.8705583756345177
G3 X26.210659898477154 Y29.54314720812183 I0.8045685279187818 J-0.5456852791878173
G3 X26.154822335025383 Y29.355329949238577 I0.8984771573604061 J-0.3730964467005076
G3 X26.081218274111677 Y28.59390862944162 I3.9873096446700504 J-0.7614213197969544
G3 X26.154822335025383 Y27.83248730964467 I4.058375634517766 J0
G3 X26.210659898477154 Y27.64467005076142 I0.9543147208121827 J0.18274111675126906
G3 X26.304568527918782 Y27.46954314720812 I0.8984771573604061 J0.3730964467005076
G3 X26.791878172588834 Y26.880710659898476 I3.3553299492385786 J2.281725888324873
G3 X27.380710659898476 Y26.393401015228427 I2.8705583756345177 J2.8705583756345177
G3 X27.553299492385786 Y26.299492385786802 I0.5456852791878173 J0.8045685279187818
G3 X27.743654822335024 Y26.243654822335024 I0.3730964467005076 J0.8984771573604061
G3 X28.50507614213198 Y26.17258883248731 I0.7614213197969544 J3.9873096446700504
G3 X29.263959390862944 Y26.243654822335024 I0 J4.058375634517766
G3 X29.45431472081218 Y26.299492385786802 I-0.18274111675126906 J0.9543147208121827
G3 X29.62944162436548 Y26.393401015228427 I-0.3730964467005076 J0.8984771573604061
G3 X30.218274111675125 Y26.880710659898476 I-2.281725888324873 J3.3553299492385786
G1 X32.013451776649745 Y25.08502538071066 F400
G3 X32.80456852791878 Y26.04060913705584 I-4.66497461928934 J4.66497461928934 F400
G3 X33.14467005076142 Y26.67258883248731 I-2.9035532994923856 J1.9746192893401016
G3 X33.3502538071066 Y27.35786802030457 I-3.2436548223350252 J1.3451776649746192
G3 X33.46700507614213 Y28.59390862944162 I-6.482233502538071 J1.236040609137056
G3 X33.3502538071066 Y29.82994923857868 I-6.598984771573604 J0
G3 X33.14467005076142 Y30.51522842639594 I-3.449238578680203 J-0.6573604060913706
G3 X32.80456852791878 Y31.14720812182741 I-3.2436548223350252 J-1.3451776649746192
G3 X32.01269035532995 Y32.10406091370559 I-5.456852791878173 J-3.708121827411168
G3 X31.055837563451778 Y32.89340101522843 I-4.66497461928934 J-4.66497461928934
G3 X30.42639593908629 Y33.233502538071065 I-1.9746192893401016 J-2.9035532994923856
G3 X29.741116751269033 Y33.43908629441624 I-1.3451776649746192 J-3.2436548223350252
G3 X28.50507614213198 Y33.555837563451774 I-1.236040609137056 J-6.482233502538071
G3 X27.269035532994927 Y33.43908629441624 I0 J-6.598984771573604
G3 X26.581218274111677 Y33.233502538071065 I0.6573604060913706 J-3.449238578680203
G3 X25.951776649746193 Y32.89340101522843 I1.3451776649746192 J-3.2436548223350252
G3 X24.99492385786802 Y32.10406091370559 I3.708121827411168 J-5.456852791878173
G3 X24.203045685279186 Y31.14720812182741 I4.66497461928934 J-4.66497461928934
G3 X23.86294416243655 Y30.51522842639594 I2.9035532994923856 J-1.9746192893401016
G3 X23.659898477157363 Y29.82994923857868 I3.2436548223350252 J-1.3451776649746192
G3 X23.54314720812183 Y28.59390862944162 I6.482233502538071 J-1.236040609137056
G3 X23.659898477157363 Y27.35786802030457 I6.598984771573604 J0
G3 X23.86294416243655 Y26.67258883248731 I3.449238578680203 J0.6573604060913706
G3 X24.203045685279186 Y26.04060913705584 I3.2436548223350252 J1.3451776649746192
G3 X24.99492385786802 Y25.08375634517766 I5.456852791878173 J3.708121827411168
G3 X25.951776649746193 Y24.294416243654823 I4.66497461928934 J4.66497461928934
G3 X26.581218274111677 Y23.954314720812185 I1.9746192893401016 J2.9035532994923856
G3 X27.269035532994927 Y23.748730964467004 I1.3451776649746192 J3.2436548223350252
G3 X28.50507614213198 Y23.631979695431472 I1.236040609137056 J6.482233502538071
G3 X29.741116751269033 Y23.748730964467004 I0 J6.598984771573604
G3 X30.42639593908629 Y23.954314720812185 I-0.6573604060913706 J3.449238578680203
G3 X31.055837563451778 Y24.294416243654823 I-1.3451776649746192 J3.2436548223350252
G3 X32.01269035532995 Y25.08375634517766 I-3.708121827411168 J5.456852791878173
G1 X33.80939086294416 Y23.288832487309644 F400
G3 X34.90609137055837 Y24.614213197969544 I-6.461928934010153 J6.461928934010153 F400
G3 X35.49238578680203 Y25.7005076142132 I-5.00507614213198 J3.401015228426396
G3 X35.84517766497462 Y26.880710659898476 I-5.591370558375635 J2.314720812182741
G3 X36.00761421319797 Y28.59390862944162 I-8.977157360406093 J1.7131979695431472
G3 X35.84517766497462 Y30.307106598984774 I-9.137055837563452 J0
G3 X35.49238578680203 Y31.48730964467005 I-5.944162436548224 J-1.134517766497462
G3 X34.90609137055837 Y32.57360406091371 I-5.591370558375635 J-2.314720812182741
G3 X33.80964467005076 Y33.898477157360404 I-7.558375634517766 J-5.1370558375634525
G3 X32.48477157360406 Y34.994923857868024 I-6.461928934010153 J-6.461928934010153
G3 X31.398477157360407 Y35.58121827411168 I-3.401015228426396 J-5.00507614213198
G3 X30.215736040609137 Y35.934010152284266 I-2.314720812182741 J-5.591370558375635
G3 X28.50507614213198 Y36.09644670050761 I-1.7131979695431472 J-8.977157360406093
G3 X26.791878172588834 Y35.934010152284266 I0 J-9.137055837563452
G3 X25.609137055837564 Y35.58121827411168 I1.134517766497462 J-5.944162436548224
G3 X24.525380710659896 Y34.994923857868024 I2.314720812182741 J-5.591370558375635
G3 X23.2005076142132 Y33.898477157360404 I5.1370558375634525 J-7.558375634517766
G3 X22.104060913705585 Y32.57360406091371 I6.461928934010153 J-6.461928934010153
G3 X21.517766497461928 Y31.48730964467005 I5.00507614213198 J-3.401015228426396
G3 X21.16497461928934 Y30.307106598984774 I5.591370558375635 J-2.314720812182741
G3 X21.002538071065988 Y28.59390862944162 I8.977157360406093 J-1.7131979695431472
G3 X21.16497461928934 Y26.880710659898476 I9.137055837563452 J0
G3 X21.517766497461928 Y25.7005076142132 I5.944162436548224 J1.134517766497462
G3 X22.104060913705585 Y24.614213197969544 I5.591370558375635 J2.314720812182741
G3 X23.2005076142132 Y23.289340101522843 I7.558375634517766 J5.1370558375634525
G3 X24.525380710659896 Y22.192893401015226 I6.461928934010153 J6.461928934010153
G3 X25.609137055837564 Y21.606598984771573 I3.401015228426396 J5.00507614213198
G3 X26.791878172588834 Y21.253807106598984 I2.314720812182741 J5.591370558375635
G3 X28.50507614213198 Y21.091370558375637 I1.7131979695431472 J8.977157360406093
G3 X30.215736040609137 Y21.253807106598984 I0 J9.137055837563452
G3 X31.398477157360407 Y21.606598984771573 I-1.134517766497462 J5.944162436548224
G3 X32.48477157360406 Y22.192893401015226 I-2.314720812182741 J5.591370558375635
G3 X33.80964467005076 Y23.289340101522843 I-5.1370558375634525 J7.558375634517766
G1 X35.605583756345176 Y21.492893401015227 F400
G3 X37.00761421319797 Y23.185279187817258 I-8.258883248730966 J8.258883248730966 F400
G3 X37.83756345177665 Y24.728426395939085 I-7.106598984771574 J4.82994923857868
G3 X38.34010152284264 Y26.40609137055838 I-7.936548223350254 J3.286802030456853
G3 X38.545685279187815 Y28.59390862944162 I-11.472081218274113 J2.1878172588832485
G3 X38.34010152284264 Y30.78172588832487 I-11.677664974619288 J0
G3 X37.83756345177665 Y32.45939086294416 I-8.439086294416244 J-1.6091370558375635
G3 X37.00761421319797 Y34.00253807106599 I-7.936548223350254 J-3.286802030456853
G3 X35.60659898477157 Y35.69543147208122 I-9.657360406091371 J-6.563451776649746
G3 X33.911167512690355 Y37.09644670050761 I-8.258883248730966 J-8.258883248730966
G3 X32.370558375634516 Y37.92893401015228 I-4.82994923857868 J-7.106598984771574
